; generated by Slic3r 1.0.0RC2 on 2014-05-23 at 17:33:20

; layer_height = 0.3
; perimeters = 3
; top_solid_layers = 3
; bottom_solid_layers = 3
; fill_density = 0.4
; perimeter_speed = 30
; infill_speed = 60
; travel_speed = 130
; nozzle_diameter = 0.4
; filament_diameter = 1.75
; extrusion_multiplier = 1
; perimeters extrusion width = 0.40mm
; infill extrusion width = 0.42mm
; solid infill extrusion width = 0.42mm
; top infill extrusion width = 0.42mm
; first layer extrusion width = 0.80mm

G21 ; set units to millimeters
M107
M104 S205 ; set temperature
G28 ; home all axes
G29; Auto Bed Leveling
G1 X0 Y0 Z40 F5000; Centers Nozzle
M109 S205 ; wait for temperature to be reached
G90 ; use absolute coordinates
G92 E0
M82 ; use absolute distances for extrusion
G1 F1800.000 E-5.00000
G92 E0
G1 Z0.400 F7800.000
G1 X-5.000 Y-11.710 F7800.000
G1 E5.00000 F1800.000
G1 X5.000 Y-11.710 E6.18765 F540.000
G1 X6.310 Y-11.590 E6.34389
G1 X7.570 Y-11.200 E6.50053
G1 X8.730 Y-10.580 E6.65675
G1 X9.750 Y-9.750 E6.81292
G1 X10.580 Y-8.730 E6.96910
G1 X11.200 Y-7.570 E7.12532
G1 X11.590 Y-6.310 E7.28196
G1 X11.710 Y-5.000 E7.43820
G1 X11.710 Y5.000 E8.62585
G1 X11.590 Y6.310 E8.78208
G1 X11.200 Y7.570 E8.93873
G1 X10.580 Y8.730 E9.09494
G1 X9.750 Y9.750 E9.25112
G1 X8.730 Y10.580 E9.40730
G1 X7.570 Y11.200 E9.56351
G1 X6.310 Y11.590 E9.72016
G1 X5.000 Y11.710 E9.87640
G1 X-5.000 Y11.710 E11.06405
G1 X-6.310 Y11.590 E11.22028
G1 X-7.570 Y11.200 E11.37693
G1 X-8.730 Y10.580 E11.53314
G1 X-9.750 Y9.750 E11.68932
G1 X-10.580 Y8.730 E11.84550
G1 X-11.200 Y7.570 E12.00171
G1 X-11.590 Y6.310 E12.15836
G1 X-11.710 Y5.000 E12.31459
G1 X-11.710 Y-5.000 E13.50224
G1 X-11.590 Y-6.310 E13.65848
G1 X-11.200 Y-7.570 E13.81513
G1 X-10.580 Y-8.730 E13.97134
G1 X-9.750 Y-9.750 E14.12752
G1 X-8.730 Y-10.580 E14.28370
G1 X-7.570 Y-11.200 E14.43991
G1 X-6.310 Y-11.590 E14.59656
G1 X-5.107 Y-11.700 E14.74007
G1 F1800.000 E9.74007
G92 E0
G1 X-3.172 Y-3.172 F7800.000
G1 E5.00000 F1800.000
G1 X3.172 Y-3.172 E5.75337 F540.000
G1 X3.172 Y3.172 E6.50674
G1 X-3.172 Y3.172 E7.26011
G1 X-3.172 Y-3.065 E8.00076
G1 X-3.886 Y-3.886 F7800.000
G1 X3.886 Y-3.886 E8.92376 F540.000
G1 X3.886 Y3.886 E9.84677
G1 X-3.886 Y3.886 E10.76977
G1 X-3.886 Y-3.779 E11.68006
G1 X-4.600 Y-4.600 F7800.000
G1 X4.600 Y-4.600 E12.77270 F540.000
G1 X4.600 Y4.600 E13.86534
G1 X-4.600 Y4.600 E14.95798
G1 X-4.600 Y-4.493 E16.03789
G1 X-3.982 Y-4.243 F7800.000
G1 X2.616 Y-2.691 F7800.000
G1 X2.691 Y-2.616 E16.05114 F1080.000
G1 X2.691 Y-1.555 E16.18366
G1 X1.555 Y-2.691 E16.38433
G1 X0.493 Y-2.691 E16.51685
G1 X2.691 Y-0.493 E16.90492
G1 X2.691 Y0.568 E17.03744
G1 X-0.568 Y-2.691 E17.61292
G1 X-1.630 Y-2.691 E17.74544
G1 X2.691 Y1.630 E18.50834
G1 X2.654 Y2.654 E18.63626
G1 X-2.654 Y-2.654 E19.57331
G1 X-2.691 Y-1.630 E19.70123
G1 X1.630 Y2.691 E20.46413
G1 X0.568 Y2.691 E20.59665
G1 X-2.691 Y-0.568 E21.17213
G1 X-2.691 Y0.493 E21.30465
G1 X-0.493 Y2.691 E21.69273
G1 X-1.555 Y2.691 E21.82525
G1 X-2.691 Y1.555 E22.02591
G1 X-2.691 Y2.616 E22.15843
G1 X-2.616 Y2.691 E22.17168
M106 S255
G1 F1800.000 E17.17168
G92 E0
G1 Z0.700 F7800.000
G1 X-4.000 Y4.000 F7800.000
G1 E5.00000 F1800.000
G1 X-4.000 Y-4.000 E5.39912 F600.000
G1 X4.000 Y-4.000 E5.79824
G1 X4.000 Y4.000 E6.19736
G1 X-3.940 Y4.000 E6.59349
G1 X-4.400 Y4.400 F7800.000
G1 X-4.400 Y-4.400 E7.03253 F600.000
G1 X4.400 Y-4.400 E7.47156
G1 X4.400 Y4.400 E7.91059
G1 X-4.340 Y4.400 E8.34663
G1 X-4.800 Y4.800 F7800.000
G1 X-4.800 Y-4.800 E8.82558 F600.000
G1 X4.800 Y-4.800 E9.30453
G1 X4.800 Y4.800 E9.78347
G1 X-4.740 Y4.800 E10.25943
G1 X-4.600 Y4.454 F7800.000
G1 X-3.685 Y-3.727 F7800.000
G1 X-3.727 Y-3.685 E10.26253 F715.681
G1 X-3.727 Y-3.092 E10.29353
G1 X-3.092 Y-3.727 E10.34048
G1 X-2.499 Y-3.727 E10.37149
G1 X-3.727 Y-2.499 E10.46228
G1 X-3.727 Y-1.906 E10.49329
G1 X-1.906 Y-3.727 E10.62793
G1 X-1.313 Y-3.727 E10.65894
G1 X-3.727 Y-1.313 E10.83743
G1 X-3.727 Y-0.720 E10.86844
G1 X-0.720 Y-3.727 E11.09078
G1 X-0.127 Y-3.727 E11.12179
G1 X-3.727 Y-0.127 E11.38798
G1 X-3.727 Y0.466 E11.41898
G1 X0.466 Y-3.727 E11.72902
G1 X1.059 Y-3.727 E11.76003
G1 X-3.727 Y1.059 E12.11391
G1 X-3.727 Y1.652 E12.14492
G1 X1.652 Y-3.727 E12.54265
G1 X2.244 Y-3.727 E12.57366
G1 X-3.727 Y2.244 E13.01524
G1 X-3.727 Y2.837 E13.04625
G1 X2.837 Y-3.727 E13.53168
G1 X3.430 Y-3.727 E13.56269
G1 X-3.727 Y3.430 E14.09197
G1 X-3.430 Y3.727 E14.11389
G1 X3.727 Y-3.430 E14.64317
G1 X3.727 Y-2.837 E14.67418
G1 X-2.837 Y3.727 E15.15961
G1 X-2.244 Y3.727 E15.19061
G1 X3.727 Y-2.244 E15.63220
G1 X3.727 Y-1.652 E15.66320
G1 X-1.652 Y3.727 E16.06094
G1 X-1.059 Y3.727 E16.09194
G1 X3.727 Y-1.059 E16.44583
G1 X3.727 Y-0.466 E16.47684
G1 X-0.466 Y3.727 E16.78688
G1 X0.127 Y3.727 E16.81788
G1 X3.727 Y0.127 E17.08407
G1 X3.727 Y0.720 E17.11508
G1 X0.720 Y3.727 E17.33742
G1 X1.313 Y3.727 E17.36842
G1 X3.727 Y1.313 E17.54692
G1 X3.727 Y1.906 E17.57792
G1 X1.906 Y3.727 E17.71257
G1 X2.499 Y3.727 E17.74357
G1 X3.727 Y2.499 E17.83437
G1 X3.727 Y3.092 E17.86538
G1 X3.092 Y3.727 E17.91233
G1 X3.685 Y3.727 E17.94333
G1 X3.727 Y3.685 E17.94643
G1 F1800.000 E12.94643
G92 E0
G1 Z1.000 F7800.000
G1 X4.000 Y4.000 F7800.000
G1 E5.00000 F1800.000
G1 X-4.000 Y4.000 E5.39912 F600.000
G1 X-4.000 Y-4.000 E5.79824
G1 X4.000 Y-4.000 E6.19736
G1 X4.000 Y3.940 E6.59349
G1 X4.400 Y4.400 F7800.000
G1 X-4.400 Y4.400 E7.03253 F600.000
G1 X-4.400 Y-4.400 E7.47156
G1 X4.400 Y-4.400 E7.91059
G1 X4.400 Y4.340 E8.34663
G1 X4.800 Y4.800 F7800.000
G1 X-4.800 Y4.800 E8.82558 F600.000
G1 X-4.800 Y-4.800 E9.30453
G1 X4.800 Y-4.800 E9.78347
G1 X4.800 Y4.740 E10.25943
G1 X4.454 Y4.600 F7800.000
G1 X-3.685 Y3.727 F7800.000
G1 X-3.727 Y3.685 E10.26253 F715.681
G1 X-3.727 Y3.092 E10.29353
G1 X-3.092 Y3.727 E10.34048
G1 X-2.499 Y3.727 E10.37149
G1 X-3.727 Y2.499 E10.46228
G1 X-3.727 Y1.906 E10.49329
G1 X-1.906 Y3.727 E10.62793
G1 X-1.313 Y3.727 E10.65894
G1 X-3.727 Y1.313 E10.83743
G1 X-3.727 Y0.720 E10.86844
G1 X-0.720 Y3.727 E11.09078
G1 X-0.127 Y3.727 E11.12179
G1 X-3.727 Y0.127 E11.38798
G1 X-3.727 Y-0.466 E11.41898
G1 X0.466 Y3.727 E11.72902
G1 X1.059 Y3.727 E11.76003
G1 X-3.727 Y-1.059 E12.11391
G1 X-3.727 Y-1.652 E12.14492
G1 X1.652 Y3.727 E12.54266
G1 X2.244 Y3.727 E12.57366
G1 X-3.727 Y-2.244 E13.01524
G1 X-3.727 Y-2.837 E13.04625
G1 X2.837 Y3.727 E13.53168
G1 X3.430 Y3.727 E13.56269
G1 X-3.727 Y-3.430 E14.09197
G1 X-3.430 Y-3.727 E14.11389
G1 X3.727 Y3.430 E14.64317
G1 X3.727 Y2.837 E14.67418
G1 X-2.837 Y-3.727 E15.15961
G1 X-2.244 Y-3.727 E15.19062
G1 X3.727 Y2.244 E15.63220
G1 X3.727 Y1.652 E15.66320
G1 X-1.652 Y-3.727 E16.06094
G1 X-1.059 Y-3.727 E16.09195
G1 X3.727 Y1.059 E16.44583
G1 X3.727 Y0.466 E16.47684
G1 X-0.466 Y-3.727 E16.78688
G1 X0.127 Y-3.727 E16.81788
G1 X3.727 Y-0.127 E17.08407
G1 X3.727 Y-0.720 E17.11508
G1 X0.720 Y-3.727 E17.33742
G1 X1.313 Y-3.727 E17.36843
G1 X3.727 Y-1.313 E17.54692
G1 X3.727 Y-1.906 E17.57792
G1 X1.906 Y-3.727 E17.71257
G1 X2.499 Y-3.727 E17.74358
G1 X3.727 Y-2.499 E17.83437
G1 X3.727 Y-3.092 E17.86538
G1 X3.092 Y-3.727 E17.91233
G1 X3.685 Y-3.727 E17.94333
G1 X3.727 Y-3.685 E17.94643
G1 F1800.000 E12.94643
G92 E0
G1 Z1.300 F7800.000
G1 X4.000 Y-4.000 F7800.000
G1 E5.00000 F1800.000
G1 X4.000 Y4.000 E5.39912 F600.000
G1 X-4.000 Y4.000 E5.79824
G1 X-4.000 Y-4.000 E6.19736
G1 X3.940 Y-4.000 E6.59349
G1 X4.400 Y-4.400 F7800.000
G1 X4.400 Y4.400 E7.03253 F600.000
G1 X-4.400 Y4.400 E7.47156
G1 X-4.400 Y-4.400 E7.91059
G1 X4.340 Y-4.400 E8.34663
G1 X4.800 Y-4.800 F7800.000
G1 X4.800 Y4.800 E8.82558 F600.000
G1 X-4.800 Y4.800 E9.30453
G1 X-4.800 Y-4.800 E9.78347
G1 X4.740 Y-4.800 E10.25943
G1 X4.600 Y-4.454 F7800.000
G1 X3.727 Y3.685 F7800.000
G1 X3.685 Y3.727 E10.26253 F715.680
G1 X3.092 Y3.727 E10.29353
G1 X3.727 Y3.092 E10.34048
G1 X3.727 Y2.499 E10.37149
G1 X2.499 Y3.727 E10.46228
G1 X1.906 Y3.727 E10.49329
G1 X3.727 Y1.906 E10.62793
G1 X3.727 Y1.313 E10.65894
G1 X1.313 Y3.727 E10.83743
G1 X0.720 Y3.727 E10.86844
G1 X3.727 Y0.720 E11.09078
G1 X3.727 Y0.127 E11.12178
G1 X0.127 Y3.727 E11.38797
G1 X-0.466 Y3.727 E11.41898
G1 X3.727 Y-0.466 E11.72901
G1 X3.727 Y-1.059 E11.76002
G1 X-1.059 Y3.727 E12.11390
G1 X-1.652 Y3.727 E12.14491
G1 X3.727 Y-1.652 E12.54264
G1 X3.727 Y-2.244 E12.57365
G1 X-2.244 Y3.727 E13.01523
G1 X-2.837 Y3.727 E13.04624
G1 X3.727 Y-2.837 E13.53166
G1 X3.727 Y-3.430 E13.56267
G1 X-3.430 Y3.727 E14.09195
G1 X-3.727 Y3.430 E14.11387
G1 X3.430 Y-3.727 E14.64315
G1 X2.837 Y-3.727 E14.67415
G1 X-3.727 Y2.837 E15.15958
G1 X-3.727 Y2.244 E15.19059
G1 X2.244 Y-3.727 E15.63217
G1 X1.651 Y-3.727 E15.66318
G1 X-3.727 Y1.651 E16.06091
G1 X-3.727 Y1.059 E16.09191
G1 X1.059 Y-3.727 E16.44580
G1 X0.466 Y-3.727 E16.47680
G1 X-3.727 Y0.466 E16.78684
G1 X-3.727 Y-0.127 E16.81785
G1 X-0.127 Y-3.727 E17.08404
G1 X-0.720 Y-3.727 E17.11504
G1 X-3.727 Y-0.720 E17.33738
G1 X-3.727 Y-1.313 E17.36839
G1 X-1.313 Y-3.727 E17.54688
G1 X-1.906 Y-3.727 E17.57789
G1 X-3.727 Y-1.906 E17.71253
G1 X-3.727 Y-2.499 E17.74354
G1 X-2.499 Y-3.727 E17.83433
G1 X-3.092 Y-3.727 E17.86534
G1 X-3.727 Y-3.092 E17.91229
G1 X-3.727 Y-3.685 E17.94329
G1 X-3.685 Y-3.727 E17.94639
G1 F1800.000 E12.94639
G92 E0
G1 Z1.600 F7800.000
G1 X-4.000 Y-4.000 F7800.000
G1 E5.00000 F1800.000
G1 X4.000 Y-4.000 E5.39912 F600.000
G1 X4.000 Y4.000 E5.79824
G1 X-4.000 Y4.000 E6.19736
G1 X-4.000 Y-3.940 E6.59349
G1 X-4.400 Y-4.400 F7800.000
G1 X4.400 Y-4.400 E7.03253 F600.000
G1 X4.400 Y4.400 E7.47156
G1 X-4.400 Y4.400 E7.91059
G1 X-4.400 Y-4.340 E8.34663
G1 X-4.800 Y-4.800 F7800.000
G1 X4.800 Y-4.800 E8.82558 F600.000
G1 X4.800 Y4.800 E9.30453
G1 X-4.800 Y4.800 E9.78347
G1 X-4.800 Y-4.740 E10.25943
G1 X-4.454 Y-4.600 F7800.000
G1 X3.727 Y-3.685 F7800.000
G1 X3.685 Y-3.727 E10.26253 F715.680
G1 X3.092 Y-3.727 E10.29353
G1 X3.727 Y-3.092 E10.34048
G1 X3.727 Y-2.499 E10.37149
G1 X2.499 Y-3.727 E10.46228
G1 X1.906 Y-3.727 E10.49329
G1 X3.727 Y-1.906 E10.62793
G1 X3.727 Y-1.313 E10.65894
G1 X1.313 Y-3.727 E10.83743
G1 X0.720 Y-3.727 E10.86844
G1 X3.727 Y-0.720 E11.09078
G1 X3.727 Y-0.127 E11.12178
G1 X0.127 Y-3.727 E11.38797
G1 X-0.466 Y-3.727 E11.41898
G1 X3.727 Y0.466 E11.72901
G1 X3.727 Y1.059 E11.76002
G1 X-1.059 Y-3.727 E12.11390
G1 X-1.651 Y-3.727 E12.14491
G1 X3.727 Y1.651 E12.54264
G1 X3.727 Y2.244 E12.57365
G1 X-2.244 Y-3.727 E13.01523
G1 X-2.837 Y-3.727 E13.04623
G1 X3.727 Y2.837 E13.53166
G1 X3.727 Y3.430 E13.56267
G1 X-3.430 Y-3.727 E14.09195
G1 X-3.727 Y-3.430 E14.11387
G1 X3.430 Y3.727 E14.64315
G1 X2.837 Y3.727 E14.67415
G1 X-3.727 Y-2.837 E15.15958
G1 X-3.727 Y-2.244 E15.19059
G1 X2.244 Y3.727 E15.63217
G1 X1.651 Y3.727 E15.66317
G1 X-3.727 Y-1.652 E16.06091
G1 X-3.727 Y-1.059 E16.09191
G1 X1.059 Y3.727 E16.44580
G1 X0.466 Y3.727 E16.47680
G1 X-3.727 Y-0.466 E16.78684
G1 X-3.727 Y0.127 E16.81785
G1 X-0.127 Y3.727 E17.08404
G1 X-0.720 Y3.727 E17.11504
G1 X-3.727 Y0.720 E17.33738
G1 X-3.727 Y1.313 E17.36839
G1 X-1.313 Y3.727 E17.54688
G1 X-1.906 Y3.727 E17.57789
G1 X-3.727 Y1.906 E17.71253
G1 X-3.727 Y2.499 E17.74354
G1 X-2.499 Y3.727 E17.83433
G1 X-3.092 Y3.727 E17.86534
G1 X-3.727 Y3.092 E17.91229
G1 X-3.727 Y3.685 E17.94329
G1 X-3.685 Y3.727 E17.94639
G1 F1800.000 E12.94639
G92 E0
G1 Z1.900 F7800.000
G1 X-4.000 Y4.000 F7800.000
G1 E5.00000 F1800.000
G1 X-4.000 Y-4.000 E5.39912 F600.000
G1 X4.000 Y-4.000 E5.79824
G1 X4.000 Y4.000 E6.19736
G1 X-3.940 Y4.000 E6.59349
G1 X-4.400 Y4.400 F7800.000
G1 X-4.400 Y-4.400 E7.03253 F600.000
G1 X4.400 Y-4.400 E7.47156
G1 X4.400 Y4.400 E7.91059
G1 X-4.340 Y4.400 E8.34663
G1 X-4.800 Y4.800 F7800.000
G1 X-4.800 Y-4.800 E8.82558 F600.000
G1 X4.800 Y-4.800 E9.30453
G1 X4.800 Y4.800 E9.78347
G1 X-4.740 Y4.800 E10.25943
G1 X-4.600 Y4.454 F7800.000
G1 X-3.685 Y-3.727 F7800.000
G1 X-3.727 Y-3.685 E10.26253 F715.680
G1 X-3.727 Y-3.092 E10.29353
G1 X-3.092 Y-3.727 E10.34048
G1 X-2.499 Y-3.727 E10.37149
G1 X-3.727 Y-2.499 E10.46228
G1 X-3.727 Y-1.906 E10.49329
G1 X-1.906 Y-3.727 E10.62793
G1 X-1.313 Y-3.727 E10.65894
G1 X-3.727 Y-1.313 E10.83743
G1 X-3.727 Y-0.720 E10.86844
G1 X-0.720 Y-3.727 E11.09078
G1 X-0.127 Y-3.727 E11.12178
G1 X-3.727 Y-0.127 E11.38797
G1 X-3.727 Y0.466 E11.41898
G1 X0.466 Y-3.727 E11.72901
G1 X1.059 Y-3.727 E11.76002
G1 X-3.727 Y1.059 E12.11390
G1 X-3.727 Y1.651 E12.14491
G1 X1.651 Y-3.727 E12.54264
G1 X2.244 Y-3.727 E12.57365
G1 X-3.727 Y2.244 E13.01523
G1 X-3.727 Y2.837 E13.04623
G1 X2.837 Y-3.727 E13.53166
G1 X3.430 Y-3.727 E13.56267
G1 X-3.727 Y3.430 E14.09195
G1 X-3.430 Y3.727 E14.11387
G1 X3.727 Y-3.430 E14.64315
G1 X3.727 Y-2.837 E14.67415
G1 X-2.837 Y3.727 E15.15958
G1 X-2.244 Y3.727 E15.19059
G1 X3.727 Y-2.244 E15.63217
G1 X3.727 Y-1.652 E15.66317
G1 X-1.652 Y3.727 E16.06091
G1 X-1.059 Y3.727 E16.09191
G1 X3.727 Y-1.059 E16.44580
G1 X3.727 Y-0.466 E16.47680
G1 X-0.466 Y3.727 E16.78684
G1 X0.127 Y3.727 E16.81785
G1 X3.727 Y0.127 E17.08403
G1 X3.727 Y0.720 E17.11504
G1 X0.720 Y3.727 E17.33738
G1 X1.313 Y3.727 E17.36839
G1 X3.727 Y1.313 E17.54688
G1 X3.727 Y1.906 E17.57788
G1 X1.906 Y3.727 E17.71253
G1 X2.499 Y3.727 E17.74353
G1 X3.727 Y2.499 E17.83433
G1 X3.727 Y3.092 E17.86534
G1 X3.092 Y3.727 E17.91229
G1 X3.685 Y3.727 E17.94329
G1 X3.727 Y3.685 E17.94639
G1 F1800.000 E12.94639
G92 E0
G1 Z2.200 F7800.000
G1 X4.000 Y4.000 F7800.000
G1 E5.00000 F1800.000
G1 X-4.000 Y4.000 E5.39912 F600.000
G1 X-4.000 Y-4.000 E5.79824
G1 X4.000 Y-4.000 E6.19736
G1 X4.000 Y3.940 E6.59349
G1 X4.400 Y4.400 F7800.000
G1 X-4.400 Y4.400 E7.03253 F600.000
G1 X-4.400 Y-4.400 E7.47156
G1 X4.400 Y-4.400 E7.91059
G1 X4.400 Y4.340 E8.34663
G1 X4.800 Y4.800 F7800.000
G1 X-4.800 Y4.800 E8.82558 F600.000
G1 X-4.800 Y-4.800 E9.30453
G1 X4.800 Y-4.800 E9.78347
G1 X4.800 Y4.740 E10.25943
G1 X4.454 Y4.600 F7800.000
G1 X-3.685 Y3.727 F7800.000
G1 X-3.727 Y3.685 E10.26253 F715.680
G1 X-3.727 Y3.092 E10.29353
G1 X-3.092 Y3.727 E10.34048
G1 X-2.499 Y3.727 E10.37149
G1 X-3.727 Y2.499 E10.46228
G1 X-3.727 Y1.906 E10.49329
G1 X-1.906 Y3.727 E10.62793
G1 X-1.313 Y3.727 E10.65894
G1 X-3.727 Y1.313 E10.83743
G1 X-3.727 Y0.720 E10.86844
G1 X-0.720 Y3.727 E11.09078
G1 X-0.127 Y3.727 E11.12178
G1 X-3.727 Y0.127 E11.38797
G1 X-3.727 Y-0.466 E11.41898
G1 X0.466 Y3.727 E11.72901
G1 X1.059 Y3.727 E11.76002
G1 X-3.727 Y-1.059 E12.11390
G1 X-3.727 Y-1.652 E12.14491
G1 X1.651 Y3.727 E12.54264
G1 X2.244 Y3.727 E12.57365
G1 X-3.727 Y-2.244 E13.01523
G1 X-3.727 Y-2.837 E13.04624
G1 X2.837 Y3.727 E13.53166
G1 X3.430 Y3.727 E13.56267
G1 X-3.727 Y-3.430 E14.09195
G1 X-3.430 Y-3.727 E14.11387
G1 X3.727 Y3.430 E14.64315
G1 X3.727 Y2.837 E14.67415
G1 X-2.837 Y-3.727 E15.15958
G1 X-2.244 Y-3.727 E15.19059
G1 X3.727 Y2.244 E15.63217
G1 X3.727 Y1.651 E15.66318
G1 X-1.651 Y-3.727 E16.06091
G1 X-1.059 Y-3.727 E16.09191
G1 X3.727 Y1.059 E16.44580
G1 X3.727 Y0.466 E16.47680
G1 X-0.466 Y-3.727 E16.78684
G1 X0.127 Y-3.727 E16.81785
G1 X3.727 Y-0.127 E17.08404
G1 X3.727 Y-0.720 E17.11504
G1 X0.720 Y-3.727 E17.33738
G1 X1.313 Y-3.727 E17.36839
G1 X3.727 Y-1.313 E17.54688
G1 X3.727 Y-1.906 E17.57789
G1 X1.906 Y-3.727 E17.71253
G1 X2.499 Y-3.727 E17.74354
G1 X3.727 Y-2.499 E17.83433
G1 X3.727 Y-3.092 E17.86534
G1 X3.092 Y-3.727 E17.91229
G1 X3.685 Y-3.727 E17.94329
G1 X3.727 Y-3.685 E17.94639
G1 F1800.000 E12.94639
G92 E0
G1 Z2.500 F7800.000
G1 X4.000 Y-4.000 F7800.000
G1 E5.00000 F1800.000
G1 X4.000 Y4.000 E5.39912 F600.000
G1 X-4.000 Y4.000 E5.79824
G1 X-4.000 Y-4.000 E6.19736
G1 X3.940 Y-4.000 E6.59349
G1 X4.400 Y-4.400 F7800.000
G1 X4.400 Y4.400 E7.03253 F600.000
G1 X-4.400 Y4.400 E7.47156
G1 X-4.400 Y-4.400 E7.91059
G1 X4.340 Y-4.400 E8.34663
G1 X4.800 Y-4.800 F7800.000
G1 X4.800 Y4.800 E8.82558 F600.000
G1 X-4.800 Y4.800 E9.30453
G1 X-4.800 Y-4.800 E9.78347
G1 X4.740 Y-4.800 E10.25943
G1 X4.600 Y-4.454 F7800.000
G1 X3.727 Y3.685 F7800.000
G1 X3.685 Y3.727 E10.26253 F715.680
G1 X3.092 Y3.727 E10.29353
G1 X3.727 Y3.092 E10.34048
G1 X3.727 Y2.499 E10.37149
G1 X2.499 Y3.727 E10.46228
G1 X1.906 Y3.727 E10.49329
G1 X3.727 Y1.906 E10.62793
G1 X3.727 Y1.313 E10.65894
G1 X1.313 Y3.727 E10.83743
G1 X0.720 Y3.727 E10.86844
G1 X3.727 Y0.720 E11.09078
G1 X3.727 Y0.127 E11.12178
G1 X0.127 Y3.727 E11.38797
