; generated by Slic3r 1.0.1 on 2014-05-25 at 19:42:32

; layer_height = 0.3
; perimeters = 3
; top_solid_layers = 3
; bottom_solid_layers = 3
; fill_density = 0.4
; perimeter_speed = 30
; infill_speed = 60
; travel_speed = 130
; nozzle_diameter = 0.4
; filament_diameter = 1.75
; extrusion_multiplier = 1
; perimeters extrusion width = 0.40mm
; infill extrusion width = 0.42mm
; solid infill extrusion width = 0.42mm
; top infill extrusion width = 0.42mm
; first layer extrusion width = 0.80mm

G21 ; set units to millimeters
M107
M104 S205 ; set temperature
G28 ; home all axes
G1 X0 Y0 Z40 F5000; Centers Nozzle
M109 S205 ; wait for temperature to be reached
G90 ; use absolute coordinates
G92 E0
M82 ; use absolute distances for extrusion
G1 F1800.000 E-5.00000
G92 E0
G1 Z0.400 F7800.000
G1 X-5.000 Y-11.710 F7800.000
G1 E5.00000 F1800.000
G1 X5.000 Y-11.710 E6.18765 F540.000
G1 X6.310 Y-11.590 E6.34389
G1 X7.570 Y-11.200 E6.50053
G1 X8.730 Y-10.580 E6.65675
G1 X9.750 Y-9.750 E6.81292
G1 X10.580 Y-8.730 E6.96910
G1 X11.200 Y-7.570 E7.12532
G1 X11.590 Y-6.310 E7.28196
G1 X11.710 Y-5.000 E7.43820
G1 X11.710 Y5.000 E8.62585
G1 X11.590 Y6.310 E8.78208
G1 X11.200 Y7.570 E8.93873
G1 X10.580 Y8.730 E9.09494
G1 X9.750 Y9.750 E9.25112
G1 X8.730 Y10.580 E9.40730
G1 X7.570 Y11.200 E9.56351
G1 X6.310 Y11.590 E9.72016
G1 X5.000 Y11.710 E9.87640
G1 X-5.000 Y11.710 E11.06405
G1 X-6.310 Y11.590 E11.22028
G1 X-7.570 Y11.200 E11.37693
G1 X-8.730 Y10.580 E11.53314
G1 X-9.750 Y9.750 E11.68932
G1 X-10.580 Y8.730 E11.84550
G1 X-11.200 Y7.570 E12.00171
G1 X-11.590 Y6.310 E12.15836
G1 X-11.710 Y5.000 E12.31459
G1 X-11.710 Y-5.000 E13.50224
G1 X-11.590 Y-6.310 E13.65848
G1 X-11.200 Y-7.570 E13.81513
G1 X-10.580 Y-8.730 E13.97134
G1 X-9.750 Y-9.750 E14.12752
G1 X-8.730 Y-10.580 E14.28370
G1 X-7.570 Y-11.200 E14.43991
G1 X-6.310 Y-11.590 E14.59656
G1 X-5.107 Y-11.700 E14.74007
G1 F1800.000 E9.74007
G92 E0
G1 X-3.172 Y-3.172 F7800.000
G1 E5.00000 F1800.000
G1 X3.172 Y-3.172 E5.75337 F540.000
G1 X3.172 Y3.172 E6.50674
G1 X-3.172 Y3.172 E7.26011
G1 X-3.172 Y-3.065 E8.00076
G1 X-3.886 Y-3.886 F7800.000
G1 X3.886 Y-3.886 E8.92376 F540.000
G1 X3.886 Y3.886 E9.84677
G1 X-3.886 Y3.886 E10.76977
G1 X-3.886 Y-3.779 E11.68006
G1 X-4.600 Y-4.600 F7800.000
G1 X4.600 Y-4.600 E12.77270 F540.000
G1 X4.600 Y4.600 E13.86534
G1 X-4.600 Y4.600 E14.95798
G1 X-4.600 Y-4.493 E16.03789
G1 X-3.982 Y-4.243 F7800.000
G1 X2.644 Y-2.664 F7800.000
G1 X2.664 Y-2.644 E16.04142 F1080.000
G1 X2.664 Y-1.582 E16.17394
G1 X1.582 Y-2.664 E16.36488
G1 X0.521 Y-2.664 E16.49740
G1 X2.664 Y-0.521 E16.87576
G1 X2.664 Y0.541 E17.00828
G1 X-0.541 Y-2.664 E17.57404
G1 X-1.602 Y-2.664 E17.70656
G1 X2.664 Y1.602 E18.45973
G1 X2.654 Y2.654 E18.59101
G1 X-2.654 Y-2.654 E19.52807
G1 X-2.664 Y-1.602 E19.65934
G1 X1.602 Y2.664 E20.41252
G1 X0.541 Y2.664 E20.54504
G1 X-2.664 Y-0.541 E21.11080
G1 X-2.664 Y0.521 E21.24332
G1 X-0.521 Y2.664 E21.62167
G1 X-1.582 Y2.664 E21.75419
G1 X-2.664 Y1.582 E21.94514
G1 X-2.664 Y2.644 E22.07766
G1 X-2.644 Y2.664 E22.08119
M106 S255
G1 F1800.000 E17.08119
G92 E0
G1 Z0.700 F7800.000
G1 X-4.000 Y4.000 F7800.000
G1 E5.00000 F1800.000
G1 X-4.000 Y-4.000 E5.39912 F600.000
G1 X4.000 Y-4.000 E5.79824
G1 X4.000 Y4.000 E6.19736
G1 X-3.940 Y4.000 E6.59349
G1 X-4.400 Y4.400 F7800.000
G1 X-4.400 Y-4.400 E7.03253 F600.000
G1 X4.400 Y-4.400 E7.47156
G1 X4.400 Y4.400 E7.91059
G1 X-4.340 Y4.400 E8.34663
G1 X-4.800 Y4.800 F7800.000
G1 X-4.800 Y-4.800 E8.82558 F600.000
G1 X4.800 Y-4.800 E9.30453
G1 X4.800 Y4.800 E9.78347
G1 X-4.740 Y4.800 E10.25943
G1 X-4.600 Y4.454 F7800.000
G1 X-3.696 Y-3.716 F7800.000
G1 X-3.716 Y-3.696 E10.26090 F714.068
G1 X-3.716 Y-3.103 E10.29191
G1 X-3.103 Y-3.716 E10.33724
G1 X-2.510 Y-3.716 E10.36824
G1 X-3.716 Y-2.510 E10.45742
G1 X-3.716 Y-1.917 E10.48842
G1 X-1.917 Y-3.716 E10.62145
G1 X-1.324 Y-3.716 E10.65245
G1 X-3.716 Y-1.324 E10.82933
G1 X-3.716 Y-0.731 E10.86033
G1 X-0.731 Y-3.716 E11.08105
G1 X-0.138 Y-3.716 E11.11206
G1 X-3.716 Y-0.138 E11.37663
G1 X-3.716 Y0.455 E11.40763
G1 X0.455 Y-3.716 E11.71605
G1 X1.048 Y-3.716 E11.74705
G1 X-3.716 Y1.048 E12.09932
G1 X-3.716 Y1.641 E12.13032
G1 X1.641 Y-3.716 E12.52644
G1 X2.233 Y-3.716 E12.55744
G1 X-3.716 Y2.233 E12.99741
G1 X-3.716 Y2.826 E13.02841
G1 X2.826 Y-3.716 E13.51222
G1 X3.419 Y-3.716 E13.54323
G1 X-3.716 Y3.419 E14.07089
G1 X-3.419 Y3.716 E14.09281
G1 X3.716 Y-3.419 E14.62047
G1 X3.716 Y-2.826 E14.65147
G1 X-2.826 Y3.716 E15.13529
G1 X-2.233 Y3.716 E15.16629
G1 X3.716 Y-2.233 E15.60625
G1 X3.716 Y-1.641 E15.63726
G1 X-1.641 Y3.716 E16.03337
G1 X-1.048 Y3.716 E16.06438
G1 X3.716 Y-1.048 E16.41664
G1 X3.716 Y-0.455 E16.44765
G1 X-0.455 Y3.716 E16.75607
G1 X0.138 Y3.716 E16.78707
G1 X3.716 Y0.138 E17.05164
G1 X3.716 Y0.731 E17.08265
G1 X0.731 Y3.716 E17.30337
G1 X1.324 Y3.716 E17.33437
G1 X3.716 Y1.324 E17.51125
G1 X3.716 Y1.917 E17.54225
G1 X1.917 Y3.716 E17.67528
G1 X2.510 Y3.716 E17.70628
G1 X3.716 Y2.510 E17.79546
G1 X3.716 Y3.103 E17.82646
G1 X3.103 Y3.716 E17.87179
G1 X3.696 Y3.716 E17.90279
G1 X3.716 Y3.696 E17.90427
G1 F1800.000 E12.90427
G92 E0
G1 Z1.000 F7800.000
G1 X4.000 Y4.000 F7800.000
G1 E5.00000 F1800.000
G1 X-4.000 Y4.000 E5.39912 F600.000
G1 X-4.000 Y-4.000 E5.79824
G1 X4.000 Y-4.000 E6.19736
G1 X4.000 Y3.940 E6.59349
G1 X4.400 Y4.400 F7800.000
G1 X-4.400 Y4.400 E7.03253 F600.000
G1 X-4.400 Y-4.400 E7.47156
G1 X4.400 Y-4.400 E7.91059
G1 X4.400 Y4.340 E8.34663
G1 X4.800 Y4.800 F7800.000
G1 X-4.800 Y4.800 E8.82558 F600.000
G1 X-4.800 Y-4.800 E9.30453
G1 X4.800 Y-4.800 E9.78347
G1 X4.800 Y4.740 E10.25943
G1 X4.454 Y4.600 F7800.000
G1 X-3.696 Y3.716 F7800.000
G1 X-3.716 Y3.696 E10.26090 F714.068
G1 X-3.716 Y3.103 E10.29191
G1 X-3.103 Y3.716 E10.33724
G1 X-2.510 Y3.716 E10.36824
G1 X-3.716 Y2.510 E10.45742
G1 X-3.716 Y1.917 E10.48842
G1 X-1.917 Y3.716 E10.62145
G1 X-1.324 Y3.716 E10.65245
G1 X-3.716 Y1.324 E10.82933
G1 X-3.716 Y0.731 E10.86033
G1 X-0.731 Y3.716 E11.08105
G1 X-0.138 Y3.716 E11.11206
G1 X-3.716 Y0.138 E11.37663
G1 X-3.716 Y-0.455 E11.40763
G1 X0.455 Y3.716 E11.71605
G1 X1.048 Y3.716 E11.74706
G1 X-3.716 Y-1.048 E12.09932
G1 X-3.716 Y-1.641 E12.13033
G1 X1.641 Y3.716 E12.52644
G1 X2.233 Y3.716 E12.55745
G1 X-3.716 Y-2.233 E12.99741
G1 X-3.716 Y-2.826 E13.02841
G1 X2.826 Y3.716 E13.51222
G1 X3.419 Y3.716 E13.54323
G1 X-3.716 Y-3.419 E14.07089
G1 X-3.419 Y-3.716 E14.09281
G1 X3.716 Y3.419 E14.62047
G1 X3.716 Y2.826 E14.65148
G1 X-2.826 Y-3.716 E15.13529
G1 X-2.233 Y-3.716 E15.16629
G1 X3.716 Y2.233 E15.60626
G1 X3.716 Y1.641 E15.63726
G1 X-1.641 Y-3.716 E16.03337
G1 X-1.048 Y-3.716 E16.06438
G1 X3.716 Y1.048 E16.41665
G1 X3.716 Y0.455 E16.44765
G1 X-0.455 Y-3.716 E16.75607
G1 X0.138 Y-3.716 E16.78707
G1 X3.716 Y-0.138 E17.05164
G1 X3.716 Y-0.731 E17.08265
G1 X0.731 Y-3.716 E17.30337
G1 X1.324 Y-3.716 E17.33437
G1 X3.716 Y-1.324 E17.51125
G1 X3.716 Y-1.917 E17.54225
G1 X1.917 Y-3.716 E17.67528
G1 X2.510 Y-3.716 E17.70628
G1 X3.716 Y-2.510 E17.79546
G1 X3.716 Y-3.103 E17.82646
G1 X3.103 Y-3.716 E17.87179
G1 X3.696 Y-3.716 E17.90280
G1 X3.716 Y-3.696 E17.90427
G1 F1800.000 E12.90427
G92 E0
G1 Z1.300 F7800.000
G1 X4.000 Y-4.000 F7800.000
G1 E5.00000 F1800.000
G1 X4.000 Y4.000 E5.39912 F600.000
G1 X-4.000 Y4.000 E5.79824
G1 X-4.000 Y-4.000 E6.19736
G1 X3.940 Y-4.000 E6.59349
G1 X4.400 Y-4.400 F7800.000
G1 X4.400 Y4.400 E7.03253 F600.000
G1 X-4.400 Y4.400 E7.47156
G1 X-4.400 Y-4.400 E7.91059
G1 X4.340 Y-4.400 E8.34663
G1 X4.800 Y-4.800 F7800.000
G1 X4.800 Y4.800 E8.82558 F600.000
G1 X-4.800 Y4.800 E9.30453
G1 X-4.800 Y-4.800 E9.78347
G1 X4.740 Y-4.800 E10.25943
G1 X4.600 Y-4.454 F7800.000
G1 X3.716 Y3.696 F7800.000
G1 X3.696 Y3.716 E10.26090 F714.067
G1 X3.103 Y3.716 E10.29191
G1 X3.716 Y3.103 E10.33724
G1 X3.716 Y2.510 E10.36824
G1 X2.510 Y3.716 E10.45742
G1 X1.917 Y3.716 E10.48842
G1 X3.716 Y1.917 E10.62145
G1 X3.716 Y1.324 E10.65245
G1 X1.324 Y3.716 E10.82932
G1 X0.731 Y3.716 E10.86033
G1 X3.716 Y0.731 E11.08105
G1 X3.716 Y0.138 E11.11205
G1 X0.138 Y3.716 E11.37662
G1 X-0.455 Y3.716 E11.40763
G1 X3.716 Y-0.455 E11.71604
G1 X3.716 Y-1.048 E11.74705
G1 X-1.048 Y3.716 E12.09931
G1 X-1.641 Y3.716 E12.13032
G1 X3.716 Y-1.641 E12.52643
G1 X3.716 Y-2.233 E12.55743
G1 X-2.233 Y3.716 E12.99739
G1 X-2.826 Y3.716 E13.02840
G1 X3.716 Y-2.826 E13.51221
G1 X3.716 Y-3.419 E13.54321
G1 X-3.419 Y3.716 E14.07087
G1 X-3.716 Y3.419 E14.09279
G1 X3.419 Y-3.716 E14.62045
G1 X2.826 Y-3.716 E14.65145
G1 X-3.716 Y2.826 E15.13526
G1 X-3.716 Y2.233 E15.16627
G1 X2.233 Y-3.716 E15.60623
G1 X1.641 Y-3.716 E15.63723
G1 X-3.716 Y1.641 E16.03334
G1 X-3.716 Y1.048 E16.06435
G1 X1.048 Y-3.716 E16.41661
G1 X0.455 Y-3.716 E16.44762
G1 X-3.716 Y0.455 E16.75603
G1 X-3.716 Y-0.138 E16.78704
G1 X-0.138 Y-3.716 E17.05161
G1 X-0.731 Y-3.716 E17.08261
G1 X-3.716 Y-0.731 E17.30333
G1 X-3.716 Y-1.324 E17.33434
G1 X-1.324 Y-3.716 E17.51121
G1 X-1.917 Y-3.716 E17.54221
G1 X-3.716 Y-1.917 E17.67524
G1 X-3.716 Y-2.510 E17.70624
G1 X-2.510 Y-3.716 E17.79542
G1 X-3.103 Y-3.716 E17.82642
G1 X-3.716 Y-3.103 E17.87175
G1 X-3.716 Y-3.696 E17.90275
G1 X-3.696 Y-3.716 E17.90423
G1 F1800.000 E12.90423
G92 E0
G1 Z1.600 F7800.000
G1 X-4.000 Y-4.000 F7800.000
G1 E5.00000 F1800.000
G1 X4.000 Y-4.000 E5.39912 F600.000
G1 X4.000 Y4.000 E5.79824
G1 X-4.000 Y4.000 E6.19736
G1 X-4.000 Y-3.940 E6.59349
G1 X-4.400 Y-4.400 F7800.000
G1 X4.400 Y-4.400 E7.03253 F600.000
G1 X4.400 Y4.400 E7.47156
G1 X-4.400 Y4.400 E7.91059
G1 X-4.400 Y-4.340 E8.34663
G1 X-4.800 Y-4.800 F7800.000
G1 X4.800 Y-4.800 E8.82558 F600.000
G1 X4.800 Y4.800 E9.30453
G1 X-4.800 Y4.800 E9.78347
G1 X-4.800 Y-4.740 E10.25943
G1 X-4.454 Y-4.600 F7800.000
G1 X3.716 Y-3.696 F7800.000
G1 X3.696 Y-3.716 E10.26090 F714.067
G1 X3.103 Y-3.716 E10.29191
G1 X3.716 Y-3.103 E10.33724
G1 X3.716 Y-2.510 E10.36824
G1 X2.510 Y-3.716 E10.45742
G1 X1.917 Y-3.716 E10.48842
G1 X3.716 Y-1.917 E10.62145
G1 X3.716 Y-1.324 E10.65245
G1 X1.324 Y-3.716 E10.82932
G1 X0.731 Y-3.716 E10.86033
G1 X3.716 Y-0.731 E11.08105
G1 X3.716 Y-0.138 E11.11205
G1 X0.138 Y-3.716 E11.37662
G1 X-0.455 Y-3.716 E11.40763
G1 X3.716 Y0.455 E11.71604
G1 X3.716 Y1.048 E11.74705
G1 X-1.048 Y-3.716 E12.09931
G1 X-1.641 Y-3.716 E12.13032
G1 X3.716 Y1.641 E12.52643
G1 X3.716 Y2.233 E12.55743
G1 X-2.233 Y-3.716 E12.99739
G1 X-2.826 Y-3.716 E13.02840
G1 X3.716 Y2.826 E13.51221
G1 X3.716 Y3.419 E13.54321
G1 X-3.419 Y-3.716 E14.07087
G1 X-3.716 Y-3.419 E14.09279
G1 X3.419 Y3.716 E14.62045
G1 X2.826 Y3.716 E14.65145
G1 X-3.716 Y-2.826 E15.13526
G1 X-3.716 Y-2.233 E15.16627
G1 X2.233 Y3.716 E15.60623
G1 X1.641 Y3.716 E15.63723
G1 X-3.716 Y-1.641 E16.03334
G1 X-3.716 Y-1.048 E16.06435
G1 X1.048 Y3.716 E16.41661
G1 X0.455 Y3.716 E16.44762
G1 X-3.716 Y-0.455 E16.75603
G1 X-3.716 Y0.138 E16.78704
G1 X-0.138 Y3.716 E17.05161
G1 X-0.731 Y3.716 E17.08261
G1 X-3.716 Y0.731 E17.30333
G1 X-3.716 Y1.324 E17.33434
G1 X-1.324 Y3.716 E17.51121
G1 X-1.917 Y3.716 E17.54221
G1 X-3.716 Y1.917 E17.67524
G1 X-3.716 Y2.510 E17.70624
G1 X-2.510 Y3.716 E17.79542
G1 X-3.103 Y3.716 E17.82642
G1 X-3.716 Y3.103 E17.87175
G1 X-3.716 Y3.696 E17.90275
G1 X-3.696 Y3.716 E17.90423
G1 F1800.000 E12.90423
G92 E0
G1 Z1.900 F7800.000
G1 X-4.000 Y4.000 F7800.000
G1 E5.00000 F1800.000
G1 X-4.000 Y-4.000 E5.39912 F600.000
G1 X4.000 Y-4.000 E5.79824
G1 X4.000 Y4.000 E6.19736
G1 X-3.940 Y4.000 E6.59349
G1 X-4.400 Y4.400 F7800.000
G1 X-4.400 Y-4.400 E7.03253 F600.000
G1 X4.400 Y-4.400 E7.47156
G1 X4.400 Y4.400 E7.91059
G1 X-4.340 Y4.400 E8.34663
G1 X-4.800 Y4.800 F7800.000
G1 X-4.800 Y-4.800 E8.82558 F600.000
G1 X4.800 Y-4.800 E9.30453
G1 X4.800 Y4.800 E9.78347
G1 X-4.740 Y4.800 E10.25943
G1 X-4.600 Y4.454 F7800.000
G1 X-3.696 Y-3.716 F7800.000
G1 X-3.716 Y-3.696 E10.26090 F714.067
G1 X-3.716 Y-3.103 E10.29191
G1 X-3.103 Y-3.716 E10.33724
G1 X-2.510 Y-3.716 E10.36824
G1 X-3.716 Y-2.510 E10.45742
G1 X-3.716 Y-1.917 E10.48842
G1 X-1.917 Y-3.716 E10.62145
G1 X-1.324 Y-3.716 E10.65245
G1 X-3.716 Y-1.324 E10.82932
G1 X-3.716 Y-0.731 E10.86033
G1 X-0.731 Y-3.716 E11.08105
G1 X-0.138 Y-3.716 E11.11205
G1 X-3.716 Y-0.138 E11.37662
G1 X-3.716 Y0.455 E11.40763
G1 X0.455 Y-3.716 E11.71604
G1 X1.048 Y-3.716 E11.74705
G1 X-3.716 Y1.048 E12.09931
G1 X-3.716 Y1.641 E12.13031
G1 X1.641 Y-3.716 E12.52643
G1 X2.233 Y-3.716 E12.55743
G1 X-3.716 Y2.233 E12.99739
G1 X-3.716 Y2.826 E13.02840
G1 X2.826 Y-3.716 E13.51220
G1 X3.419 Y-3.716 E13.54321
G1 X-3.716 Y3.419 E14.07087
G1 X-3.419 Y3.716 E14.09279
G1 X3.716 Y-3.419 E14.62045
G1 X3.716 Y-2.826 E14.65145
G1 X-2.826 Y3.716 E15.13526
G1 X-2.233 Y3.716 E15.16626
G1 X3.716 Y-2.233 E15.60622
G1 X3.716 Y-1.641 E15.63723
G1 X-1.641 Y3.716 E16.03334
G1 X-1.048 Y3.716 E16.06435
G1 X3.716 Y-1.048 E16.41661
G1 X3.716 Y-0.455 E16.44762
G1 X-0.455 Y3.716 E16.75603
G1 X0.138 Y3.716 E16.78704
G1 X3.716 Y0.138 E17.05161
G1 X3.716 Y0.731 E17.08261
G1 X0.731 Y3.716 E17.30333
G1 X1.324 Y3.716 E17.33434
G1 X3.716 Y1.324 E17.51121
G1 X3.716 Y1.917 E17.54221
G1 X1.917 Y3.716 E17.67524
G1 X2.510 Y3.716 E17.70624
G1 X3.716 Y2.510 E17.79542
G1 X3.716 Y3.103 E17.82642
G1 X3.103 Y3.716 E17.87175
G1 X3.696 Y3.716 E17.90275
G1 X3.716 Y3.696 E17.90423
G1 F1800.000 E12.90423
G92 E0
G1 Z2.200 F7800.000
G1 X4.000 Y4.000 F7800.000
G1 E5.00000 F1800.000
G1 X-4.000 Y4.000 E5.39912 F600.000
G1 X-4.000 Y-4.000 E5.79824
G1 X4.000 Y-4.000 E6.19736
G1 X4.000 Y3.940 E6.59349
G1 X4.400 Y4.400 F7800.000
G1 X-4.400 Y4.400 E7.03253 F600.000
G1 X-4.400 Y-4.400 E7.47156
G1 X4.400 Y-4.400 E7.91059
G1 X4.400 Y4.340 E8.34663
G1 X4.800 Y4.800 F7800.000
G1 X-4.800 Y4.800 E8.82558 F600.000
G1 X-4.800 Y-4.800 E9.30453
G1 X4.800 Y-4.800 E9.78347
G1 X4.800 Y4.740 E10.25943
G1 X4.454 Y4.600 F7800.000
G1 X-3.696 Y3.716 F7800.000
G1 X-3.716 Y3.696 E10.26090 F714.067
G1 X-3.716 Y3.103 E10.29191
G1 X-3.103 Y3.716 E10.33724
G1 X-2.510 Y3.716 E10.36824
G1 X-3.716 Y2.510 E10.45742
G1 X-3.716 Y1.917 E10.48842
G1 X-1.917 Y3.716 E10.62145
G1 X-1.324 Y3.716 E10.65245
G1 X-3.716 Y1.324 E10.82932
G1 X-3.716 Y0.731 E10.86033
G1 X-0.731 Y3.716 E11.08105
G1 X-0.138 Y3.716 E11.11205
G1 X-3.716 Y0.138 E11.37662
G1 X-3.716 Y-0.455 E11.40763
G1 X0.455 Y3.716 E11.71604
G1 X1.048 Y3.716 E11.74705
G1 X-3.716 Y-1.048 E12.09931
G1 X-3.716 Y-1.641 E12.13032
G1 X1.641 Y3.716 E12.52643
G1 X2.233 Y3.716 E12.55743
G1 X-3.716 Y-2.233 E12.99739
G1 X-3.716 Y-2.826 E13.02840
G1 X2.826 Y3.716 E13.51221
G1 X3.419 Y3.716 E13.54321
G1 X-3.716 Y-3.419 E14.07087
G1 X-3.419 Y-3.716 E14.09279
G1 X3.716 Y3.419 E14.62045
G1 X3.716 Y2.826 E14.65145
G1 X-2.826 Y-3.716 E15.13526
G1 X-2.233 Y-3.716 E15.16627
G1 X3.716 Y2.233 E15.60623
G1 X3.716 Y1.641 E15.63723
G1 X-1.641 Y-3.716 E16.03334
G1 X-1.048 Y-3.716 E16.06435
G1 X3.716 Y1.048 E16.41661
G1 X3.716 Y0.455 E16.44762
G1 X-0.455 Y-3.716 E16.75603
G1 X0.138 Y-3.716 E16.78704
G1 X3.716 Y-0.138 E17.05161
G1 X3.716 Y-0.731 E17.08261
G1 X0.731 Y-3.716 E17.30333
G1 X1.324 Y-3.716 E17.33434
G1 X3.716 Y-1.324 E17.51121
G1 X3.716 Y-1.917 E17.54221
G1 X1.917 Y-3.716 E17.67524
G1 X2.510 Y-3.716 E17.70624
G1 X3.716 Y-2.510 E17.79542
G1 X3.716 Y-3.103 E17.82642
G1 X3.103 Y-3.716 E17.87175
G1 X3.696 Y-3.716 E17.90275
G1 X3.716 Y-3.696 E17.90423
G1 F1800.000 E12.90423
G92 E0
G1 Z2.500 F7800.000
G1 X4.000 Y-4.000 F7800.000
G1 E5.00000 F1800.000
G1 X4.000 Y4.000 E5.39912 F600.000
G1 X-4.000 Y4.000 E5.79824
G1 X-4.000 Y-4.000 E6.19736
G1 X3.940 Y-4.000 E6.59349
G1 X4.400 Y-4.400 F7800.000
G1 X4.400 Y4.400 E7.03253 F600.000
G1 X-4.400 Y4.400 E7.47156
G1 X-4.400 Y-4.400 E7.91059
G1 X4.340 Y-4.400 E8.34663
G1 X4.800 Y-4.800 F7800.000
G1 X4.800 Y4.800 E8.82558 F600.000
G1 X-4.800 Y4.800 E9.30453
G1 X-4.800 Y-4.800 E9.78347
G1 X4.740 Y-4.800 E10.25943
G1 X4.600 Y-4.454 F7800.000
G1 X3.716 Y3.696 F7800.000
G1 X3.696 Y3.716 E10.26090 F714.067
G1 X3.103 Y3.716 E10.29191
G1 X3.716 Y3.103 E10.33724
G1 X3.716 Y2.510 E10.36824
G1 X2.510 Y3.716 E10.45742
G1 X1.917 Y3.716 E10.48842
G1 X3.716 Y1.917 E10.62145
G1 X3.716 Y1.324 E10.65245
G1 X1.324 Y3.716 E10.82932
G1 X0.731 Y3.716 E10.86033
G1 X3.716 Y0.731 E11.08105
G1 X3.716 Y0.138 E11.11205
G1 X0.138 Y3.716 E11.37662
G1 X-0.455 Y3.716 E11.40763
