; generated by Slic3r 1.0.0RC2 on 2014-05-23 at 21:11:27

; layer_height = 0.4
; perimeters = 3
; top_solid_layers = 3
; bottom_solid_layers = 3
; fill_density = 0.4
; perimeter_speed = 30
; infill_speed = 50
; travel_speed = 100
; nozzle_diameter = 0.5
; filament_diameter = 3
; extrusion_multiplier = 1
; perimeters extrusion width = 0.50mm
; infill extrusion width = 0.53mm
; solid infill extrusion width = 0.53mm
; top infill extrusion width = 0.53mm
; first layer extrusion width = 1.00mm

G21 ; set units to millimeters
M107
M104 S215 ; set temperature
G28 ; home all axes

G1 X0 Y0 Z40 F5000; Centers Nozzle
M109 S215 ; wait for temperature to be reached
G90 ; use absolute coordinates
G92 E0
M82 ; use absolute distances for extrusion
G1 F1800.000 E-5.00000
G92 E0
G1 Z0.500 F6000.000
G1 X90.130 Y90.130 F6000.000
G1 E5.00000 F1800.000
G1 X91.170 Y89.270 E5.08522 F540.000
G1 X92.360 Y88.630 E5.17054
G1 X93.660 Y88.240 E5.25624
G1 X95.000 Y88.110 E5.34125
G1 X105.000 Y88.110 E5.97271
G1 X106.340 Y88.240 E6.05772
G1 X107.640 Y88.630 E6.14342
G1 X108.830 Y89.270 E6.22875
G1 X109.870 Y90.130 E6.31396
G1 X110.730 Y91.170 E6.39918
G1 X111.370 Y92.360 E6.48450
G1 X111.760 Y93.660 E6.57020
G1 X111.890 Y95.000 E6.65522
G1 X111.890 Y105.000 E7.28667
G1 X111.760 Y106.340 E7.37168
G1 X111.370 Y107.640 E7.45739
G1 X110.730 Y108.830 E7.54271
G1 X109.870 Y109.870 E7.62792
G1 X108.830 Y110.730 E7.71314
G1 X107.640 Y111.370 E7.79846
G1 X106.340 Y111.760 E7.88417
G1 X105.000 Y111.890 E7.96918
G1 X95.000 Y111.890 E8.60063
G1 X93.660 Y111.760 E8.68565
G1 X92.360 Y111.370 E8.77135
G1 X91.170 Y110.730 E8.85667
G1 X90.130 Y109.870 E8.94189
G1 X89.270 Y108.830 E9.02710
G1 X88.630 Y107.640 E9.11242
G1 X88.240 Y106.340 E9.19813
G1 X88.110 Y105.000 E9.28314
G1 X88.110 Y95.000 E9.91459
G1 X88.240 Y93.660 E9.99961
G1 X88.630 Y92.360 E10.08531
G1 X89.270 Y91.170 E10.17063
G1 X90.045 Y90.233 E10.24739
G1 F1800.000 E5.24739
G92 E0
G1 X97.285 Y97.285 F6000.000
G1 E5.00000 F1800.000
G1 X102.715 Y97.285 E5.34283 F540.000
G1 X102.715 Y102.715 E5.68566
G1 X97.285 Y102.715 E6.02849
G1 X97.285 Y97.419 E6.36286
G1 X96.393 Y96.393 F6000.000
G1 X103.607 Y96.393 E6.81843 F540.000
G1 X103.607 Y103.607 E7.27400
G1 X96.393 Y103.607 E7.72957
G1 X96.393 Y96.527 E8.17669
G1 X95.500 Y95.500 F6000.000
G1 X104.500 Y95.500 E8.74500 F540.000
G1 X104.500 Y104.500 E9.31331
G1 X95.500 Y104.500 E9.88162
G1 X95.500 Y95.634 E10.44147
G1 X96.273 Y95.946 F6000.000
G1 X102.019 Y97.884 F6000.000
G1 X102.116 Y97.981 E10.45097 F1080.000
G1 X102.116 Y99.360 E10.54599
G1 X100.640 Y97.884 E10.68986
G1 X99.262 Y97.884 E10.78488
G1 X102.116 Y100.738 E11.06312
G1 X102.067 Y102.067 E11.15484
G1 X97.933 Y97.933 E11.55796
G1 X97.884 Y99.262 E11.64968
G1 X100.738 Y102.116 E11.92792
G1 X99.360 Y102.116 E12.02294
G1 X97.884 Y100.640 E12.16681
G1 X97.884 Y102.019 E12.26183
G1 X97.981 Y102.116 E12.27133
M106 S255
G1 F1800.000 E7.27133
G92 E0
G1 Z0.900 F6000.000
G1 X96.250 Y103.750 F6000.000
G1 E5.00000 F1800.000
G1 X96.250 Y96.250 E5.21221 F600.000
G1 X103.750 Y96.250 E5.42441
G1 X103.750 Y103.750 E5.63662
G1 X96.325 Y103.750 E5.84670
G1 X95.750 Y104.250 F6000.000
G1 X95.750 Y95.750 E6.08721 F600.000
G1 X104.250 Y95.750 E6.32771
G1 X104.250 Y104.250 E6.56821
G1 X95.825 Y104.250 E6.80659
G1 X95.250 Y104.750 F6000.000
G1 X95.250 Y95.250 E7.07538 F600.000
G1 X104.750 Y95.250 E7.34418
G1 X104.750 Y104.750 E7.61297
G1 X95.325 Y104.750 E7.87964
G1 X95.500 Y104.317 F6000.000
G1 X96.590 Y96.643 F6000.000
G1 X96.643 Y96.590 E7.88190 F609.006
G1 X97.395 Y96.590 E7.90452
G1 X96.590 Y97.395 E7.93877
G1 X96.590 Y98.147 E7.96138
G1 X98.147 Y96.590 E8.02761
G1 X98.899 Y96.590 E8.05023
G1 X96.590 Y98.899 E8.14844
G1 X96.590 Y99.651 E8.17106
G1 X99.651 Y96.590 E8.30125
G1 X100.402 Y96.590 E8.32387
G1 X96.590 Y100.402 E8.48605
G1 X96.590 Y101.154 E8.50867
G1 X101.154 Y96.590 E8.70283
G1 X101.906 Y96.590 E8.72545
G1 X96.590 Y101.906 E8.95160
G1 X96.590 Y102.658 E8.97421
G1 X102.658 Y96.590 E9.23235
G1 X103.383 Y96.617 E9.25418
G1 X96.617 Y103.383 E9.54204
G1 X97.342 Y103.410 E9.56387
G1 X103.410 Y97.342 E9.82200
G1 X103.410 Y98.094 E9.84462
G1 X98.094 Y103.410 E10.07077
G1 X98.846 Y103.410 E10.09338
G1 X103.410 Y98.846 E10.28755
G1 X103.410 Y99.598 E10.31017
G1 X99.598 Y103.410 E10.47235
G1 X100.349 Y103.410 E10.49497
G1 X103.410 Y100.349 E10.62516
G1 X103.410 Y101.101 E10.64778
G1 X101.101 Y103.410 E10.74599
G1 X101.853 Y103.410 E10.76861
G1 X103.410 Y101.853 E10.83484
G1 X103.410 Y102.605 E10.85746
G1 X102.605 Y103.410 E10.89170
G1 X103.357 Y103.410 E10.91432
G1 X103.410 Y103.357 E10.91658
G1 F1800.000 E5.91658
G92 E0
G1 Z1.300 F6000.000
G1 X103.750 Y103.750 F6000.000
G1 E5.00000 F1800.000
G1 X96.250 Y103.750 E5.21221 F600.000
G1 X96.250 Y96.250 E5.42441
G1 X103.750 Y96.250 E5.63662
G1 X103.750 Y103.675 E5.84670
G1 X104.250 Y104.250 F6000.000
G1 X95.750 Y104.250 E6.08721 F600.000
G1 X95.750 Y95.750 E6.32771
G1 X104.250 Y95.750 E6.56821
G1 X104.250 Y104.175 E6.80659
G1 X104.750 Y104.750 F6000.000
G1 X95.250 Y104.750 E7.07538 F600.000
G1 X95.250 Y95.250 E7.34418
G1 X104.750 Y95.250 E7.61297
G1 X104.750 Y104.675 E7.87964
G1 X104.317 Y104.500 F6000.000
G1 X96.643 Y103.410 F6000.000
G1 X96.590 Y103.357 E7.88191 F609.006
G1 X96.590 Y102.605 E7.90452
G1 X97.395 Y103.410 E7.93877
G1 X98.147 Y103.410 E7.96138
G1 X96.590 Y101.853 E8.02761
G1 X96.590 Y101.101 E8.05023
G1 X98.899 Y103.410 E8.14844
G1 X99.651 Y103.410 E8.17106
G1 X96.590 Y100.349 E8.30126
G1 X96.590 Y99.598 E8.32387
G1 X100.402 Y103.410 E8.48606
G1 X101.154 Y103.410 E8.50867
G1 X96.590 Y98.846 E8.70284
G1 X96.590 Y98.094 E8.72546
G1 X101.906 Y103.410 E8.95161
G1 X102.658 Y103.410 E8.97422
G1 X96.590 Y97.342 E9.23236
G1 X96.617 Y96.617 E9.25419
G1 X103.383 Y103.383 E9.54204
G1 X103.410 Y102.658 E9.56388
G1 X97.342 Y96.590 E9.82201
G1 X98.094 Y96.590 E9.84463
G1 X103.410 Y101.906 E10.07078
G1 X103.410 Y101.154 E10.09339
G1 X98.846 Y96.590 E10.28756
G1 X99.598 Y96.590 E10.31017
G1 X103.410 Y100.402 E10.47235
G1 X103.410 Y99.651 E10.49497
G1 X100.349 Y96.590 E10.62517
G1 X101.101 Y96.590 E10.64778
G1 X103.410 Y98.899 E10.74600
G1 X103.410 Y98.147 E10.76861
G1 X101.853 Y96.590 E10.83484
G1 X102.605 Y96.590 E10.85746
G1 X103.410 Y97.395 E10.89170
G1 X103.410 Y96.643 E10.91432
G1 X103.357 Y96.590 E10.91658
G1 F1800.000 E5.91658
G92 E0
G1 Z1.700 F6000.000
G1 X103.750 Y96.250 F6000.000
G1 E5.00000 F1800.000
G1 X103.750 Y103.750 E5.21221 F600.000
G1 X96.250 Y103.750 E5.42441
G1 X96.250 Y96.250 E5.63662
G1 X103.675 Y96.250 E5.84670
G1 X104.250 Y95.750 F6000.000
G1 X104.250 Y104.250 E6.08721 F600.000
G1 X95.750 Y104.250 E6.32771
G1 X95.750 Y95.750 E6.56821
G1 X104.175 Y95.750 E6.80659
G1 X104.750 Y95.250 F6000.000
G1 X104.750 Y104.750 E7.07538 F600.000
G1 X95.250 Y104.750 E7.34418
G1 X95.250 Y95.250 E7.61297
G1 X104.675 Y95.250 E7.87964
G1 X104.500 Y95.683 F6000.000
G1 X103.410 Y103.357 F6000.000
G1 X103.357 Y103.410 E7.88191 F609.006
G1 X102.605 Y103.410 E7.90452
G1 X103.410 Y102.605 E7.93877
G1 X103.410 Y101.853 E7.96138
G1 X101.853 Y103.410 E8.02761
G1 X101.101 Y103.410 E8.05023
G1 X103.410 Y101.101 E8.14844
G1 X103.410 Y100.349 E8.17106
G1 X100.349 Y103.410 E8.30126
G1 X99.598 Y103.410 E8.32387
G1 X103.410 Y99.598 E8.48605
G1 X103.410 Y98.846 E8.50867
G1 X98.846 Y103.410 E8.70283
G1 X98.094 Y103.410 E8.72545
G1 X103.410 Y98.094 E8.95160
G1 X103.410 Y97.342 E8.97422
G1 X97.342 Y103.410 E9.23235
G1 X96.617 Y103.383 E9.25418
G1 X103.383 Y96.617 E9.54203
G1 X102.658 Y96.590 E9.56387
G1 X96.590 Y102.658 E9.82200
G1 X96.590 Y101.906 E9.84461
G1 X101.906 Y96.590 E10.07076
G1 X101.154 Y96.590 E10.09338
G1 X96.590 Y101.154 E10.28754
G1 X96.590 Y100.402 E10.31016
G1 X100.402 Y96.590 E10.47234
G1 X99.651 Y96.590 E10.49495
G1 X96.590 Y99.651 E10.62515
G1 X96.590 Y98.899 E10.64777
G1 X98.899 Y96.590 E10.74598
G1 X98.147 Y96.590 E10.76860
G1 X96.590 Y98.147 E10.83482
G1 X96.590 Y97.395 E10.85744
G1 X97.395 Y96.590 E10.89168
G1 X96.643 Y96.590 E10.91430
G1 X96.590 Y96.643 E10.91656
G1 F1800.000 E5.91656
G92 E0
G1 Z2.100 F6000.000
G1 X96.250 Y96.250 F6000.000
G1 E5.00000 F1800.000
G1 X103.750 Y96.250 E5.21221 F600.000
G1 X103.750 Y103.750 E5.42441
G1 X96.250 Y103.750 E5.63662
G1 X96.250 Y96.325 E5.84670
G1 X95.750 Y95.750 F6000.000
G1 X104.250 Y95.750 E6.08721 F600.000
G1 X104.250 Y104.250 E6.32771
G1 X95.750 Y104.250 E6.56821
G1 X95.750 Y95.825 E6.80659
G1 X95.250 Y95.250 F6000.000
G1 X104.750 Y95.250 E7.07538 F600.000
G1 X104.750 Y104.750 E7.34418
G1 X95.250 Y104.750 E7.61297
G1 X95.250 Y95.325 E7.87964
G1 X95.683 Y95.500 F6000.000
G1 X103.357 Y96.590 F6000.000
G1 X103.410 Y96.643 E7.88190 F609.006
G1 X103.410 Y97.395 E7.90452
G1 X102.605 Y96.590 E7.93876
G1 X101.853 Y96.590 E7.96138
G1 X103.410 Y98.147 E8.02761
G1 X103.410 Y98.899 E8.05023
G1 X101.101 Y96.590 E8.14844
G1 X100.349 Y96.590 E8.17105
G1 X103.410 Y99.651 E8.30125
G1 X103.410 Y100.402 E8.32387
G1 X99.598 Y96.590 E8.48605
G1 X98.846 Y96.590 E8.50866
G1 X103.410 Y101.154 E8.70283
G1 X103.410 Y101.906 E8.72544
G1 X98.094 Y96.590 E8.95159
G1 X97.342 Y96.590 E8.97421
G1 X103.410 Y102.658 E9.23234
G1 X103.383 Y103.383 E9.25417
G1 X96.617 Y96.617 E9.54203
G1 X96.590 Y97.342 E9.56386
G1 X102.658 Y103.410 E9.82199
G1 X101.906 Y103.410 E9.84461
G1 X96.590 Y98.094 E10.07075
G1 X96.590 Y98.846 E10.09337
G1 X101.154 Y103.410 E10.28754
G1 X100.402 Y103.410 E10.31015
G1 X96.590 Y99.598 E10.47233
G1 X96.590 Y100.349 E10.49495
G1 X99.651 Y103.410 E10.62515
G1 X98.899 Y103.410 E10.64776
G1 X96.590 Y101.101 E10.74598
G1 X96.590 Y101.853 E10.76859
G1 X98.147 Y103.410 E10.83482
G1 X97.395 Y103.410 E10.85744
G1 X96.590 Y102.605 E10.89168
G1 X96.590 Y103.357 E10.91430
G1 X96.643 Y103.410 E10.91656
G1 F1800.000 E5.91656
G92 E0
G1 Z2.500 F6000.000
G1 X96.250 Y103.750 F6000.000
G1 E5.00000 F1800.000
G1 X96.250 Y96.250 E5.21221 F600.000
G1 X103.750 Y96.250 E5.42441
G1 X103.750 Y103.750 E5.63662
G1 X96.325 Y103.750 E5.84670
G1 X95.750 Y104.250 F6000.000
G1 X95.750 Y95.750 E6.08721 F600.000
G1 X104.250 Y95.750 E6.32771
G1 X104.250 Y104.250 E6.56821
G1 X95.825 Y104.250 E6.80659
G1 X95.250 Y104.750 F6000.000
G1 X95.250 Y95.250 E7.07538 F600.000
G1 X104.750 Y95.250 E7.34418
G1 X104.750 Y104.750 E7.61297
G1 X95.325 Y104.750 E7.87964
G1 X95.500 Y104.317 F6000.000
G1 X96.590 Y96.643 F6000.000
G1 X96.643 Y96.590 E7.88190 F609.006
G1 X97.395 Y96.590 E7.90452
G1 X96.590 Y97.395 E7.93876
G1 X96.590 Y98.147 E7.96138
G1 X98.147 Y96.590 E8.02761
G1 X98.899 Y96.590 E8.05023
G1 X96.590 Y98.899 E8.14844
G1 X96.590 Y99.651 E8.17105
G1 X99.651 Y96.590 E8.30125
G1 X100.402 Y96.590 E8.32387
G1 X96.590 Y100.402 E8.48605
G1 X96.590 Y101.154 E8.50866
G1 X101.154 Y96.590 E8.70283
G1 X101.906 Y96.590 E8.72544
G1 X96.590 Y101.906 E8.95159
G1 X96.590 Y102.658 E8.97421
G1 X102.658 Y96.590 E9.23234
G1 X103.383 Y96.617 E9.25417
G1 X96.617 Y103.383 E9.54203
G1 X97.342 Y103.410 E9.56386
G1 X103.410 Y97.342 E9.82199
G1 X103.410 Y98.094 E9.84461
G1 X98.094 Y103.410 E10.07075
G1 X98.846 Y103.410 E10.09337
G1 X103.410 Y98.846 E10.28754
G1 X103.410 Y99.598 E10.31015
G1 X99.598 Y103.410 E10.47233
G1 X100.349 Y103.410 E10.49495
G1 X103.410 Y100.349 E10.62515
G1 X103.410 Y101.101 E10.64776
G1 X101.101 Y103.410 E10.74598
G1 X101.853 Y103.410 E10.76859
G1 X103.410 Y101.853 E10.83482
G1 X103.410 Y102.605 E10.85744
G1 X102.605 Y103.410 E10.89168
G1 X103.357 Y103.410 E10.91430
G1 X103.410 Y103.357 E10.91656
G1 F1800.000 E5.91656
G92 E0
G1 Z2.900 F6000.000
G1 X103.750 Y103.750 F6000.000
G1 E5.00000 F1800.000
G1 X96.250 Y103.750 E5.21221 F600.000
G1 X96.250 Y96.250 E5.42441
G1 X103.750 Y96.250 E5.63662
G1 X103.750 Y103.675 E5.84670
G1 X104.250 Y104.250 F6000.000
G1 X95.750 Y104.250 E6.08721 F600.000
G1 X95.750 Y95.750 E6.32771
G1 X104.250 Y95.750 E6.56821
G1 X104.250 Y104.175 E6.80659
G1 X104.750 Y104.750 F6000.000
G1 X95.250 Y104.750 E7.07538 F600.000
G1 X95.250 Y95.250 E7.34418
G1 X104.750 Y95.250 E7.61297
G1 X104.750 Y104.675 E7.87964
G1 X104.317 Y104.500 F6000.000
G1 X96.643 Y103.410 F6000.000
G1 X96.590 Y103.357 E7.88191 F609.006
G1 X96.590 Y102.605 E7.90452
G1 X97.395 Y103.410 E7.93877
G1 X98.147 Y103.410 E7.96138
G1 X96.590 Y101.853 E8.02761
G1 X96.590 Y101.101 E8.05023
G1 X98.899 Y103.410 E8.14844
G1 X99.651 Y103.410 E8.17106
G1 X96.590 Y100.349 E8.30126
G1 X96.590 Y99.598 E8.32387
G1 X100.402 Y103.410 E8.48605
G1 X101.154 Y103.410 E8.50867
G1 X96.590 Y98.846 E8.70283
G1 X96.590 Y98.094 E8.72545
G1 X101.906 Y103.410 E8.95160
G1 X102.658 Y103.410 E8.97422
G1 X96.590 Y97.342 E9.23235
G1 X96.617 Y96.617 E9.25418
G1 X103.383 Y103.383 E9.54203
G1 X103.410 Y102.658 E9.56387
G1 X97.342 Y96.590 E9.82200
G1 X98.094 Y96.590 E9.84461
G1 X103.410 Y101.906 E10.07076
G1 X103.410 Y101.154 E10.09338
G1 X98.846 Y96.590 E10.28754
G1 X99.598 Y96.590 E10.31016
G1 X103.410 Y100.402 E10.47234
G1 X103.410 Y99.651 E10.49495
G1 X100.349 Y96.590 E10.62515
G1 X101.101 Y96.590 E10.64777
G1 X103.410 Y98.899 E10.74598
G1 X103.410 Y98.147 E10.76860
G1 X101.853 Y96.590 E10.83482
G1 X102.605 Y96.590 E10.85744
G1 X103.410 Y97.395 E10.89168
G1 X103.410 Y96.643 E10.91430
G1 X103.357 Y96.590 E10.91656
G1 F1800.000 E5.91656
G92 E0
G1 Z3.300 F6000.000
G1 X103.750 Y96.250 F6000.000
G1 E5.00000 F1800.000
G1 X103.750 Y103.750 E5.21221 F600.000
G1 X96.250 Y103.750 E5.42441
G1 X96.250 Y96.250 E5.63662
G1 X103.675 Y96.250 E5.84670
G1 X104.250 Y95.750 F6000.000
G1 X104.250 Y104.250 E6.08721 F600.000
G1 X95.750 Y104.250 E6.32771
G1 X95.750 Y95.750 E6.56821
G1 X104.175 Y95.750 E6.80659
G1 X104.750 Y95.250 F6000.000
G1 X104.750 Y104.750 E7.07538 F600.000
G1 X95.250 Y104.750 E7.34418
G1 X95.250 Y95.250 E7.61297
G1 X104.675 Y95.250 E7.87964
G1 X104.500 Y95.683 F6000.000
G1 X103.410 Y103.357 F6000.000
G1 X103.357 Y103.410 E7.88191 F609.006
G1 X102.605 Y103.410 E7.90452
G1 X103.410 Y102.605 E7.93877
G1 X103.410 Y101.853 E7.96138
G1 X101.853 Y103.410 E8.02761
G1 X101.101 Y103.410 E8.05023
G1 X103.410 Y101.101 E8.14844
G1 X103.410 Y100.349 E8.17106
G1 X100.349 Y103.410 E8.30126
G1 X99.598 Y103.410 E8.32387
G1 X103.410 Y99.598 E8.48605
G1 X103.410 Y98.846 E8.50867
G1 X98.846 Y103.410 E8.70283
G1 X98.094 Y103.410 E8.72545
G1 X103.410 Y98.094 E8.95160
G1 X103.410 Y97.342 E8.97422
G1 X97.342 Y103.410 E9.23235
G1 X96.617 Y103.383 E9.25418
G1 X103.383 Y96.617 E9.54203
G1 X102.658 Y96.590 E9.56387
G1 X96.590 Y102.658 E9.82200
G1 X96.590 Y101.906 E9.84461
G1 X101.906 Y96.590 E10.07076
G1 X101.154 Y96.590 E10.09338
G1 X96.590 Y101.154 E10.28754
G1 X96.590 Y100.402 E10.31016
G1 X100.402 Y96.590 E10.47234
G1 X99.651 Y96.590 E10.49495
G1 X96.590 Y99.651 E10.62515
G1 X96.590 Y98.899 E10.64777
G1 X98.899 Y96.590 E10.74598
G1 X98.147 Y96.590 E10.76860
G1 X96.590 Y98.147 E10.83482
G1 X96.590 Y97.395 E10.85744
G1 X97.395 Y96.590 E10.89168
G1 X96.643 Y96.590 E10.91430
G1 X96.590 Y96.643 E10.91656
G1 F1800.000 E5.91656
G92 E0
G1 Z3.700 F6000.000
G1 X96.250 Y96.250 F6000.000
G1 E5.00000 F1800.000
G1 X103.750 Y96.250 E5.21221 F600.000
G1 X103.750 Y103.750 E5.42441
G1 X96.250 Y103.750 E5.63662
G1 X96.250 Y96.325 E5.84670
G1 X95.750 Y95.750 F6000.000
G1 X104.250 Y95.750 E6.08721 F600.000
G1 X104.250 Y104.250 E6.32771
G1 X95.750 Y104.250 E6.56821
G1 X95.750 Y95.825 E6.80659
G1 X95.250 Y95.250 F6000.000
G1 X104.750 Y95.250 E7.07538 F600.000
G1 X104.750 Y104.750 E7.34418
G1 X95.250 Y104.750 E7.61297
G1 X95.250 Y95.325 E7.87964
G1 X95.683 Y95.500 F6000.000
G1 X103.357 Y96.590 F6000.000
G1 X103.410 Y96.643 E7.88190 F609.006
G1 X103.410 Y97.395 E7.90452
G1 X102.605 Y96.590 E7.93876
G1 X101.853 Y96.590 E7.96138
G1 X103.410 Y98.147 E8.02761
G1 X103.410 Y98.899 E8.05023
G1 X101.101 Y96.590 E8.14844
G1 X100.349 Y96.590 E8.17105
G1 X103.410 Y99.651 E8.30125
G1 X103.410 Y100.402 E8.32387
G1 X99.598 Y96.590 E8.48605
G1 X98.846 Y96.590 E8.50866
G1 X103.410 Y101.154 E8.70283
G1 X103.410 Y101.906 E8.72544
G1 X98.094 Y96.590 E8.95159
G1 X97.342 Y96.590 E8.97421
G1 X103.410 Y102.658 E9.23234
G1 X103.383 Y103.383 E9.25417
G1 X96.617 Y96.617 E9.54203
G1 X96.590 Y97.342 E9.56386
G1 X102.658 Y103.410 E9.82199
G1 X101.906 Y103.410 E9.84461
