; generated by Slic3r 1.0.0RC2 on 2014-09-01 at 08:33:23

; layer_height = 0.15
; perimeters = 1
; top_solid_layers = 3
; bottom_solid_layers = 3
; fill_density = 0.2
; perimeter_speed = 40
; infill_speed = 80
; travel_speed = 130
; nozzle_diameter = 0.4
; filament_diameter = 1.75
; extrusion_multiplier = 1
; perimeters extrusion width = 0.40mm
; infill extrusion width = 0.87mm
; solid infill extrusion width = 0.68mm
; top infill extrusion width = 0.68mm
; first layer extrusion width = 0.70mm

G21 ; set units to millimeters
M107
M104 S210 ; set temperature
G28 ; home all axes
G1 X0 Y0 Z40 F5000; Centers Nozzle
M109 S210 ; wait for temperature to be reached
G90 ; use absolute coordinates
G92 E0
M82 ; use absolute distances for extrusion
G1 F1800.000 E-1.00000
G92 E0
G1 Z0.350 F7800.000
G1 X-5.000 Y-11.640 F7800.000
G1 E1.00000 F1800.000
G1 X5.000 Y-11.640 E1.92491 F720.000
G1 X6.290 Y-11.510 E2.04483
G1 X7.540 Y-11.130 E2.16567
G1 X8.690 Y-10.520 E2.28607
G1 X9.690 Y-9.690 E2.40627
G1 X10.520 Y-8.690 E2.52647
G1 X11.130 Y-7.540 E2.64687
G1 X11.510 Y-6.290 E2.76770
G1 X11.640 Y-5.000 E2.88762
G1 X11.640 Y5.000 E3.81253
G1 X11.510 Y6.290 E3.93245
G1 X11.130 Y7.540 E4.05329
G1 X10.520 Y8.690 E4.17369
G1 X9.690 Y9.690 E4.29389
G1 X8.690 Y10.520 E4.41409
G1 X7.540 Y11.130 E4.53449
G1 X6.290 Y11.510 E4.65533
G1 X5.000 Y11.640 E4.77524
G1 X-5.000 Y11.640 E5.70015
G1 X-6.290 Y11.510 E5.82007
G1 X-7.540 Y11.130 E5.94091
G1 X-8.690 Y10.520 E6.06131
G1 X-9.690 Y9.690 E6.18151
G1 X-10.520 Y8.690 E6.30171
G1 X-11.130 Y7.540 E6.42211
G1 X-11.510 Y6.290 E6.54295
G1 X-11.640 Y5.000 E6.66287
G1 X-11.640 Y-5.000 E7.58778
G1 X-11.510 Y-6.290 E7.70769
G1 X-11.130 Y-7.540 E7.82853
G1 X-10.520 Y-8.690 E7.94893
G1 X-9.690 Y-9.690 E8.06913
G1 X-8.690 Y-10.520 E8.18933
G1 X-7.540 Y-11.130 E8.30973
G1 X-6.290 Y-11.510 E8.43057
G1 X-5.095 Y-11.630 E8.54167
G1 F1800.000 E7.54167
G92 E0
G1 X-5.658 Y-6.589 F7800.000
G1 E1.00000 F1800.000
G1 X5.658 Y-6.589 E2.04667 F720.000
G1 X6.589 Y-5.658 E2.16842
G1 X6.589 Y5.658 E3.21509
G1 X5.658 Y6.589 E3.33684
G1 X-5.658 Y6.589 E4.38351
G1 X-6.589 Y5.658 E4.50526
G1 X-6.589 Y-5.658 E5.55193
G1 X-5.726 Y-6.522 E5.66487
G1 X-5.395 Y-5.953 F7800.000
G1 X5.395 Y-5.953 E6.66283 F720.000
G1 X5.953 Y-5.395 E6.73589
G1 X5.953 Y5.395 E7.73385
G1 X5.395 Y5.953 E7.80690
G1 X-5.395 Y5.953 E8.80487
G1 X-5.953 Y5.395 E8.87792
G1 X-5.953 Y-5.395 E9.87588
G1 X-5.462 Y-5.886 E9.94012
G1 X-5.132 Y-5.318 F7800.000
G1 X5.132 Y-5.318 E10.88938 F720.000
G1 X5.318 Y-5.132 E10.91373
G1 X5.318 Y5.132 E11.86299
G1 X5.132 Y5.318 E11.88734
G1 X-5.132 Y5.318 E12.83660
G1 X-5.318 Y5.132 E12.86095
G1 X-5.318 Y-5.132 E13.81021
G1 X-5.199 Y-5.250 E13.82575
G1 X-4.650 Y-4.650 F7800.000
G1 X4.650 Y-4.650 E14.68591 F540.000
G1 X4.650 Y4.650 E15.54608
G1 X-4.650 Y4.650 E16.40624
G1 X-4.650 Y-4.555 E17.25759
G1 X-4.156 Y4.222 F7800.000
G1 X-4.222 Y4.156 E17.26651 F1080.000
G1 X-4.222 Y3.225 E17.35568
G1 X-3.225 Y4.222 E17.49070
G1 X-2.294 Y4.222 E17.57987
G1 X-4.222 Y2.294 E17.84101
G1 X-4.222 Y1.363 E17.93018
G1 X-1.363 Y4.222 E18.31742
G1 X-0.433 Y4.222 E18.40659
G1 X-4.222 Y0.433 E18.91993
G1 X-4.222 Y-0.498 E19.00910
G1 X0.498 Y4.222 E19.64855
G1 X1.429 Y4.222 E19.73773
G1 X-4.222 Y-1.429 E20.50328
G1 X-4.222 Y-2.360 E20.59245
G1 X2.360 Y4.222 E21.48412
G1 X3.291 Y4.222 E21.57329
G1 X-4.222 Y-3.291 E22.59106
G1 X-4.189 Y-4.189 E22.67714
G1 X4.189 Y4.189 E23.81210
G1 X4.222 Y3.291 E23.89818
G1 X-3.291 Y-4.222 E24.91595
G1 X-2.360 Y-4.222 E25.00512
G1 X4.222 Y2.360 E25.89678
G1 X4.222 Y1.429 E25.98595
G1 X-1.429 Y-4.222 E26.75151
G1 X-0.498 Y-4.222 E26.84068
G1 X4.222 Y0.498 E27.48013
G1 X4.222 Y-0.433 E27.56930
G1 X0.433 Y-4.222 E28.08265
G1 X1.363 Y-4.222 E28.17182
G1 X4.222 Y-1.363 E28.55905
G1 X4.222 Y-2.294 E28.64823
G1 X2.294 Y-4.222 E28.90936
G1 X3.225 Y-4.222 E28.99853
G1 X4.222 Y-3.225 E29.13355
G1 X4.222 Y-4.156 E29.22272
G1 X4.156 Y-4.222 E29.23163
M106 S255
G1 F1800.000 E28.23163
G92 E0
G1 Z0.500 F7800.000
G1 X4.800 Y-4.800 F7800.000
G1 E1.00000 F1800.000
G1 X4.800 Y4.800 E1.23947 F600.000
G1 X-4.800 Y4.800 E1.47895
G1 X-4.800 Y-4.800 E1.71842
G1 X4.740 Y-4.800 E1.95640
G1 X-4.421 Y-4.487 F7800.000
G1 X-4.487 Y-4.421 E1.96027 F600.000
G1 X-4.487 Y-3.483 E1.99905
G1 X-3.483 Y-4.487 E2.05776
G1 X-2.546 Y-4.487 E2.09654
G1 X-4.487 Y-2.546 E2.21010
G1 X-4.487 Y-1.608 E2.24887
G1 X-1.608 Y-4.487 E2.41727
G1 X-0.670 Y-4.487 E2.45604
G1 X-4.487 Y-0.670 E2.67928
G1 X-4.487 Y0.268 E2.71806
G1 X0.268 Y-4.487 E2.99613
G1 X1.205 Y-4.487 E3.03490
G1 X-4.487 Y1.205 E3.36782
G1 X-4.487 Y2.143 E3.40659
G1 X2.143 Y-4.487 E3.79434
G1 X3.081 Y-4.487 E3.83312
G1 X-4.487 Y3.081 E4.27571
G1 X-4.487 Y4.019 E4.31449
G1 X4.019 Y-4.487 E4.81192
G1 X4.487 Y-4.019 E4.83934
G1 X-4.019 Y4.487 E5.33677
G1 X-3.081 Y4.487 E5.37554
G1 X4.487 Y-3.081 E5.81813
G1 X4.487 Y-2.143 E5.85691
G1 X-2.143 Y4.487 E6.24466
G1 X-1.205 Y4.487 E6.28344
G1 X4.487 Y-1.205 E6.61635
G1 X4.487 Y-0.268 E6.65513
G1 X-0.268 Y4.487 E6.93320
G1 X0.670 Y4.487 E6.97198
G1 X4.487 Y0.670 E7.19521
G1 X4.487 Y1.608 E7.23399
G1 X1.608 Y4.487 E7.40239
G1 X2.546 Y4.487 E7.44116
G1 X4.487 Y2.546 E7.55472
G1 X4.487 Y3.483 E7.59350
G1 X3.483 Y4.487 E7.65221
G1 X4.421 Y4.487 E7.69099
G1 X4.487 Y4.421 E7.69487
G1 F1800.000 E6.69487
G92 E0
G1 Z0.650 F7800.000
G1 X4.800 Y4.800 F7800.000
G1 E1.00000 F1800.000
G1 X-4.800 Y4.800 E1.23947 F600.000
G1 X-4.800 Y-4.800 E1.47895
G1 X4.800 Y-4.800 E1.71842
G1 X4.800 Y4.740 E1.95640
G1 X4.487 Y-4.421 F7800.000
G1 X4.421 Y-4.487 E1.96027 F600.000
G1 X3.483 Y-4.487 E1.99905
G1 X4.487 Y-3.483 E2.05776
G1 X4.487 Y-2.546 E2.09654
G1 X2.546 Y-4.487 E2.21010
G1 X1.608 Y-4.487 E2.24887
G1 X4.487 Y-1.608 E2.41727
G1 X4.487 Y-0.670 E2.45604
G1 X0.670 Y-4.487 E2.67928
G1 X-0.268 Y-4.487 E2.71806
G1 X4.487 Y0.268 E2.99613
G1 X4.487 Y1.205 E3.03490
G1 X-1.205 Y-4.487 E3.36782
G1 X-2.143 Y-4.487 E3.40659
G1 X4.487 Y2.143 E3.79434
G1 X4.487 Y3.081 E3.83312
G1 X-3.081 Y-4.487 E4.27571
G1 X-4.019 Y-4.487 E4.31449
G1 X4.487 Y4.019 E4.81192
G1 X4.019 Y4.487 E4.83934
G1 X-4.487 Y-4.019 E5.33677
G1 X-4.487 Y-3.081 E5.37554
G1 X3.081 Y4.487 E5.81813
G1 X2.143 Y4.487 E5.85691
G1 X-4.487 Y-2.143 E6.24466
G1 X-4.487 Y-1.205 E6.28344
G1 X1.205 Y4.487 E6.61635
G1 X0.268 Y4.487 E6.65513
G1 X-4.487 Y-0.268 E6.93320
G1 X-4.487 Y0.670 E6.97198
G1 X-0.670 Y4.487 E7.19521
G1 X-1.608 Y4.487 E7.23399
G1 X-4.487 Y1.608 E7.40239
G1 X-4.487 Y2.546 E7.44116
G1 X-2.546 Y4.487 E7.55472
G1 X-3.483 Y4.487 E7.59350
G1 X-4.487 Y3.483 E7.65221
G1 X-4.487 Y4.421 E7.69099
G1 X-4.421 Y4.487 E7.69487
G1 F1800.000 E6.69487
G92 E0
G1 Z0.800 F7800.000
G1 X-4.800 Y4.800 F7800.000
G1 E1.00000 F1800.000
G1 X-4.800 Y-4.800 E1.23947 F600.000
G1 X4.800 Y-4.800 E1.47895
G1 X4.800 Y4.800 E1.71842
G1 X-4.740 Y4.800 E1.95640
G1 X-4.454 Y2.710 F7800.000
G1 X-2.710 Y4.454 E2.08527 F600.000
G1 X-4.454 Y1.525 E2.26338
G1 X-1.596 Y4.384 E2.47457
G1 X2.142 Y3.382 E2.67673
G1 X3.214 Y4.454 E2.75594
G1 X4.399 Y4.454 E2.81784
G1 X2.734 Y2.790 E2.94083
G1 X3.736 Y-0.948 E3.14298
G1 X0.229 Y-4.454 E3.40206
G1 X1.414 Y-4.454 E3.46395
G1 X4.328 Y-1.540 E3.67926
G1 X4.454 Y-1.574 E3.68609
G1 X-0.981 Y-4.454 E4.00746
G1 X-3.764 Y-3.709 E4.15799
G1 X-4.454 Y-4.399 E4.20898
G1 X-4.454 Y-3.214 E4.27088
G1 X-4.357 Y-3.116 E4.27810
G1 X-4.454 Y-2.751 E4.29783
G1 F1800.000 E3.29783
G92 E0
G1 Z0.950 F7800.000
G1 X-4.800 Y-4.800 F7800.000
G1 E1.00000 F1800.000
G1 X4.800 Y-4.800 E1.23947 F600.000
G1 X4.800 Y4.800 E1.47895
G1 X-4.800 Y4.800 E1.71842
G1 X-4.800 Y-4.740 E1.95640
G1 X-4.454 Y-3.957 F7800.000
G1 X-2.599 Y-4.454 E2.05672 F600.000
G1 X4.454 Y-2.008 E2.44677
G1 X3.519 Y-1.757 E2.49737
G1 X0.822 Y-4.454 E2.69666
G1 X0.637 Y-4.454 E2.70628
G1 X-4.357 Y-3.116 E2.97639
G1 X-4.454 Y-2.751 E2.99612
G1 X-4.454 Y2.118 E3.25050
G1 X-2.405 Y4.167 E3.40190
G1 X2.734 Y2.790 E3.67987
G1 X3.736 Y-0.948 E3.88203
G1 X4.454 Y-1.140 E3.92090
G1 X3.806 Y4.454 E4.21515
G1 X2.951 Y3.599 E4.27834
G1 X-0.241 Y4.454 E4.45099
G1 F1800.000 E3.45099
G92 E0
G1 Z1.100 F7800.000
G1 X-4.800 Y4.800 F7800.000
G1 E1.00000 F1800.000
G1 X-4.800 Y-4.800 E1.23947 F600.000
G1 X4.800 Y-4.800 E1.47895
G1 X4.800 Y4.800 E1.71842
G1 X-4.740 Y4.800 E1.95640
G1 X3.806 Y4.454 F7800.000
G1 X2.951 Y3.599 E2.01959 F600.000
G1 X4.328 Y-1.540 E2.29756
G1 X4.454 Y-1.574 E2.30439
G1 X0.822 Y-4.454 E2.54659
G1 X3.519 Y-1.757 E2.74587
G1 X2.142 Y3.382 E3.02384
G1 X-1.596 Y4.384 E3.22600
G1 X-1.615 Y4.454 E3.22982
G1 X-2.482 Y4.454 E3.27513
G1 X-2.405 Y4.167 E3.29068
G1 X-4.454 Y2.118 E3.44209
G1 X-4.454 Y-1.133 E3.61191
G1 X-3.764 Y-3.709 E3.75122
G1 X-0.981 Y-4.454 E3.90175
G1 F1800.000 E2.90175
G92 E0
G1 Z1.250 F7800.000
G1 X-4.800 Y-4.800 F7800.000
G1 E1.00000 F1800.000
G1 X4.800 Y-4.800 E1.23947 F600.000
G1 X4.800 Y4.800 E1.47895
G1 X-4.800 Y4.800 E1.71842
G1 X-4.800 Y-4.740 E1.95640
G1 X-4.454 Y-2.751 F7800.000
G1 X-4.357 Y-3.116 E1.97612 F600.000
G1 X-4.454 Y-3.214 E1.98334
G1 X-4.454 Y-4.399 E2.04524
G1 X-3.764 Y-3.709 E2.09623
G1 X-0.981 Y-4.454 E2.24676
G1 X4.454 Y-1.574 E2.56813
G1 X4.328 Y-1.540 E2.57496
G1 X1.414 Y-4.454 E2.79027
G1 X0.229 Y-4.454 E2.85216
G1 X3.736 Y-0.948 E3.11124
G1 X2.734 Y2.790 E3.31339
G1 X4.399 Y4.454 E3.43638
G1 X3.214 Y4.454 E3.49828
G1 X2.142 Y3.382 E3.57749
G1 X-1.596 Y4.384 E3.77965
G1 X-4.454 Y1.525 E3.99084
G1 X-2.710 Y4.454 E4.16895
G1 X-4.454 Y2.710 E4.29783
G1 F1800.000 E3.29783
G92 E0
G1 Z1.400 F7800.000
G1 X-4.800 Y4.800 F7800.000
G1 E1.00000 F1800.000
G1 X-4.800 Y-4.800 E1.23947 F600.000
G1 X4.800 Y-4.800 E1.47895
G1 X4.800 Y4.800 E1.71842
G1 X-4.740 Y4.800 E1.95640
G1 X-0.241 Y4.454 F7800.000
G1 X2.951 Y3.599 E2.12905 F600.000
G1 X3.806 Y4.454 E2.19224
G1 X4.454 Y-1.140 E2.48649
G1 X3.736 Y-0.948 E2.52536
G1 X2.734 Y2.790 E2.72752
G1 X-2.405 Y4.167 E3.00549
G1 X-4.454 Y2.118 E3.15689
G1 X-4.454 Y-2.751 E3.41127
G1 X-4.357 Y-3.116 E3.43100
G1 X0.637 Y-4.454 E3.70111
G1 X0.822 Y-4.454 E3.71073
G1 X3.519 Y-1.757 E3.91001
G1 X4.454 Y-2.008 E3.96061
G1 X-2.599 Y-4.454 E4.35067
G1 X-4.454 Y-3.957 E4.45099
G1 F1800.000 E3.45099
G92 E0
G1 Z1.550 F7800.000
G1 X-4.800 Y-4.800 F7800.000
G1 E1.00000 F1800.000
G1 X4.800 Y-4.800 E1.23947 F600.000
G1 X4.800 Y4.800 E1.47895
G1 X-4.800 Y4.800 E1.71842
G1 X-4.800 Y-4.740 E1.95640
G1 X-0.981 Y-4.454 F7800.000
G1 X-3.764 Y-3.709 E2.10693 F600.000
G1 X-4.454 Y-1.133 E2.24623
G1 X-4.454 Y2.118 E2.41606
G1 X-2.405 Y4.167 E2.56746
G1 X-2.482 Y4.454 E2.58301
G1 X-1.615 Y4.454 E2.62833
G1 X-1.596 Y4.384 E2.63215
G1 X2.142 Y3.382 E2.83431
G1 X3.519 Y-1.757 E3.11227
G1 X0.822 Y-4.454 E3.31156
G1 X4.454 Y-1.574 E3.55376
G1 X4.328 Y-1.540 E3.56059
G1 X2.951 Y3.599 E3.83856
G1 X3.806 Y4.454 E3.90175
G1 F1800.000 E2.90175
G92 E0
G1 Z1.700 F7800.000
G1 X4.800 Y4.800 F7800.000
G1 E1.00000 F1800.000
G1 X-4.800 Y4.800 E1.23947 F600.000
G1 X-4.800 Y-4.800 E1.47895
G1 X4.800 Y-4.800 E1.71842
G1 X4.800 Y4.740 E1.95640
G1 X-4.454 Y2.710 F7800.000
G1 X-2.710 Y4.454 E2.08527 F600.000
G1 X-4.454 Y1.525 E2.26338
G1 X-1.596 Y4.384 E2.47457
G1 X2.142 Y3.382 E2.67673
G1 X3.214 Y4.454 E2.75594
G1 X4.399 Y4.454 E2.81784
G1 X2.734 Y2.790 E2.94083
G1 X3.736 Y-0.948 E3.14298
G1 X0.229 Y-4.454 E3.40206
G1 X1.414 Y-4.454 E3.46395
G1 X4.328 Y-1.540 E3.67926
G1 X4.454 Y-1.574 E3.68609
G1 X-0.981 Y-4.454 E4.00746
G1 X-3.764 Y-3.709 E4.15799
G1 X-4.454 Y-4.399 E4.20898
G1 X-4.454 Y-3.214 E4.27088
G1 X-4.357 Y-3.116 E4.27810
G1 X-4.454 Y-2.751 E4.29783
G1 F1800.000 E3.29783
G92 E0
G1 Z1.850 F7800.000
G1 X-4.800 Y-4.800 F7800.000
G1 E1.00000 F1800.000
G1 X4.800 Y-4.800 E1.23947 F600.000
G1 X4.800 Y4.800 E1.47895
G1 X-4.800 Y4.800 E1.71842
G1 X-4.800 Y-4.740 E1.95640
G1 X-4.454 Y-3.957 F7800.000
G1 X-2.599 Y-4.454 E2.05672 F600.000
G1 X4.454 Y-2.008 E2.44677
G1 X3.519 Y-1.757 E2.49737
G1 X0.822 Y-4.454 E2.69666
G1 X0.637 Y-4.454 E2.70628
G1 X-4.357 Y-3.116 E2.97639
G1 X-4.454 Y-2.751 E2.99612
G1 X-4.454 Y2.118 E3.25050
G1 X-2.405 Y4.167 E3.40190
G1 X2.734 Y2.790 E3.67987
G1 X3.736 Y-0.948 E3.88203
G1 X4.454 Y-1.140 E3.92090
G1 X3.806 Y4.454 E4.21515
G1 X2.951 Y3.599 E4.27834
G1 X-0.241 Y4.454 E4.45099
G1 F1800.000 E3.45099
G92 E0
G1 Z2.000 F7800.000
G1 X-4.800 Y4.800 F7800.000
G1 E1.00000 F1800.000
G1 X-4.800 Y-4.800 E1.23947 F600.000
G1 X4.800 Y-4.800 E1.47895
G1 X4.800 Y4.800 E1.71842
G1 X-4.740 Y4.800 E1.95640
G1 X3.806 Y4.454 F7800.000
G1 X2.951 Y3.599 E2.01959 F600.000
G1 X4.328 Y-1.540 E2.29756
G1 X4.454 Y-1.574 E2.30439
G1 X0.822 Y-4.454 E2.54659
G1 X3.519 Y-1.757 E2.74587
G1 X2.142 Y3.382 E3.02384
G1 X-1.596 Y4.384 E3.22600
G1 X-1.615 Y4.454 E3.22982
G1 X-2.482 Y4.454 E3.27513
G1 X-2.405 Y4.167 E3.29068
G1 X-4.454 Y2.118 E3.44209
G1 X-4.454 Y-1.133 E3.61191
G1 X-3.764 Y-3.709 E3.75122
G1 X-0.981 Y-4.454 E3.90175
G1 F1800.000 E2.90175
G92 E0
G1 Z2.150 F7800.000
G1 X-4.800 Y-4.800 F7800.000
G1 E1.00000 F1800.000
G1 X4.800 Y-4.800 E1.23947 F600.000
G1 X4.800 Y4.800 E1.47895
G1 X-4.800 Y4.800 E1.71842
G1 X-4.800 Y-4.740 E1.95640
G1 X-4.454 Y-2.751 F7800.000
G1 X-4.357 Y-3.116 E1.97612 F600.000
G1 X-4.454 Y-3.214 E1.98334
G1 X-4.454 Y-4.399 E2.04524
G1 X-3.764 Y-3.709 E2.09623
G1 X-0.981 Y-4.454 E2.24676
G1 X4.454 Y-1.574 E2.56813
G1 X4.328 Y-1.540 E2.57496
G1 X1.414 Y-4.454 E2.79027
G1 X0.229 Y-4.454 E2.85216
G1 X3.736 Y-0.948 E3.11124
G1 X2.734 Y2.790 E3.31339
G1 X4.399 Y4.454 E3.43638
G1 X3.214 Y4.454 E3.49828
G1 X2.142 Y3.382 E3.57749
G1 X-1.596 Y4.384 E3.77965
G1 X-4.454 Y1.525 E3.99084
G1 X-2.710 Y4.454 E4.16895
G1 X-4.454 Y2.710 E4.29783
G1 F1800.000 E3.29783
G92 E0
G1 Z2.300 F7800.000
G1 X-4.800 Y4.800 F7800.000
G1 E1.00000 F1800.000
G1 X-4.800 Y-4.800 E1.23947 F600.000
G1 X4.800 Y-4.800 E1.47895
G1 X4.800 Y4.800 E1.71842
G1 X-4.740 Y4.800 E1.95640
G1 X-0.241 Y4.454 F7800.000
G1 X2.951 Y3.599 E2.12905 F600.000
G1 X3.806 Y4.454 E2.19224
G1 X4.454 Y-1.140 E2.48649
G1 X3.736 Y-0.948 E2.52536
G1 X2.734 Y2.790 E2.72752
G1 X-2.405 Y4.167 E3.00549
G1 X-4.454 Y2.118 E3.15689
G1 X-4.454 Y-2.751 E3.41127
G1 X-4.357 Y-3.116 E3.43100
G1 X0.637 Y-4.454 E3.70111
G1 X0.822 Y-4.454 E3.71073
G1 X3.519 Y-1.757 E3.91001
G1 X4.454 Y-2.008 E3.96061
G1 X-2.599 Y-4.454 E4.35067
G1 X-4.454 Y-3.957 E4.45099
G1 F1800.000 E3.45099
G92 E0
G1 Z2.450 F7800.000
G1 X-4.800 Y-4.800 F7800.000
G1 E1.00000 F1800.000
G1 X4.800 Y-4.800 E1.23947 F600.000
G1 X4.800 Y4.800 E1.47895
G1 X-4.800 Y4.800 E1.71842
G1 X-4.800 Y-4.740 E1.95640
G1 X-0.981 Y-4.454 F7800.000
G1 X-3.764 Y-3.709 E2.10693 F600.000
G1 X-4.454 Y-1.133 E2.24623
G1 X-4.454 Y2.118 E2.41606
G1 X-2.405 Y4.167 E2.56746
G1 X-2.482 Y4.454 E2.58301
G1 X-1.615 Y4.454 E2.62833
G1 X-1.596 Y4.384 E2.63215
G1 X2.142 Y3.382 E2.83431
G1 X3.519 Y-1.757 E3.11227
G1 X0.822 Y-4.454 E3.31156
G1 X4.454 Y-1.574 E3.55376
G1 X4.328 Y-1.540 E3.56059
G1 X2.951 Y3.599 E3.83856
G1 X3.806 Y4.454 E3.90175
G1 F1800.000 E2.90175
G92 E0
G1 Z2.600 F7800.000
G1 X4.800 Y4.800 F7800.000
G1 E1.00000 F1800.000
G1 X-4.800 Y4.800 E1.23947 F600.000
G1 X-4.800 Y-4.800 E1.47895
G1 X4.800 Y-4.800 E1.71842
G1 X4.800 Y4.740 E1.95640
G1 X-4.454 Y2.710 F7800.000
G1 X-2.710 Y4.454 E2.08527 F600.000
G1 X-4.454 Y1.525 E2.26338
G1 X-1.596 Y4.384 E2.47457
G1 X2.142 Y3.382 E2.67673
G1 X3.214 Y4.454 E2.75594
G1 X4.399 Y4.454 E2.81784
G1 X2.734 Y2.790 E2.94083
G1 X3.736 Y-0.948 E3.14298
G1 X0.229 Y-4.454 E3.40206
G1 X1.414 Y-4.454 E3.46395
G1 X4.328 Y-1.540 E3.67926
G1 X4.454 Y-1.574 E3.68609
G1 X-0.981 Y-4.454 E4.00746
G1 X-3.764 Y-3.709 E4.15799
G1 X-4.454 Y-4.399 E4.20898
G1 X-4.454 Y-3.214 E4.27088
G1 X-4.357 Y-3.116 E4.27810
G1 X-4.454 Y-2.751 E4.29783
G1 F1800.000 E3.29783
G92 E0
G1 Z2.750 F7800.000
G1 X-4.800 Y-4.800 F7800.000
G1 E1.00000 F1800.000
G1 X4.800 Y-4.800 E1.23947 F600.000
G1 X4.800 Y4.800 E1.47895
G1 X-4.800 Y4.800 E1.71842
G1 X-4.800 Y-4.740 E1.95640
G1 X-4.454 Y-3.957 F7800.000
G1 X-2.599 Y-4.454 E2.05672 F600.000
G1 X4.454 Y-2.008 E2.44677
G1 X3.519 Y-1.757 E2.49737
G1 X0.822 Y-4.454 E2.69666
G1 X0.637 Y-4.454 E2.70628
G1 X-4.357 Y-3.116 E2.97639
G1 X-4.454 Y-2.751 E2.99612
G1 X-4.454 Y2.118 E3.25050
G1 X-2.405 Y4.167 E3.40190
G1 X2.734 Y2.790 E3.67987
G1 X3.736 Y-0.948 E3.88203
G1 X4.454 Y-1.140 E3.92090
