; generated by Slic3r 1.0.0RC2 on 2014-08-22 at 18:08:42

; layer_height = 0.3
; perimeters = 3
; top_solid_layers = 3
; bottom_solid_layers = 3
; fill_density = 0.4
; perimeter_speed = 30
; infill_speed = 60
; travel_speed = 130
; nozzle_diameter = 0.4
; filament_diameter = 1.75
; extrusion_multiplier = 1
; perimeters extrusion width = 0.40mm
; infill extrusion width = 0.42mm
; solid infill extrusion width = 0.42mm
; top infill extrusion width = 0.42mm
; first layer extrusion width = 0.80mm

G21 ; set units to millimeters
M107
M104 S215 ; set temperature
G28 ; home all axes
G1 X0 Y0 Z40 F5000; Centers Nozzle
M109 S215 ; wait for temperature to be reached
G90 ; use absolute coordinates
G92 E0
M82 ; use absolute distances for extrusion
G1 F1800.000 E-5.00000
G92 E0
G1 Z0.400 F7800.000
G1 X30.170 Y27.800 F7800.000
G1 E5.00000 F1800.000
G1 X-27.750 Y35.630 E11.94145 F540.000
G1 X-28.650 Y35.690 E12.04858
G1 X-33.650 Y35.690 E12.64240
G1 X-34.960 Y35.570 E12.79864
G1 X-36.220 Y35.180 E12.95529
G1 X-37.380 Y34.560 E13.11150
G1 X-38.400 Y33.730 E13.26768
G1 X-39.230 Y32.710 E13.42386
G1 X-39.850 Y31.550 E13.58007
G1 X-40.240 Y30.290 E13.73672
G1 X-40.360 Y28.980 E13.89295
G1 X-40.360 Y-28.990 E20.77777
G1 X-40.240 Y-30.300 E20.93400
G1 X-39.850 Y-31.560 E21.09065
G1 X-39.230 Y-32.720 E21.24686
G1 X-38.400 Y-33.740 E21.40304
G1 X-37.380 Y-34.570 E21.55922
G1 X-36.220 Y-35.190 E21.71543
G1 X-34.960 Y-35.580 E21.87208
G1 X-33.650 Y-35.700 E22.02831
G1 X-28.650 Y-35.700 E22.62214
G1 X-27.750 Y-35.640 E22.72926
G1 X30.170 Y-27.800 E29.67087
G1 X31.860 Y-27.350 E29.87858
G1 X33.370 Y-26.470 E30.08615
G1 X34.000 Y-25.970 E30.18167
G1 X35.010 Y-25.100 E30.33999
G1 X36.210 Y-23.970 E30.53575
G1 X37.370 Y-22.760 E30.73483
G1 X38.460 Y-21.510 E30.93180
G1 X38.890 Y-20.970 E31.01378
G1 X39.700 Y-19.700 E31.19268
G1 X40.200 Y-18.280 E31.37147
G1 X40.360 Y-16.780 E31.55063
G1 X40.360 Y16.770 E35.53520
G1 X40.200 Y18.270 E35.71436
G1 X39.700 Y19.690 E35.89316
G1 X38.890 Y20.960 E36.07206
G1 X38.460 Y21.500 E36.15404
G1 X37.370 Y22.750 E36.35101
G1 X36.460 Y23.710 E36.50811
G1 X35.250 Y24.870 E36.70718
G1 X34.000 Y25.960 E36.90416
G1 X33.460 Y26.390 E36.98614
G1 X31.910 Y27.320 E37.20082
G1 X30.273 Y27.772 E37.40247
G1 F1800.000 E32.40247
G92 E0
G1 X-21.118 Y-13.618 F7800.000
G1 E5.00000 F1800.000
G1 X-21.982 Y-13.042 E5.12330 F540.000
G1 X-23.000 Y-12.839 E5.24662
G1 X-24.018 Y-13.042 E5.36993
G1 X-24.882 Y-13.618 E5.49324
G1 X-25.458 Y-14.482 E5.61654
G1 X-25.661 Y-15.500 E5.73985
G1 X-25.458 Y-16.518 E5.86317
G1 X-24.882 Y-17.382 E5.98647
G1 X-24.018 Y-17.958 E6.10977
G1 X-23.000 Y-18.161 E6.23309
G1 X-21.982 Y-17.958 E6.35641
G1 X-21.118 Y-17.382 E6.47971
G1 X-20.542 Y-16.518 E6.60301
G1 X-20.339 Y-15.500 E6.72632
G1 X-20.542 Y-14.482 E6.84964
G1 X-21.059 Y-13.708 E6.96022
G1 X-21.633 Y-14.133 F7800.000
G1 X-22.260 Y-13.714 E7.04978 F540.000
G1 X-23.000 Y-13.567 E7.13935
G1 X-23.740 Y-13.714 E7.22892
G1 X-24.367 Y-14.133 E7.31848
G1 X-24.786 Y-14.760 E7.40805
G1 X-24.933 Y-15.500 E7.49762
G1 X-24.786 Y-16.240 E7.58719
G1 X-24.367 Y-16.867 E7.67675
G1 X-23.740 Y-17.286 E7.76631
G1 X-23.000 Y-17.433 E7.85588
G1 X-22.260 Y-17.286 E7.94545
G1 X-21.633 Y-16.867 E8.03502
G1 X-21.214 Y-16.240 E8.12458
G1 X-21.067 Y-15.500 E8.21415
G1 X-21.214 Y-14.760 E8.30372
G1 X-21.574 Y-14.222 E8.38056
G1 X-21.494 Y-13.433 F7800.000
G1 X5.339 Y-15.500 F7800.000
G1 X5.542 Y-16.518 E8.50388 F540.000
G1 X6.118 Y-17.382 E8.62718
G1 X6.982 Y-17.958 E8.75048
G1 X8.000 Y-18.161 E8.87380
G1 X9.018 Y-17.958 E8.99711
G1 X9.882 Y-17.382 E9.12041
G1 X10.458 Y-16.518 E9.24371
G1 X10.661 Y-15.500 E9.36703
G1 X10.458 Y-14.482 E9.49035
G1 X9.882 Y-13.618 E9.61365
G1 X9.018 Y-13.042 E9.73695
G1 X8.000 Y-12.839 E9.86027
G1 X6.982 Y-13.042 E9.98358
G1 X6.118 Y-13.618 E10.10688
G1 X5.542 Y-14.482 E10.23018
G1 X5.360 Y-15.395 E10.34078
G1 X6.067 Y-15.500 F7800.000
G1 X6.214 Y-16.240 E10.43035 F540.000
G1 X6.633 Y-16.867 E10.51991
G1 X7.260 Y-17.286 E10.60947
G1 X8.000 Y-17.433 E10.69905
G1 X8.740 Y-17.286 E10.78862
G1 X9.367 Y-16.867 E10.87818
G1 X9.786 Y-16.240 E10.96774
G1 X9.933 Y-15.500 E11.05731
G1 X9.786 Y-14.760 E11.14688
G1 X9.367 Y-14.133 E11.23644
G1 X8.740 Y-13.714 E11.32601
G1 X8.000 Y-13.567 E11.41558
G1 X7.260 Y-13.714 E11.50515
G1 X6.633 Y-14.133 E11.59471
G1 X6.214 Y-14.760 E11.68427
G1 X6.088 Y-15.395 E11.76112
G1 X5.473 Y-15.897 F7800.000
G1 X1.617 Y-9.495 F7800.000
G1 X1.825 Y-9.325 E11.79308 F540.000
G1 X3.465 Y-7.326 E12.10010
G1 X4.683 Y-5.047 E12.40712
G1 X5.434 Y-2.573 E12.71415
G1 X5.687 Y-0.000 E13.02117
G1 X5.434 Y2.573 E13.32820
G1 X4.683 Y5.047 E13.63522
G1 X3.465 Y7.326 E13.94224
G1 X1.825 Y9.325 E14.24927
G1 X-0.174 Y10.965 E14.55629
G1 X-2.453 Y12.183 E14.86332
G1 X-4.927 Y12.934 E15.17034
G1 X-7.500 Y13.187 E15.47736
G1 X-10.073 Y12.934 E15.78439
G1 X-12.547 Y12.183 E16.09141
G1 X-14.826 Y10.965 E16.39843
G1 X-16.825 Y9.325 E16.70546
G1 X-18.465 Y7.326 E17.01249
G1 X-19.683 Y5.047 E17.31951
G1 X-20.434 Y2.573 E17.62653
G1 X-20.687 Y0.000 E17.93356
G1 X-20.434 Y-2.573 E18.24058
G1 X-19.683 Y-5.047 E18.54760
G1 X-18.465 Y-7.326 E18.85463
G1 X-16.825 Y-9.325 E19.16165
G1 X-14.826 Y-10.965 E19.46868
G1 X-12.547 Y-12.183 E19.77570
G1 X-10.073 Y-12.934 E20.08272
G1 X-7.500 Y-13.187 E20.38975
G1 X-4.927 Y-12.934 E20.69677
G1 X-2.453 Y-12.183 E21.00380
G1 X-0.174 Y-10.965 E21.31082
G1 X1.534 Y-9.563 E21.57316
G1 X1.164 Y-8.943 F7800.000
G1 X1.317 Y-8.817 E21.59677 F540.000
G1 X2.868 Y-6.928 E21.88708
G1 X4.020 Y-4.772 E22.17740
G1 X4.730 Y-2.433 E22.46771
G1 X4.970 Y-0.000 E22.75803
G1 X4.730 Y2.433 E23.04835
G1 X4.020 Y4.772 E23.33867
G1 X2.868 Y6.928 E23.62898
G1 X1.317 Y8.817 E23.91930
G1 X-0.572 Y10.368 E24.20961
G1 X-2.728 Y11.520 E24.49993
G1 X-5.067 Y12.230 E24.79024
G1 X-7.500 Y12.470 E25.08056
G1 X-9.933 Y12.230 E25.37088
G1 X-12.272 Y11.520 E25.66120
G1 X-14.428 Y10.368 E25.95151
G1 X-16.317 Y8.817 E26.24183
G1 X-17.868 Y6.928 E26.53215
G1 X-19.020 Y4.772 E26.82246
G1 X-19.730 Y2.433 E27.11277
G1 X-19.970 Y0.000 E27.40309
G1 X-19.730 Y-2.433 E27.69341
G1 X-19.020 Y-4.772 E27.98373
G1 X-17.868 Y-6.928 E28.27404
G1 X-16.317 Y-8.817 E28.56436
G1 X-14.428 Y-10.368 E28.85468
G1 X-12.272 Y-11.520 E29.14499
G1 X-9.933 Y-12.230 E29.43531
G1 X-7.500 Y-12.470 E29.72562
G1 X-5.067 Y-12.230 E30.01594
G1 X-2.728 Y-11.520 E30.30626
G1 X-0.572 Y-10.368 E30.59657
G1 X1.081 Y-9.011 E30.85056
G1 X0.711 Y-8.391 F7800.000
G1 X0.810 Y-8.310 E30.86581 F378.000
G1 X2.271 Y-6.529 E31.13942
G1 X3.357 Y-4.497 E31.41303
G1 X4.026 Y-2.293 E31.68664
G1 X4.252 Y-0.000 E31.96025
G1 X4.026 Y2.293 E32.23386
G1 X3.357 Y4.497 E32.50747
G1 X2.271 Y6.529 E32.78107
G1 X0.810 Y8.310 E33.05468
G1 X-0.971 Y9.771 E33.32829
G1 X-3.003 Y10.857 E33.60190
G1 X-5.207 Y11.526 E33.87551
G1 X-7.500 Y11.752 E34.14912
G1 X-9.793 Y11.526 E34.42273
G1 X-11.997 Y10.857 E34.69634
G1 X-14.029 Y9.771 E34.96994
G1 X-15.810 Y8.310 E35.24355
G1 X-17.271 Y6.529 E35.51716
G1 X-18.357 Y4.497 E35.79077
G1 X-19.026 Y2.293 E36.06438
G1 X-19.252 Y0.000 E36.33799
G1 X-19.026 Y-2.293 E36.61160
G1 X-18.357 Y-4.497 E36.88521
G1 X-17.271 Y-6.529 E37.15881
G1 X-15.810 Y-8.310 E37.43242
G1 X-14.029 Y-9.771 E37.70603
G1 X-11.997 Y-10.857 E37.97964
G1 X-9.793 Y-11.526 E38.25325
G1 X-7.500 Y-11.752 E38.52686
G1 X-5.207 Y-11.526 E38.80047
G1 X-3.003 Y-10.857 E39.07408
G1 X-0.971 Y-9.771 E39.34768
G1 X0.628 Y-8.459 E39.59332
G1 X0.831 Y-8.437 F7800.000
G1 F1800.000 E34.59332
G92 E0
G1 X-21.118 Y13.618 F7800.000
G1 E5.00000 F1800.000
G1 X-20.542 Y14.482 E5.12330 F540.000
G1 X-20.339 Y15.500 E5.24662
G1 X-20.542 Y16.518 E5.36994
G1 X-21.118 Y17.382 E5.49324
G1 X-21.982 Y17.958 E5.61654
G1 X-23.000 Y18.161 E5.73985
G1 X-24.018 Y17.958 E5.86317
G1 X-24.882 Y17.382 E5.98647
G1 X-25.458 Y16.518 E6.10977
G1 X-25.661 Y15.500 E6.23309
G1 X-25.458 Y14.482 E6.35641
G1 X-24.882 Y13.618 E6.47971
G1 X-24.018 Y13.042 E6.60301
G1 X-23.000 Y12.839 E6.72632
G1 X-21.982 Y13.042 E6.84964
G1 X-21.208 Y13.559 E6.96022
G1 X-21.633 Y14.133 F7800.000
G1 X-21.214 Y14.760 E7.04978 F540.000
G1 X-21.067 Y15.500 E7.13935
G1 X-21.214 Y16.240 E7.22892
G1 X-21.633 Y16.867 E7.31848
G1 X-22.260 Y17.286 E7.40805
G1 X-23.000 Y17.433 E7.49762
G1 X-23.740 Y17.286 E7.58719
G1 X-24.367 Y16.867 E7.67675
G1 X-24.786 Y16.240 E7.76631
G1 X-24.933 Y15.500 E7.85588
G1 X-24.786 Y14.760 E7.94545
G1 X-24.367 Y14.133 E8.03502
G1 X-23.740 Y13.714 E8.12458
G1 X-23.000 Y13.567 E8.21415
G1 X-22.260 Y13.714 E8.30372
G1 X-21.722 Y14.074 E8.38056
G1 X-20.933 Y13.994 F7800.000
G1 X5.339 Y15.500 F7800.000
G1 X5.542 Y14.482 E8.50388 F540.000
G1 X6.118 Y13.618 E8.62718
G1 X6.982 Y13.042 E8.75048
G1 X8.000 Y12.839 E8.87380
G1 X9.018 Y13.042 E8.99711
G1 X9.882 Y13.618 E9.12041
G1 X10.458 Y14.482 E9.24371
G1 X10.661 Y15.500 E9.36703
G1 X10.458 Y16.518 E9.49035
G1 X9.882 Y17.382 E9.61366
G1 X9.018 Y17.958 E9.73695
G1 X8.000 Y18.161 E9.86027
G1 X6.982 Y17.958 E9.98359
G1 X6.118 Y17.382 E10.10689
G1 X5.542 Y16.518 E10.23019
G1 X5.360 Y15.605 E10.34078
G1 X6.067 Y15.500 F7800.000
G1 X6.214 Y14.760 E10.43035 F540.000
G1 X6.633 Y14.133 E10.51991
G1 X7.260 Y13.714 E10.60948
G1 X8.000 Y13.567 E10.69905
G1 X8.740 Y13.714 E10.78862
G1 X9.367 Y14.133 E10.87818
G1 X9.786 Y14.760 E10.96774
G1 X9.933 Y15.500 E11.05731
G1 X9.786 Y16.240 E11.14689
G1 X9.367 Y16.867 E11.23645
G1 X8.740 Y17.286 E11.32601
G1 X8.000 Y17.433 E11.41558
G1 X7.260 Y17.286 E11.50515
G1 X6.633 Y16.867 E11.59471
G1 X6.214 Y16.240 E11.68427
G1 X6.088 Y15.605 E11.76112
G1 X5.473 Y15.103 F7800.000
G1 X4.611 Y15.500 F7800.000
G1 X4.869 Y16.797 E11.91819 F540.000
G1 X5.604 Y17.896 E12.07523
G1 X7.418 Y19.109 E12.33444
G1 X7.354 Y19.322 E12.36082
G1 X-22.354 Y19.322 E15.88903
G1 X-22.418 Y19.109 E15.91541
G1 X-20.604 Y17.896 E16.17463
G1 X-19.869 Y16.797 E16.33167
G1 X-19.611 Y15.500 E16.48873
G1 X-19.869 Y14.203 E16.64580
G1 X-20.604 Y13.104 E16.80283
G1 X-21.703 Y12.369 E16.95987
G1 X-23.000 Y12.111 E17.11694
G1 X-24.297 Y12.369 E17.27400
G1 X-25.396 Y13.104 E17.43104
G1 X-26.131 Y14.203 E17.58808
G1 X-26.389 Y15.500 E17.74514
G1 X-26.131 Y16.797 E17.90221
G1 X-25.396 Y17.896 E18.05925
G1 X-23.582 Y19.109 E18.31846
G1 X-23.646 Y19.322 E18.34484
G1 X-30.478 Y19.322 E19.15626
G1 X-30.478 Y27.156 E20.08673
G1 X-31.822 Y27.156 E20.24628
G1 X-31.822 Y-27.156 E26.69671
G1 X-30.478 Y-27.156 E26.85625
G1 X-30.478 Y-19.322 E27.78673
G1 X-23.646 Y-19.322 E28.59815
G1 X-23.582 Y-19.109 E28.62453
G1 X-25.396 Y-17.896 E28.88374
G1 X-26.131 Y-16.797 E29.04078
G1 X-26.389 Y-15.500 E29.19785
G1 X-26.131 Y-14.203 E29.35491
G1 X-25.396 Y-13.104 E29.51195
G1 X-24.297 Y-12.369 E29.66899
G1 X-23.000 Y-12.111 E29.82605
G1 X-21.703 Y-12.369 E29.98311
G1 X-20.604 Y-13.104 E30.14015
G1 X-19.869 Y-14.203 E30.29719
G1 X-19.611 Y-15.500 E30.45426
G1 X-19.869 Y-16.797 E30.61132
G1 X-20.604 Y-17.896 E30.76836
G1 X-22.418 Y-19.109 E31.02757
G1 X-22.354 Y-19.322 E31.05395
G1 X7.354 Y-19.322 E34.58217
G1 X7.418 Y-19.109 E34.60855
G1 X5.604 Y-17.896 E34.86777
G1 X4.869 Y-16.797 E35.02481
G1 X4.611 Y-15.500 E35.18187
G1 X4.869 Y-14.203 E35.33894
G1 X5.604 Y-13.104 E35.49598
G1 X6.703 Y-12.369 E35.65301
G1 X8.000 Y-12.111 E35.81008
G1 X9.297 Y-12.369 E35.96714
G1 X10.396 Y-13.104 E36.12418
G1 X11.609 Y-14.918 E36.38340
G1 X11.822 Y-14.854 E36.40978
G1 X11.822 Y14.854 E39.93799
G1 X11.609 Y14.918 E39.96437
G1 X10.396 Y13.104 E40.22358
G1 X9.297 Y12.369 E40.38062
G1 X8.000 Y12.111 E40.53768
G1 X6.703 Y12.369 E40.69475
G1 X5.604 Y13.104 E40.85178
G1 X4.869 Y14.203 E41.00882
G1 X4.632 Y15.395 E41.15316
G1 X8.891 Y20.036 F7800.000
G1 X-29.764 Y20.036 E45.74409 F540.000
G1 X-29.764 Y27.870 E46.67457
G1 X-32.536 Y27.870 E47.00375
G1 X-32.536 Y-27.870 E53.62382
G1 X-29.764 Y-27.870 E53.95299
G1 X-29.764 Y-20.036 E54.88347
G1 X8.891 Y-20.036 E59.47440
G1 X9.884 Y-19.180 E59.63003
G1 X10.804 Y-18.304 E59.78093
G1 X11.680 Y-17.384 E59.93182
G1 X12.536 Y-16.391 E60.08746
G1 X12.536 Y16.391 E63.98090
G1 X11.680 Y17.384 E64.13654
G1 X10.804 Y18.304 E64.28743
G1 X9.884 Y19.180 E64.43833
G1 X8.972 Y19.966 E64.58124
G1 X9.375 Y20.562 F7800.000
G1 X9.134 Y20.750 E64.61753 F378.000
G1 X-29.050 Y20.750 E69.15244
G1 X-29.050 Y28.585 E70.08292
G1 X-33.250 Y28.585 E70.58173
G1 X-33.250 Y-28.585 E77.37143
G1 X-29.050 Y-28.585 E77.87025
G1 X-29.050 Y-20.750 E78.80072
G1 X9.134 Y-20.750 E83.33564
G1 X10.363 Y-19.709 E83.52695
G1 X11.543 Y-18.586 E83.72034
G1 X11.532 Y-18.575 E83.72223
G1 X12.420 Y-17.642 E83.87520
G1 X12.409 Y-17.632 E83.87699
G1 X13.250 Y-16.634 E84.03197
G1 X13.250 Y16.634 E87.98302
G1 X12.209 Y17.863 E88.17433
G1 X11.309 Y18.809 E88.32939
G1 X10.363 Y19.709 E88.48445
G1 X9.456 Y20.492 E88.62679
G1 X9.090 Y20.452 F7800.000
G1 X4.855 Y17.643 F7800.000
G1 X-0.893 Y11.895 E89.59875 F1080.000
G1 X-1.556 Y12.250 E89.68859
G1 X5.035 Y18.840 E90.80297
G1 X5.857 Y18.645 E90.90397
G1 X6.023 Y18.811 E90.93205
G1 X4.018 Y18.840 E91.17178
G1 X-2.218 Y12.604 E92.22628
G1 X-2.989 Y12.849 E92.32306
G1 X3.001 Y18.840 E93.33603
G1 X1.984 Y18.840 E93.45761
G1 X-3.770 Y13.086 E94.43057
G1 X-4.550 Y13.323 E94.52805
G1 X0.967 Y18.840 E95.46099
G1 X-0.049 Y18.840 E95.58257
G1 X-5.423 Y13.467 E96.49116
G1 X-6.348 Y13.558 E96.60238
G1 X-1.066 Y18.840 E97.49555
G1 X-2.083 Y18.840 E97.61713
G1 X-7.274 Y13.649 E98.49489
G1 X-8.352 Y13.587 E98.62406
G1 X-3.100 Y18.840 E99.51225
G1 X-4.117 Y18.840 E99.63383
G1 X-9.480 Y13.476 E100.54080
G1 X-10.738 Y13.235 E100.69391
G1 X-5.133 Y18.840 E101.64160
G1 X-6.150 Y18.840 E101.76318
G1 X-12.198 Y12.793 E102.78575
G1 X-14.117 Y11.890 F7800.000
G1 X-7.167 Y18.840 E103.96088 F1080.000
G1 X-14.285 Y18.840 F7800.000
G1 X-20.030 Y13.095 E104.93239 F1080.000
G1 X-20.595 Y12.530 F7800.000
G1 X-30.983 Y2.142 E106.68901 F1080.000
G1 X-30.983 Y1.125 E106.81059
G1 X-13.268 Y18.840 E109.80611
G1 X-12.251 Y18.840 E109.92769
G1 X-30.983 Y0.108 E113.09515
G1 X-30.983 Y-0.909 E113.21673
G1 X-11.234 Y18.840 E116.55613
G1 X-10.218 Y18.840 E116.67771
G1 X-30.983 Y-1.925 E120.18905
G1 X-30.983 Y-2.942 E120.31063
G1 X-9.201 Y18.840 E123.99391
G1 X-8.184 Y18.840 E124.11549
G1 X-30.983 Y-3.959 E127.97071
G1 X-30.983 Y-4.976 E128.09229
G1 X-19.390 Y6.617 E130.05252
G1 X-20.293 Y4.698 F7800.000
G1 X-30.983 Y-5.993 E131.86019 F1080.000
G1 X-30.983 Y-7.009 E131.98177
G1 X-20.735 Y3.238 E133.71457
G1 X-20.976 Y1.980 E133.86767
G1 X-30.983 Y-8.026 E135.55975
G1 X-30.983 Y-9.043 E135.68133
G1 X-21.087 Y0.852 E137.35463
G1 X-21.149 Y-0.226 E137.48379
G1 X-30.983 Y-10.060 E139.14666
G1 X-30.983 Y-11.077 E139.26824
G1 X-21.058 Y-1.152 E140.94651
G1 X-20.967 Y-2.077 E141.05773
G1 X-30.983 Y-12.094 E142.75142
G1 X-30.983 Y-13.110 E142.87300
G1 X-20.823 Y-2.950 E144.59104
G1 X-20.586 Y-3.730 E144.68852
G1 X-30.983 Y-14.127 E146.44658
G1 X-30.983 Y-15.144 E146.56816
G1 X-20.349 Y-4.511 E148.36624
G1 X-20.104 Y-5.282 E148.46302
G1 X-30.983 Y-16.161 E150.30262
G1 X-30.983 Y-17.178 E150.42420
G1 X-19.750 Y-5.944 E152.32369
G1 X-19.395 Y-6.607 E152.41353
G1 X-30.983 Y-18.194 E154.37290
G1 X-30.354 Y-18.582 E154.46127
G1 X-26.783 Y-15.012 E155.06501
G1 X-26.777 Y-16.022 E155.18579
G1 X-29.595 Y-18.840 E155.66232
G1 X-28.578 Y-18.840 E155.78390
G1 X-26.608 Y-16.870 E156.11702
G1 X-26.233 Y-17.512 E156.20591
G1 X-27.561 Y-18.840 E156.43048
G1 X-26.544 Y-18.840 E156.55206
G1 X-25.826 Y-18.121 E156.67358
G1 X-25.257 Y-18.569 E156.76015
G1 X-25.527 Y-18.840 E156.80592
G1 X-20.443 Y-18.840 F7800.000
G1 X-13.711 Y-12.107 E157.94437 F1080.000
G1 X-14.373 Y-11.753 E158.03421
G1 X-19.368 Y-16.748 E158.87875
G1 X-19.123 Y-15.485 E159.03248
G1 X-15.036 Y-11.399 E159.72349
G1 X-15.604 Y-10.950 E159.81004
G1 X-19.291 Y-14.637 E160.43357
G1 X-19.523 Y-13.853 E160.53140
G1 X-16.162 Y-10.492 E161.09976
G1 X-16.721 Y-10.033 E161.18614
G1 X-19.931 Y-13.243 E161.72893
G1 X-20.379 Y-12.674 E161.81551
G1 X-17.259 Y-9.555 E162.34301
G1 X-17.718 Y-8.996 E162.42940
G1 X-20.988 Y-12.267 E162.98247
G1 X-21.630 Y-11.892 E163.07135
G1 X-18.176 Y-8.438 E163.65546
G1 X-18.634 Y-7.879 E163.74184
G1 X-22.478 Y-11.723 E164.39186
G1 X-23.488 Y-11.717 E164.51264
G1 X-19.041 Y-7.270 E165.26463
