; generated by Slic3r 1.0.0RC2 on 2014-09-15 at 18:57:29

; layer_height = 0.4
; perimeters = 3
; top_solid_layers = 3
; bottom_solid_layers = 3
; fill_density = 0.4
; perimeter_speed = 30
; infill_speed = 60
; travel_speed = 130
; nozzle_diameter = 0.5
; filament_diameter = 3
; extrusion_multiplier = 1
; perimeters extrusion width = 0.50mm
; infill extrusion width = 0.53mm
; solid infill extrusion width = 0.53mm
; top infill extrusion width = 0.53mm
; first layer extrusion width = 0.70mm

G21 ; set units to millimeters
M107
M104 S200 ; set temperature
G28 ; home all axes
G1 Z5 F5000 ; lift nozzle

M109 S200 ; wait for temperature to be reached
G90 ; use absolute coordinates
G92 E0
M82 ; use absolute distances for extrusion
G1 F1800.000 E-1.00000
G92 E0
G1 Z0.350 F7800.000
G1 X92.510 Y87.790 F7800.000
G1 E1.00000 F1800.000
G1 X93.520 Y86.960 E1.04253 F540.000
G1 X94.670 Y86.350 E1.08489
G1 X95.920 Y85.970 E1.12739
G1 X97.220 Y85.840 E1.16990
G1 X102.770 Y85.840 E1.35047
G1 X104.070 Y85.970 E1.39298
G1 X105.320 Y86.350 E1.43548
G1 X106.470 Y86.960 E1.47784
G1 X107.480 Y87.790 E1.52037
G1 X108.310 Y88.800 E1.56290
G1 X108.920 Y89.950 E1.60526
G1 X109.300 Y91.200 E1.64776
G1 X109.430 Y92.500 E1.69027
G1 X109.430 Y107.500 E2.17830
G1 X109.300 Y108.800 E2.22080
G1 X108.920 Y110.050 E2.26331
G1 X108.310 Y111.200 E2.30566
G1 X107.480 Y112.210 E2.34820
G1 X106.470 Y113.040 E2.39073
G1 X105.320 Y113.650 E2.43308
G1 X104.070 Y114.030 E2.47559
G1 X102.770 Y114.160 E2.51810
G1 X97.220 Y114.160 E2.69867
G1 X95.920 Y114.030 E2.74117
G1 X94.670 Y113.650 E2.78368
G1 X93.520 Y113.040 E2.82603
G1 X92.510 Y112.210 E2.86857
G1 X91.680 Y111.200 E2.91110
G1 X91.070 Y110.050 E2.95345
G1 X90.690 Y108.800 E2.99596
G1 X90.560 Y107.500 E3.03847
G1 X90.560 Y92.500 E3.52649
G1 X90.690 Y91.200 E3.56900
G1 X91.070 Y89.950 E3.61151
G1 X91.680 Y88.800 E3.65386
G1 X92.447 Y87.866 E3.69319
G1 F1800.000 E2.69319
G92 E0
G1 X98.893 Y104.522 F7800.000
G1 E1.00000 F1800.000
G1 X101.107 Y104.522 E1.07203 F540.000
G1 X101.107 Y105.836 E1.11478
G1 X98.893 Y105.836 E1.18683
G1 X98.893 Y104.621 E1.22637
G1 X98.236 Y103.865 F7800.000
G1 X101.764 Y103.865 E1.34115 F540.000
G1 X101.764 Y106.493 E1.42665
G1 X98.235 Y106.493 E1.54146
G1 X98.236 Y103.964 E1.62376
G1 X98.148 Y103.208 F7800.000
G1 X101.852 Y103.208 E1.74427 F540.000
G1 X102.186 Y102.630 E1.76597
G1 X102.420 Y102.693 E1.77388
G1 X102.422 Y107.150 E1.91888
G1 X97.578 Y107.150 E2.07646
G1 X97.579 Y102.692 E2.22151
G1 X97.814 Y102.629 E2.22942
G1 X98.099 Y103.123 E2.24797
G1 X98.262 Y103.855 F7800.000
G1 F1800.000 E1.24797
G92 E0
G1 X98.893 Y95.478 F7800.000
G1 E1.00000 F1800.000
G1 X98.893 Y94.164 E1.04274 F540.000
G1 X101.107 Y94.164 E1.11481
G1 X101.107 Y95.478 E1.15755
G1 X98.991 Y95.478 E1.22639
G1 X98.236 Y96.135 F7800.000
G1 X98.235 Y93.507 E1.31189 F540.000
G1 X101.765 Y93.507 E1.42672
G1 X101.764 Y96.135 E1.51222
G1 X98.335 Y96.135 E1.62381
G1 X98.148 Y96.792 F7800.000
G1 X97.814 Y97.370 E1.64553 F540.000
G1 X97.579 Y97.308 E1.65344
G1 X97.578 Y92.850 E1.79846
G1 X102.422 Y92.850 E1.95605
G1 X102.421 Y97.308 E2.10110
G1 X102.186 Y97.371 E2.10901
G1 X101.852 Y96.792 E2.13077
G1 X98.246 Y96.792 E2.24808
G1 X97.530 Y96.567 F7800.000
G1 F1800.000 E1.24808
G92 E0
G1 X102.616 Y101.190 F7800.000
G1 E1.00000 F1800.000
G1 X102.694 Y101.411 E1.00762 F378.000
G1 X102.473 Y102.033 E1.02910
G1 X102.116 Y102.090 E1.04089
G1 X102.473 Y102.033 F7800.000
G1 X102.619 Y102.352 E1.05232 F378.000
G1 F1800.000 E0.05232
G92 E0
G1 X102.755 Y98.872 F7800.000
G1 E1.00000 F1800.000
G1 X102.475 Y97.977 E1.03052 F378.000
G1 X102.189 Y97.783 F7800.000
G1 X102.475 Y97.977 E1.04177 F378.000
G1 X102.732 Y97.667 E1.05486
G1 F1800.000 E0.05486
G92 E0
G1 X97.894 Y97.872 F7800.000
G1 E1.00000 F1800.000
G1 X97.534 Y97.985 E1.01229 F378.000
G1 X97.374 Y97.672 E1.02372
G1 X97.534 Y97.985 F7800.000
G1 X97.306 Y98.589 E1.04474 F378.000
G1 X97.384 Y98.810 E1.05236
G1 F1800.000 E0.05236
G92 E0
G1 X97.245 Y101.128 F7800.000
G1 E1.00000 F1800.000
G1 X97.474 Y101.930 E1.02714 F378.000
G1 X97.811 Y102.217 E1.04155
G1 X97.532 Y102.024 F7800.000
G1 X97.248 Y102.259 E1.05354 F378.000
G1 X99.516 Y104.971 F7800.000
G1 X99.932 Y105.387 E1.06488 F360.000
G1 X100.067 Y104.971 E1.07332 F360.000
G1 X100.483 Y105.387 E1.08467 F360.000
G1 X100.658 Y105.010 E1.09268 F360.000
G1 X100.619 Y104.971 E1.09375 F360.000
G1 X99.516 Y104.971 F7800.000
G1 X99.342 Y105.348 E1.10176 F360.000
G1 X99.381 Y105.387 E1.10283 F360.000
G1 F1800.000 E0.10283
G92 E0
G1 X99.381 Y95.029 F7800.000
G1 E1.00000 F1800.000
G1 X99.342 Y94.990 E1.00106 F360.000
G1 X99.517 Y94.613 E1.00908 F360.000
G1 X99.932 Y95.029 E1.02043 F360.000
G1 X100.068 Y94.613 E1.02888 F360.000
G1 X100.484 Y95.029 E1.04023 F360.000
G1 X100.658 Y94.652 E1.04824 F360.000
G1 X100.619 Y94.613 E1.04931 F360.000
M106 S255
G1 F1800.000 E0.04931
G92 E0
G1 Z0.750 F7800.000
G1 X101.889 Y104.108 F7800.000
G1 E1.00000 F1800.000
G1 X101.889 Y106.250 E1.06061 F600.000
G1 X98.110 Y106.250 E1.16754
G1 X98.111 Y104.108 E1.22815
G1 X101.814 Y104.108 E1.33293
G1 X102.389 Y103.608 F7800.000
G1 X102.390 Y106.750 E1.42183 F600.000
G1 X97.610 Y106.750 E1.55706
G1 X97.611 Y103.608 E1.64596
G1 X102.314 Y103.608 E1.77903
G1 X101.794 Y103.108 F7800.000
G1 X102.710 Y101.523 E1.83083 F600.000
G1 X102.770 Y101.539 E1.83260
M106 S255
G1 X102.888 Y101.571 E1.83600 F1800
G1 X102.890 Y107.250 E1.99377
G1 X102.772 Y107.250 E1.99704
M106 S255
G1 X97.228 Y107.250 E2.15389 F600.000
M106 S255
G1 X97.110 Y107.250 E2.15717 F1800
G1 X97.111 Y101.569 E2.31498
G1 X97.229 Y101.537 E2.31838
M106 S255
G1 X97.289 Y101.521 E2.32015 F600.000
G1 X98.206 Y103.108 E2.37200
G1 X101.719 Y103.108 E2.47142
G1 X102.264 Y103.279 F7800.000
G1 F1800.000 E1.47142
G92 E0
G1 X101.889 Y95.892 F7800.000
G1 E1.00000 F1800.000
G1 X98.110 Y95.892 E1.10693 F600.000
G1 X98.110 Y93.750 E1.16754
G1 X101.890 Y93.750 E1.27448
G1 X101.890 Y95.817 E1.33297
G1 X102.389 Y96.392 F7800.000
G1 X97.610 Y96.392 E1.46819 F600.000
G1 X97.610 Y93.250 E1.55709
G1 X102.390 Y93.250 E1.69232
G1 X102.389 Y96.317 E1.77911
G1 X101.794 Y96.892 F7800.000
G1 X98.206 Y96.892 E1.88064 F600.000
G1 X97.289 Y98.479 E1.93249
G1 X97.230 Y98.463 E1.93424
M106 S255
G1 X97.111 Y98.431 E1.93766 F1800
G1 X97.110 Y92.750 E2.09548
G1 X97.228 Y92.750 E2.09876
M106 S255
G1 X102.772 Y92.750 E2.25561 F600.000
M106 S255
G1 X102.890 Y92.750 E2.25888 F1800
G1 X102.889 Y98.431 E2.41669
G1 X102.771 Y98.463 E2.42009
M106 S255
G1 X102.711 Y98.479 E2.42187 F600.000
G1 X101.832 Y96.957 E2.47159
G1 X101.708 Y96.400 F7800.000
G1 F1800.000 E1.47159
G92 E0
G1 X103.027 Y100.474 F7800.000
G1 E1.00000 F1800.000
G1 X103.081 Y100.654 E1.00533 F600.000
G1 X102.924 Y101.092 E1.01849
G1 X102.653 Y101.124 E1.02620
G1 X102.924 Y101.092 F7800.000
G1 X103.022 Y101.329 E1.03346 F600.000
G1 X103.078 Y99.381 F7800.000
G1 X102.931 Y98.920 E1.04715 F600.000
G1 X102.722 Y98.761 F7800.000
G1 X102.931 Y98.920 E1.05456 F600.000
G1 X103.126 Y98.689 E1.06311
G1 F1800.000 E0.06311
G92 E0
G1 X97.313 Y98.877 F7800.000
G1 E1.00000 F1800.000
G1 X97.074 Y98.909 E1.00682 F600.000
G1 X96.977 Y98.672 E1.01406
G1 X97.074 Y98.909 F7800.000
G1 X96.920 Y99.346 E1.02718 F600.000
G1 X96.964 Y99.542 E1.03286
G1 X96.861 Y100.502 F7800.000
G1 X96.998 Y100.632 E1.03821 F600.000
G1 X97.076 Y101.084 E1.05119
G1 X97.281 Y101.249 E1.05863
G1 X97.076 Y101.084 F7800.000
G1 X97.008 Y101.212 E1.06272 F600.000
G1 X98.451 Y104.501 F7800.000
G1 X98.504 Y104.449 E1.06492 F600.000
G1 X99.246 Y104.449 E1.08696
G1 X98.451 Y105.243 E1.12035
G1 X98.527 Y105.909 E1.14026
G1 X99.988 Y104.449 E1.20161
G1 X100.730 Y104.449 E1.22366
G1 X99.269 Y105.909 E1.28501
G1 X100.012 Y105.909 E1.30706
G1 X101.473 Y104.449 E1.36841
G1 X101.548 Y105.115 E1.38833
G1 X100.754 Y105.909 E1.42170
G1 X101.496 Y105.909 E1.44374
G1 X101.549 Y105.857 E1.44595
G1 X102.380 Y103.116 F7800.000
G1 X102.403 Y103.093 E1.44686 F600.000
G1 X97.635 Y103.101 F7800.000
G1 X97.619 Y103.117 E1.44748 F600.000
G1 F1800.000 E0.44748
G92 E0
G1 X97.610 Y96.923 F7800.000
G1 E1.00000 F1800.000
G1 X97.635 Y96.899 E1.00098 F600.000
G1 X102.389 Y96.923 F7800.000
G1 X102.405 Y96.907 E1.00159 F600.000
G1 X101.549 Y95.499 F7800.000
G1 X101.496 Y95.551 E1.00380 F600.000
G1 X100.754 Y95.551 E1.02584
G1 X101.549 Y94.757 E1.05923
G1 X101.473 Y94.091 E1.07914
G1 X100.012 Y95.551 E1.14051
G1 X99.269 Y95.551 E1.16256
G1 X100.730 Y94.091 E1.22392
G1 X99.988 Y94.091 E1.24597
G1 X98.527 Y95.551 E1.30733
G1 X98.451 Y94.885 E1.32724
G1 X99.246 Y94.091 E1.36063
G1 X98.503 Y94.091 E1.38268
G1 X98.451 Y94.143 E1.38488
G1 F1800.000 E0.38488
G92 E0
G1 Z1.150 F7800.000
G1 X97.718 Y104.108 F7800.000
G1 E1.00000 F1800.000
G1 X102.281 Y104.108 E1.12912 F600.000
G1 X102.282 Y106.250 E1.18973
G1 X97.718 Y106.250 E1.31887
G1 X97.718 Y104.183 E1.37736
G1 X97.917 Y103.608 F7800.000
G1 X102.083 Y103.608 E1.49523 F600.000
G1 X102.602 Y102.708 E1.52463
G1 X102.781 Y102.756 E1.52987
G1 X102.782 Y106.750 E1.64287
G1 X97.218 Y106.750 E1.80031
G1 X97.218 Y102.755 E1.91336
G1 X97.397 Y102.707 E1.91859
G1 X97.879 Y103.543 E1.94591
G1 X98.206 Y103.108 F7800.000
G1 X101.794 Y103.108 E2.04745 F600.000
G1 X103.103 Y100.841 E2.12150
G1 X103.139 Y100.851 E2.12255
M106 S255
G1 X103.282 Y100.889 E2.12666 F1800
G1 X103.282 Y107.250 E2.30335
G1 X103.140 Y107.250 E2.30731
M106 S255
G1 X96.860 Y107.250 E2.48499 F600.000
M106 S255
G1 X96.718 Y107.250 E2.48895 F1800
G1 X96.718 Y100.889 E2.66564
G1 X96.861 Y100.851 E2.66974
M106 S255
G1 X96.897 Y100.841 E2.67080 F600.000
G1 X98.168 Y103.043 E2.74274
G1 X98.292 Y103.600 F7800.000
G1 F1800.000 E1.74274
G92 E0
G1 X97.718 Y95.892 F7800.000
G1 E1.00000 F1800.000
G1 X97.718 Y93.750 E1.06061 F600.000
G1 X102.282 Y93.750 E1.18976
G1 X102.282 Y95.892 E1.25037
G1 X97.793 Y95.892 E1.37740
G1 X97.917 Y96.392 F7800.000
G1 X97.396 Y97.294 E1.40686 F600.000
G1 X97.218 Y97.246 E1.41210
G1 X97.218 Y93.250 E1.52516
G1 X102.782 Y93.250 E1.68261
G1 X102.782 Y97.245 E1.79566
G1 X102.603 Y97.293 E1.80089
G1 X102.083 Y96.392 E1.83033
G1 X97.992 Y96.392 E1.94608
G1 X98.206 Y96.892 F7800.000
G1 X96.897 Y99.160 E2.02016 F600.000
G1 X96.861 Y99.150 E2.02120
M106 S255
G1 X96.718 Y99.112 E2.02532 F1800
G1 X96.718 Y97.778 E2.06238
G1 X96.718 Y92.750 E2.20204
G1 X96.860 Y92.750 E2.20600
M106 S255
G1 X103.140 Y92.750 E2.38367 F600.000
M106 S255
G1 X103.282 Y92.750 E2.38764 F1800
G1 X103.282 Y99.111 E2.56433
G1 X103.139 Y99.149 E2.56843
M106 S255
G1 X103.103 Y99.159 E2.56949 F600.000
G1 X101.794 Y96.892 E2.64355
G1 X98.281 Y96.892 E2.74297
G1 X97.736 Y96.721 F7800.000
G1 X96.578 Y99.375 F7800.000
G1 X96.677 Y99.597 E2.74984 F600.000
G1 X96.956 Y99.548 E2.75785
G1 X96.677 Y99.597 F7800.000
G1 X96.607 Y99.822 E2.76451 F600.000
G1 X96.703 Y100.322 E2.77891
G1 X96.863 Y100.455 E2.78481
G1 X96.714 Y100.362 F7800.000
G1 X96.470 Y100.572 E2.79391 F600.000
G1 F1800.000 E1.79391
G92 E0
G1 X103.047 Y100.443 F7800.000
G1 E1.00000 F1800.000
G1 X103.316 Y100.412 E1.00766 F600.000
G1 X103.385 Y100.233 E1.01308
G1 X103.306 Y99.596 E1.03126
G1 X103.121 Y99.485 F7800.000
G1 X103.306 Y99.596 E1.03736 F600.000
G1 X103.504 Y99.331 E1.04670
G1 X103.316 Y100.412 F7800.000
G1 X103.414 Y100.653 E1.05408 F600.000
G1 X101.941 Y104.501 F7800.000
G1 X101.888 Y104.448 E1.05632 F600.000
G1 X101.140 Y104.448 E1.07873
G1 X101.941 Y105.250 E1.11267
G1 X101.853 Y105.910 E1.13260
G1 X100.391 Y104.448 E1.19448
G1 X99.643 Y104.448 E1.21688
G1 X101.104 Y105.910 E1.27876
G1 X100.356 Y105.910 E1.30117
G1 X98.895 Y104.448 E1.36304
G1 X98.147 Y104.448 E1.38545
G1 X99.608 Y105.910 E1.44733
G1 X98.859 Y105.910 E1.46974
G1 X98.058 Y105.108 E1.50366
G1 X98.058 Y105.857 E1.52607
G1 X98.111 Y105.910 E1.52831
G1 X97.085 Y102.450 F7800.000
G1 X97.047 Y102.411 E1.52959 F600.000
G1 X97.126 Y101.895 E1.54203 F600.000
G1 X97.068 Y101.838 E1.54397 F600.000
G1 F1800.000 E0.54397
G92 E0
G1 X97.068 Y98.163 F7800.000
G1 E1.00000 F1800.000
G1 X97.053 Y98.149 E1.00033 F600.000
G1 X97.227 Y97.916 E1.00505 F600.000
G1 X97.053 Y97.742 E1.00905 F600.000
G1 X97.345 Y97.628 E1.01414 F600.000
G1 X97.376 Y97.658 E1.01485 F600.000
G1 F1800.000 E0.01485
G92 E0
G1 X102.874 Y98.105 F7800.000
G1 E1.00000 F1800.000
G1 X102.953 Y97.589 E1.01244 F600.000
G1 X102.915 Y97.550 E1.01372 F600.000
G1 X102.874 Y98.105 F7800.000
G1 X102.932 Y98.162 E1.01566 F600.000
G1 F1800.000 E0.01566
G92 E0
G1 X102.932 Y101.838 F7800.000
G1 E1.00000 F1800.000
G1 X102.946 Y101.853 E1.00033 F600.000
G1 X102.946 Y102.259 E1.00696 F600.000
G1 X102.772 Y102.086 E1.01096 F600.000
G1 X102.623 Y102.344 E1.01581 F600.000
G1 X102.654 Y102.375 E1.01652 F600.000
G1 F1800.000 E0.01652
G92 E0
G1 X98.111 Y95.552 F7800.000
G1 E1.00000 F1800.000
G1 X98.058 Y95.499 E1.00224 F600.000
G1 X98.058 Y94.750 E1.02466
G1 X98.859 Y95.552 E1.05860
G1 X99.608 Y95.552 E1.08101
G1 X98.147 Y94.090 E1.14290
G1 X98.895 Y94.090 E1.16532
G1 X100.356 Y95.552 E1.22721
G1 X101.105 Y95.552 E1.24962
G1 X99.644 Y94.090 E1.31151
G1 X100.392 Y94.090 E1.33393
G1 X101.853 Y95.552 E1.39581
G1 X101.942 Y94.892 E1.41575
G1 X101.140 Y94.090 E1.44969
G1 X101.889 Y94.090 E1.47211
G1 X101.942 Y94.143 E1.47435
G1 F1800.000 E0.47435
G92 E0
G1 Z1.550 F7800.000
G1 X102.674 Y104.108 F7800.000
G1 E1.00000 F1800.000
G1 X102.675 Y106.250 E1.06061 F600.000
G1 X97.325 Y106.250 E1.21197
G1 X97.325 Y104.108 E1.27258
G1 X102.599 Y104.108 E1.42180
G1 X103.174 Y104.358 F7800.000
G1 X103.175 Y106.750 E1.48948 F600.000
G1 X96.825 Y106.750 E1.66914
G1 X96.825 Y102.075 E1.80142
G1 X97.004 Y102.027 E1.80665
G1 X97.917 Y103.608 E1.85831
G1 X102.083 Y103.608 E1.97618
G1 X102.996 Y102.027 E2.02783
G1 X103.175 Y102.075 E2.03307
G1 X103.174 Y104.283 E2.09555
G1 X103.674 Y104.358 F7800.000
M106 S255
G1 X103.675 Y107.250 E2.17588 F1800
G1 X103.532 Y107.250 E2.17984
M106 S255
G1 X96.468 Y107.250 E2.37973 F600.000
M106 S255
G1 X96.325 Y107.250 E2.38369 F1800
G1 X96.325 Y100.208 E2.57930
G1 X96.468 Y100.170 E2.58340
M106 S255
G1 X96.504 Y100.160 E2.58446 F600.000
G1 X98.206 Y103.108 E2.68076
G1 X101.794 Y103.108 E2.78230
G1 X103.496 Y100.161 E2.87858
G1 X103.532 Y100.171 E2.87966
M106 S255
G1 X103.675 Y100.209 E2.88374 F1800
G1 X103.674 Y104.283 E2.99691
M106 S255
G1 X103.241 Y104.608 F7800.000
G1 F1800.000 E1.99691
G92 E0
G1 X102.675 Y95.892 F7800.000
G1 E1.00000 F1800.000
G1 X97.325 Y95.892 E1.15137 F600.000
G1 X97.325 Y93.750 E1.21197
G1 X102.675 Y93.750 E1.36335
G1 X102.675 Y95.817 E1.42183
G1 X103.175 Y95.643 F7800.000
G1 X103.175 Y97.925 E1.48640 F600.000
G1 X102.996 Y97.973 E1.49164
G1 X102.083 Y96.392 E1.54329
G1 X97.917 Y96.392 E1.66116
G1 X97.004 Y97.974 E1.71284
G1 X96.825 Y97.926 E1.71808
G1 X96.825 Y93.250 E1.85038
G1 X103.175 Y93.250 E2.03005
G1 X103.175 Y95.568 E2.09564
G1 X103.675 Y95.643 F7800.000
M106 S255
G1 X103.675 Y99.791 E2.21086 F1800
G1 X103.532 Y99.829 E2.21495
M106 S255
G1 X103.496 Y99.839 E2.21602 F600.000
G1 X101.794 Y96.892 E2.31230
G1 X98.206 Y96.892 E2.41384
G1 X96.504 Y99.840 E2.51015
G1 X96.468 Y99.830 E2.51121
M106 S255
G1 X96.325 Y99.792 E2.51531 F1800
G1 X96.325 Y92.750 E2.71092
G1 X96.468 Y92.750 E2.71488
M106 S255
G1 X103.532 Y92.750 E2.91477 F600.000
M106 S255
G1 X103.675 Y92.750 E2.91873 F1800
G1 X103.675 Y95.568 E2.99702
M106 S255
G1 X103.242 Y95.893 F7800.000
G1 F1800.000 E1.99702
G92 E0
G1 X102.334 Y105.856 F7800.000
G1 E1.00000 F1800.000
G1 X102.281 Y105.910 E1.00227 F661.817
G1 X101.528 Y105.910 E1.02495
G1 X102.334 Y105.104 E1.05930
G1 X102.237 Y104.448 E1.07927
G1 X100.775 Y105.910 E1.14154
G1 X100.022 Y105.910 E1.16423
G1 X101.484 Y104.448 E1.22650
G1 X100.731 Y104.448 E1.24919
G1 X99.269 Y105.910 E1.31146
G1 X98.516 Y105.910 E1.33415
G1 X99.978 Y104.448 E1.39643
G1 X99.225 Y104.448 E1.41911
G1 X97.763 Y105.910 E1.48139
G1 X97.665 Y105.254 E1.50135
G1 X98.472 Y104.448 E1.53570
G1 X97.719 Y104.448 E1.55839
G1 X97.666 Y104.501 E1.56066
G1 X97.332 Y103.615 F7800.000
G1 X97.345 Y103.603 E1.56115 F600.000
G1 X96.953 Y101.693 F7800.000
G1 X96.835 Y101.404 E1.56623 F600.000
G1 X96.661 Y101.578 E1.57023 F600.000
G1 X96.661 Y101.171 E1.57685 F600.000
G1 X96.675 Y101.157 E1.57718 F600.000
