; generated by Slic3r 1.0.0RC2 on 2014-09-15 at 18:58:10

; layer_height = 0.1
; perimeters = 3
; top_solid_layers = 3
; bottom_solid_layers = 3
; fill_density = 0.5
; perimeter_speed = 40
; infill_speed = 80
; travel_speed = 130
; nozzle_diameter = 0.4
; filament_diameter = 1.75
; extrusion_multiplier = 1
; perimeters extrusion width = 0.40mm
; infill extrusion width = 1.28mm
; solid infill extrusion width = 0.68mm
; top infill extrusion width = 0.68mm
; first layer extrusion width = 0.70mm

G21 ; set units to millimeters
M107
M104 S210 ; set temperature
G28 ; home all axes
G1 X0 Y0 Z40 F5000; Centers Nozzle
M109 S210 ; wait for temperature to be reached
G90 ; use absolute coordinates
G92 E0
M82 ; use absolute distances for extrusion
G1 F1800.000 E-1.00000
G92 E0
G1 Z0.350 F7800.000
G1 X9.410 Y7.500 F7800.000
G1 E1.00000 F1800.000
G1 X9.280 Y8.790 E1.11992 F720.000
G1 X8.900 Y10.040 E1.24076
G1 X8.290 Y11.190 E1.36116
G1 X7.460 Y12.190 E1.48136
G1 X6.460 Y13.020 E1.60156
G1 X5.310 Y13.630 E1.72196
G1 X4.060 Y14.010 E1.84280
G1 X2.770 Y14.140 E1.96271
G1 X-2.780 Y14.140 E2.47604
G1 X-4.070 Y14.010 E2.59596
G1 X-5.320 Y13.630 E2.71679
G1 X-6.470 Y13.020 E2.83719
G1 X-7.470 Y12.190 E2.95739
G1 X-8.300 Y11.190 E3.07759
G1 X-8.910 Y10.040 E3.19799
G1 X-9.290 Y8.790 E3.31883
G1 X-9.420 Y7.500 E3.43875
G1 X-9.420 Y-7.500 E4.82611
G1 X-9.290 Y-8.790 E4.94603
G1 X-8.910 Y-10.040 E5.06687
G1 X-8.300 Y-11.190 E5.18727
G1 X-7.470 Y-12.190 E5.30747
G1 X-6.470 Y-13.020 E5.42767
G1 X-5.320 Y-13.630 E5.54807
G1 X-4.070 Y-14.010 E5.66891
G1 X-2.780 Y-14.140 E5.78883
G1 X2.770 Y-14.140 E6.30215
G1 X4.060 Y-14.010 E6.42207
G1 X5.310 Y-13.630 E6.54291
G1 X6.460 Y-13.020 E6.66331
G1 X7.460 Y-12.190 E6.78351
G1 X8.290 Y-11.190 E6.90371
G1 X8.900 Y-10.040 E7.02411
G1 X9.280 Y-8.790 E7.14495
G1 X9.410 Y-7.500 E7.26487
G1 X9.410 Y7.405 E8.64341
G1 F1800.000 E7.64341
G92 E0
G1 X4.361 Y8.158 F7800.000
G1 E1.00000 F1800.000
G1 X3.430 Y9.089 E1.12178 F720.000
G1 X-3.430 Y9.089 E1.75627
G1 X-4.361 Y8.158 E1.87804
G1 X-4.361 Y-8.158 E3.38712
G1 X-3.430 Y-9.089 E3.50890
G1 X3.430 Y-9.089 E4.14340
G1 X4.361 Y-8.158 E4.26516
G1 X4.361 Y8.063 E5.76543
G1 X3.725 Y7.895 F7800.000
G1 X3.167 Y8.453 E5.83849 F720.000
G1 X-3.167 Y8.453 E6.42428
G1 X-3.725 Y7.895 E6.49734
G1 X-3.725 Y-7.895 E7.95774
G1 X-3.167 Y-8.453 E8.03080
G1 X3.167 Y-8.453 E8.61659
G1 X3.725 Y-7.895 E8.68965
G1 X3.725 Y7.799 E10.14123
G1 F1800.000 E9.14123
G92 E0
G1 X2.618 Y-0.546 F7800.000
G1 E1.00000 F1800.000
G1 X1.565 Y-2.370 E1.19479 F720.000
G1 X1.270 Y-2.540 E1.22629
G1 X-1.270 Y-2.540 E1.46119
G1 X-1.565 Y-2.370 E1.49270
G1 X-2.617 Y-0.548 E1.68729
G1 X-3.088 Y-0.674 E1.73239
G1 X-3.090 Y-7.632 E2.37592
G1 X-2.903 Y-7.818 E2.40027
G1 X2.903 Y-7.818 E2.93735
G1 X3.090 Y-7.632 E2.96170
G1 X3.089 Y-0.672 E3.60540
G1 X2.710 Y-0.571 E3.64169
G1 X2.101 Y-0.170 F7800.000
G1 X2.101 Y0.170 E3.67319 F720.000
G1 X1.198 Y1.734 E3.84021
G1 X0.903 Y1.904 E3.87171
G1 X-0.903 Y1.904 E4.03873
G1 X-1.198 Y1.734 E4.07023
G1 X-2.101 Y0.170 E4.23725
G1 X-2.101 Y-0.170 E4.26875
G1 X-1.198 Y-1.734 E4.43577
G1 X-0.903 Y-1.904 E4.46727
G1 X0.903 Y-1.904 E4.63429
G1 X1.198 Y-1.734 E4.66579
G1 X2.053 Y-0.253 E4.82399
G1 X1.367 Y-0.170 F7800.000
G1 X1.367 Y0.170 E4.85550 F720.000
G1 X0.831 Y1.099 E4.95463
G1 X0.536 Y1.269 E4.98613
G1 X-0.536 Y1.269 E5.08526
G1 X-0.831 Y1.099 E5.11677
G1 X-1.367 Y0.170 E5.21590
G1 X-1.367 Y-0.170 E5.24741
G1 X-0.831 Y-1.099 E5.34654
G1 X-0.536 Y-1.269 E5.37804
G1 X0.536 Y-1.269 E5.47718
G1 X0.831 Y-1.099 E5.50868
G1 X1.319 Y-0.253 E5.59899
G1 X2.617 Y0.548 F7800.000
G1 X3.088 Y0.674 E5.64410 F720.000
G1 X3.090 Y7.632 E6.28762
G1 X2.903 Y7.818 E6.31198
G1 X-2.903 Y7.818 E6.84906
G1 X-3.090 Y7.632 E6.87341
G1 X-3.089 Y0.672 E7.51710
G1 X-2.618 Y0.546 E7.56221
G1 X-1.565 Y2.370 E7.75700
G1 X-1.270 Y2.540 E7.78850
G1 X1.270 Y2.540 E8.02340
G1 X1.565 Y2.370 E8.05491
G1 X2.569 Y0.630 E8.24068
G1 F1800.000 E7.24068
G92 E0
G1 X2.194 Y-2.615 F7800.000
G1 E1.00000 F1800.000
G1 X1.852 Y-3.208 E1.06327 F540.000
G1 X-1.852 Y-3.208 E1.40587
G1 X-2.194 Y-2.616 E1.46905
G1 X-2.421 Y-2.677 E1.49079
G1 X-2.422 Y-7.150 E1.90448
G1 X2.422 Y-7.150 E2.35246
G1 X2.421 Y-2.676 E2.76624
G1 X2.286 Y-2.640 E2.77917
G1 X2.250 Y-3.249 F7800.000
G1 X1.786 Y-3.844 F7800.000
G1 X-1.785 Y-3.844 E3.10948 F540.000
G1 X-1.786 Y-6.514 E3.35651
G1 X1.786 Y-6.514 E3.68690
G1 X1.786 Y-3.939 E3.92512
G1 X1.150 Y-4.479 F7800.000
G1 X-1.150 Y-4.479 E4.13787 F540.000
G1 X-1.150 Y-5.879 E4.26732
G1 X1.150 Y-5.879 E4.48012
G1 X1.150 Y-4.574 E4.60076
G1 F1800.000 E3.60076
G92 E0
G1 X2.193 Y2.617 F7800.000
G1 E1.00000 F1800.000
G1 X2.420 Y2.678 E1.02174 F540.000
G1 X2.422 Y7.150 E1.43537
G1 X-2.422 Y7.150 E1.88334
G1 X-2.421 Y2.676 E2.29712
G1 X-2.194 Y2.615 E2.31887
G1 X-1.852 Y3.208 E2.38214
G1 X1.852 Y3.208 E2.72474
G1 X2.146 Y2.700 E2.77902
G1 X2.344 Y2.797 F7800.000
G1 X1.785 Y3.844 F7800.000
G1 X1.786 Y6.514 E3.02605 F540.000
G1 X-1.786 Y6.514 E3.35642
G1 X-1.786 Y3.844 E3.60345
G1 X1.690 Y3.844 E3.92490
G1 X1.150 Y4.479 F7800.000
G1 X1.150 Y5.879 E4.05435 F540.000
G1 X-1.150 Y5.879 E4.26712
G1 X-1.150 Y4.479 E4.39657
G1 X1.054 Y4.479 E4.60047
G1 X2.128 Y2.086 F7800.000
G1 X2.476 Y2.022 E4.63315 F504.000
G1 X2.700 Y1.091 E4.72172
G1 X2.476 Y2.022 F7800.000
G1 X2.626 Y2.334 E4.75375 F504.000
G1 F1800.000 E3.75375
G92 E0
G1 X2.764 Y-1.144 F7800.000
G1 E1.00000 F1800.000
G1 X2.472 Y-2.011 E1.08463 F504.000
G1 X2.194 Y-2.193 F7800.000
G1 X2.472 Y-2.011 E1.11532 F504.000
G1 X2.742 Y-2.252 E1.14885
G1 F1800.000 E0.14885
G92 E0
G1 X-2.113 Y-2.142 F7800.000
G1 E1.00000 F1800.000
G1 X-2.482 Y-2.008 E1.03632 F504.000
G1 X-2.635 Y-2.299 E1.06672
G1 X-2.482 Y-2.008 F7800.000
G1 X-2.695 Y-1.395 E1.12679 F504.000
G1 X-2.616 Y-1.196 E1.14655
G1 F1800.000 E0.14655
G92 E0
G1 X-2.764 Y1.144 F7800.000
G1 E1.00000 F1800.000
G1 X-2.524 Y1.931 E1.07610 F504.000
G1 X-2.194 Y2.193 E1.11504
G1 X-2.470 Y2.011 F7800.000
G1 X-2.743 Y2.249 E1.14850 F504.000
G1 X-0.515 Y5.179 F7800.000
G1 X0.446 Y5.111 E1.25036 F360.000
G1 X0.514 Y5.179 E1.26060 F360.000
G1 X-0.446 Y5.247 F7800.000
G1 X-0.515 Y5.179 E1.27083 F360.000
G1 F1800.000 E0.27083
G92 E0
G1 X-0.446 Y-5.111 F7800.000
G1 E1.00000 F1800.000
G1 X-0.514 Y-5.179 E1.01024 F360.000
G1 X0.446 Y-5.247 E1.11219 F360.000
G1 X0.515 Y-5.179 E1.12242 F360.000
M106 S255
G1 F1800.000 E0.12242
G92 E0
G1 Z0.450 F7800.000
G1 X1.991 Y3.858 F7800.000
G1 E1.00000 F1800.000
G1 X1.992 Y6.500 E1.04394 F600.000
G1 X-1.993 Y6.500 E1.11021
G1 X-1.992 Y3.858 E1.15414
G1 X1.931 Y3.858 E1.21940
G1 X1.996 Y3.458 F7800.000
G1 X2.248 Y3.022 E1.22777 F600.000
G1 X2.391 Y3.060 E1.23023
G1 X2.392 Y6.900 E1.29410
G1 X-2.393 Y6.900 E1.37367
G1 X-2.392 Y3.058 E1.43756
G1 X-2.249 Y3.020 E1.44002
G1 X-1.996 Y3.458 E1.44843
G1 X1.936 Y3.458 E1.51383
G1 X1.765 Y3.058 F7800.000
G1 X2.648 Y1.529 E1.54318 F600.000
G1 X2.770 Y1.562 E1.54529
M106 S255
G1 X2.791 Y1.568 E1.54641 F1800
G1 X2.793 Y7.300 E1.84590
G1 X2.772 Y7.300 E1.84698
M106 S255
G1 X-2.772 Y7.300 E1.93917 F600.000
M106 S255
G1 X-2.793 Y7.300 E1.94026 F1800
G1 X-2.792 Y1.566 E2.23984
G1 X-2.771 Y1.560 E2.24097
M106 S255
G1 X-2.649 Y1.527 E2.24307 F600.000
G1 X-1.765 Y3.058 E2.27246
G1 X1.705 Y3.058 E2.33019
G1 X2.141 Y3.195 F7800.000
G1 F1800.000 E1.33019
G92 E0
G1 X1.992 Y-3.858 F7800.000
G1 E1.00000 F1800.000
G1 X-1.992 Y-3.858 E1.06626 F600.000
G1 X-1.993 Y-6.500 E1.11020
G1 X1.992 Y-6.500 E1.17647
G1 X1.992 Y-3.918 E1.21942
G1 X1.996 Y-3.458 F7800.000
G1 X-1.996 Y-3.458 E1.28582 F600.000
G1 X-2.249 Y-3.020 E1.29423
G1 X-2.392 Y-3.058 E1.29669
G1 X-2.393 Y-6.900 E1.36057
G1 X2.393 Y-6.900 E1.44015
G1 X2.392 Y-3.058 E1.50404
G1 X2.249 Y-3.020 E1.50650
G1 X2.026 Y-3.406 E1.51391
G1 X1.765 Y-3.058 F7800.000
G1 X-1.765 Y-3.058 E1.57263 F600.000
G1 X-2.649 Y-1.528 E1.60201
G1 X-2.770 Y-1.560 E1.60410
M106 S255
G1 X-2.792 Y-1.566 E1.60526 F1800
G1 X-2.792 Y-3.298 E1.69572
G1 X-2.793 Y-7.300 E1.90482
G1 X-2.772 Y-7.300 E1.90591
M106 S255
G1 X2.772 Y-7.300 E1.99810 F600.000
M106 S255
G1 X2.793 Y-7.300 E1.99919 F1800
G1 X2.792 Y-1.566 E2.29877
G1 X2.771 Y-1.560 E2.29990
M106 S255
G1 X2.649 Y-1.527 E2.30200 F600.000
G1 X1.795 Y-3.006 E2.33039
G1 X1.696 Y-3.452 F7800.000
G1 F1800.000 E1.33039
G92 E0
G1 X2.902 Y0.690 F7800.000
G1 E1.00000 F1800.000
G1 X2.945 Y0.835 E1.00251 F600.000
G1 X2.819 Y1.185 E1.00870
G1 X2.603 Y1.211 E1.01232
G1 X2.819 Y1.185 F7800.000
G1 X2.898 Y1.374 E1.01573 F600.000
G1 F1800.000 E0.01573
G92 E0
G1 X2.973 Y-0.645 F7800.000
G1 E1.00000 F1800.000
G1 X2.827 Y-1.147 E1.00869 F600.000
G1 X2.728 Y-1.181 F7800.000
G1 X2.827 Y-1.147 E1.01044 F600.000
G1 X2.987 Y-1.379 E1.01511
G1 F1800.000 E0.01511
G92 E0
G1 X-2.603 Y-1.272 F7800.000
G1 E1.00000 F1800.000
G1 X-2.851 Y-1.235 E1.00416 F600.000
G1 X-2.808 Y-1.205 F7800.000
G1 X-2.978 Y-0.635 E1.01406 F600.000
G1 X-2.992 Y0.712 F7800.000
G1 X-2.882 Y0.816 E1.01658 F600.000
G1 X-2.854 Y1.112 E1.02152
G1 X-2.655 Y1.299 E1.02607
G1 X-2.812 Y1.174 F7800.000
G1 X-2.990 Y1.312 E1.02983 F600.000
G1 X-1.607 Y4.169 F7800.000
G1 X-1.681 Y4.243 E1.03305 F600.000
G1 X-1.681 Y5.290 E1.06527
G1 X-0.560 Y4.169 E1.11405
G1 X0.486 Y4.169 E1.14626
G1 X-1.533 Y6.189 E1.23417
G1 X-0.487 Y6.189 E1.26638
G1 X1.533 Y4.169 E1.35429
G1 X1.681 Y5.068 E1.38233
G1 X0.560 Y6.189 E1.43109
G1 X1.607 Y6.189 E1.46331
G1 X1.681 Y6.115 E1.46653
G1 X2.497 Y2.816 F7800.000
G1 X2.465 Y2.373 E1.47274 F600.000
G1 X2.511 Y2.327 E1.47365 F600.000
G1 X2.528 Y2.785 F7800.000
G1 X2.497 Y2.816 E1.47426 F600.000
G1 F1800.000 E0.47426
G92 E0
G1 X-2.266 Y2.728 F7800.000
G1 E1.00000 F1800.000
G1 X-2.290 Y2.753 E1.00033 F600.000
G1 X-2.385 Y2.522 E1.00272 F600.000
G1 X-2.524 Y2.661 E1.00459 F600.000
G1 X-2.524 Y2.336 E1.00770 F600.000
G1 X-2.512 Y2.325 E1.00786 F600.000
G1 F1800.000 E0.00786
G92 E0
G1 X-2.512 Y-2.325 F7800.000
G1 E1.00000 F1800.000
G1 X-2.529 Y-2.784 E1.00642 F600.000
G1 X-2.498 Y-2.814 E1.00702 F600.000
G1 X-2.466 Y-2.371 F7800.000
G1 X-2.512 Y-2.325 E1.00793 F600.000
G1 F1800.000 E0.00793
G92 E0
G1 X2.266 Y-2.728 F7800.000
G1 E1.00000 F1800.000
G1 X2.290 Y-2.753 E1.00033 F600.000
G1 X2.524 Y-2.661 E1.00273 F600.000
G1 X2.385 Y-2.522 E1.00461 F600.000
G1 X2.512 Y-2.325 E1.00685 F600.000
G1 X2.524 Y-2.336 E1.00701 F600.000
G1 X1.681 Y-4.243 F7800.000
G1 X1.607 Y-4.169 E1.01023 F600.000
G1 X0.560 Y-4.169 E1.04245
G1 X1.681 Y-5.290 E1.09124
G1 X1.533 Y-6.189 E1.11928
G1 X-0.487 Y-4.169 E1.20719
G1 X-1.533 Y-4.169 E1.23940
G1 X0.486 Y-6.189 E1.32732
G1 X-0.561 Y-6.189 E1.35953
G1 X-1.681 Y-5.068 E1.40831
G1 X-1.681 Y-6.115 E1.44053
G1 X-1.607 Y-6.189 E1.44375
G1 F1800.000 E0.44375
G92 E0
G1 Z0.550 F7800.000
G1 X-2.090 Y3.858 F7800.000
G1 E1.00000 F1800.000
G1 X2.090 Y3.858 E1.06951 F600.000
G1 X2.090 Y6.500 E1.11345
G1 X-2.091 Y6.500 E1.18298
G1 X-2.090 Y3.918 E1.22592
G1 X-1.996 Y3.458 F7800.000
G1 X1.996 Y3.458 E1.29233 F600.000
G1 X2.346 Y2.852 E1.30397
G1 X2.489 Y2.890 E1.30643
G1 X2.491 Y6.900 E1.37311
G1 X-2.491 Y6.900 E1.45595
G1 X-2.490 Y2.888 E1.52267
G1 X-2.347 Y2.850 E1.52513
G1 X-2.026 Y3.406 E1.53580
G1 X-1.765 Y3.058 F7800.000
G1 X1.765 Y3.058 E1.59452 F600.000
G1 X2.746 Y1.359 E1.62714
G1 X2.889 Y1.397 E1.62961
G1 X2.891 Y7.300 E1.72777
G1 X-2.891 Y7.300 E1.82391
G1 X-2.890 Y1.396 E1.92210
G1 X-2.747 Y1.357 E1.92456
G1 X-1.795 Y3.006 E1.95622
G1 X-1.696 Y3.452 F7800.000
G1 F1800.000 E0.95622
G92 E0
G1 X-2.091 Y-3.858 F7800.000
G1 E1.00000 F1800.000
G1 X-2.091 Y-6.500 E1.04394 F600.000
G1 X2.091 Y-6.500 E1.11348
G1 X2.090 Y-3.858 E1.15741
G1 X-2.031 Y-3.858 E1.22595
G1 X-1.996 Y-3.458 F7800.000
G1 X-2.347 Y-2.850 E1.23762 F600.000
G1 X-2.490 Y-2.888 E1.24008
G1 X-2.491 Y-6.900 E1.30680
G1 X2.491 Y-6.900 E1.38964
G1 X2.490 Y-2.888 E1.45636
G1 X2.347 Y-2.850 E1.45882
G1 X1.996 Y-3.458 E1.47049
G1 X-1.936 Y-3.458 E1.53589
G1 X-1.765 Y-3.058 F7800.000
G1 X-2.747 Y-1.358 E1.56854 F600.000
G1 X-2.890 Y-1.396 E1.57100
G1 X-2.891 Y-7.300 E1.66919
G1 X2.891 Y-7.300 E1.76533
G1 X2.890 Y-1.396 E1.86352
G1 X2.747 Y-1.357 E1.86598
G1 X1.765 Y-3.058 E1.89863
G1 X-1.705 Y-3.058 E1.95636
G1 X-2.141 Y-3.195 F7800.000
G1 F1800.000 E0.95636
G92 E0
G1 X3.000 Y0.520 F7800.000
G1 E1.00000 F1800.000
G1 X3.044 Y0.664 E1.00251 F600.000
G1 X2.918 Y1.015 E1.00870
G1 X2.701 Y1.040 E1.01232
G1 X2.918 Y1.015 F7800.000
G1 X2.997 Y1.204 E1.01573 F600.000
G1 X3.073 Y-0.478 F7800.000
G1 X2.914 Y-1.012 E1.02500 F600.000
G1 X2.751 Y-1.137 F7800.000
G1 X2.914 Y-1.012 E1.02842 F600.000
G1 X3.070 Y-1.210 E1.03262
G1 F1800.000 E0.03262
G92 E0
G1 X-2.688 Y-1.092 F7800.000
G1 E1.00000 F1800.000
G1 X-2.914 Y-1.010 E1.00400 F600.000
G1 X-2.997 Y-1.203 E1.00750
G1 X-2.914 Y-1.010 F7800.000
G1 X-3.080 Y-0.464 E1.01698 F600.000
G1 X-3.090 Y0.542 F7800.000
G1 X-2.980 Y0.646 E1.01950 F600.000
G1 X-2.914 Y1.012 E1.02567
G1 X-2.764 Y1.088 E1.02847
G1 X-2.914 Y1.012 F7800.000
G1 X-3.089 Y1.142 E1.03209 F600.000
G1 X-1.704 Y6.190 F7800.000
G1 X-1.781 Y6.113 E1.03556 F600.000
G1 X-1.781 Y5.028 E1.07022
G1 X-0.618 Y6.190 E1.12271
G1 X0.468 Y6.190 E1.15738
G1 X-1.555 Y4.168 E1.24870
G1 X-0.469 Y4.168 E1.28337
G1 X1.554 Y6.190 E1.37469
G1 X1.780 Y5.331 E1.40307
G1 X0.617 Y4.168 E1.45558
G1 X1.703 Y4.168 E1.49025
G1 X1.780 Y4.244 E1.49372
G1 X2.388 Y2.585 F7800.000
G1 X2.363 Y2.560 E1.49405 F600.000
G1 X2.482 Y2.354 E1.49632 F600.000
G1 X2.621 Y2.493 E1.49820 F600.000
G1 X2.621 Y2.168 E1.50130 F600.000
G1 X2.609 Y2.156 E1.50145 F600.000
G1 F1800.000 E0.50145
G92 E0
G1 X2.610 Y-2.155 F7800.000
G1 E1.00000 F1800.000
G1 X2.564 Y-2.201 E1.00091 F600.000
G1 X2.627 Y-2.614 E1.00676 F600.000
G1 X2.597 Y-2.644 E1.00736 F600.000
G1 F1800.000 E0.00736
G92 E0
G1 X-2.364 Y-2.558 F7800.000
G1 E1.00000 F1800.000
G1 X-2.389 Y-2.583 E1.00033 F600.000
G1 X-2.622 Y-2.491 E1.00273 F600.000
G1 X-2.483 Y-2.352 E1.00460 F600.000
G1 X-2.622 Y-2.166 E1.00682 F600.000
G1 X-2.610 Y-2.155 E1.00698 F600.000
G1 F1800.000 E0.00698
G92 E0
G1 X-2.610 Y2.155 F7800.000
G1 E1.00000 F1800.000
G1 X-2.564 Y2.201 E1.00091 F600.000
G1 X-2.627 Y2.614 E1.00676 F600.000
G1 X-2.597 Y2.644 E1.00736 F600.000
G1 F1800.000 E0.00736
G92 E0
G1 X-1.704 Y-4.168 F7800.000
G1 E1.00000 F1800.000
G1 X-1.781 Y-4.244 E1.00347 F600.000
G1 X-1.781 Y-5.331 E1.03815
G1 X-0.618 Y-4.168 E1.09067
G1 X0.468 Y-4.168 E1.12535
G1 X-1.554 Y-6.190 E1.21668
G1 X-0.468 Y-6.190 E1.25136
G1 X1.554 Y-4.168 E1.34270
G1 X1.781 Y-5.027 E1.37109
G1 X0.618 Y-6.190 E1.42360
G1 X1.704 Y-6.190 E1.45828
G1 X1.781 Y-6.113 E1.46174
G1 F1800.000 E0.46174
G92 E0
G1 Z0.650 F7800.000
G1 X2.188 Y3.858 F7800.000
G1 E1.00000 F1800.000
G1 X2.189 Y6.500 E1.04394 F600.000
G1 X-2.189 Y6.500 E1.11673
G1 X-2.189 Y3.858 E1.16067
G1 X2.128 Y3.858 E1.23245
G1 X1.996 Y3.458 F7800.000
G1 X2.444 Y2.682 E1.24736 F600.000
G1 X2.587 Y2.720 E1.24982
G1 X2.589 Y6.900 E1.31933
G1 X-2.589 Y6.900 E1.40543
G1 X-2.588 Y2.718 E1.47497
G1 X-2.445 Y2.680 E1.47743
G1 X-1.996 Y3.458 E1.49237
G1 X1.936 Y3.458 E1.55777
G1 X1.765 Y3.058 F7800.000
G1 X2.845 Y1.189 E1.59367 F600.000
G1 X2.988 Y1.227 E1.59613
G1 X2.989 Y7.300 E1.69712
G1 X-2.989 Y7.300 E1.79653
G1 X-2.988 Y1.226 E1.89755
G1 X-2.845 Y1.187 E1.90001
G1 X-1.765 Y3.058 E1.93593
G1 X1.705 Y3.058 E1.99365
G1 X2.141 Y3.195 F7800.000
G1 F1800.000 E0.99365
G92 E0
G1 X2.189 Y-3.858 F7800.000
G1 E1.00000 F1800.000
G1 X-2.189 Y-3.858 E1.07280 F600.000
G1 X-2.189 Y-6.500 E1.11673
G1 X2.189 Y-6.500 E1.18954
G1 X2.189 Y-3.918 E1.23248
G1 X1.996 Y-3.458 F7800.000
G1 X-1.996 Y-3.458 E1.29888 F600.000
G1 X-2.446 Y-2.680 E1.31382
G1 X-2.589 Y-2.718 E1.31628
G1 X-2.589 Y-6.900 E1.38583
G1 X2.589 Y-6.900 E1.47193
G1 X2.588 Y-2.718 E1.54147
G1 X2.445 Y-2.680 E1.54393
G1 X2.026 Y-3.406 E1.55787
G1 X1.765 Y-3.058 F7800.000
G1 X-1.765 Y-3.058 E1.61659 F600.000
G1 X-2.845 Y-1.187 E1.65251
G1 X-2.988 Y-1.226 E1.65497
G1 X-2.989 Y-7.300 E1.75599
G1 X2.989 Y-7.300 E1.85540
G1 X2.988 Y-1.226 E1.95641
G1 X2.845 Y-1.188 E1.95887
G1 X1.795 Y-3.006 E1.99379
G1 X1.696 Y-3.452 F7800.000
G1 F1800.000 E0.99379
G92 E0
G1 X3.098 Y0.350 F7800.000
G1 E1.00000 F1800.000
G1 X3.142 Y0.494 E1.00251 F600.000
G1 X3.016 Y0.844 E1.00870
G1 X2.800 Y0.870 E1.01232
