; generated by Slic3r 1.0.0RC2 on 2014-08-31 at 14:54:31

; layer_height = 0.1
; perimeters = 1
; top_solid_layers = 3
; bottom_solid_layers = 3
; fill_density = 0
; perimeter_speed = 40
; infill_speed = 80
; travel_speed = 130
; nozzle_diameter = 0.4
; filament_diameter = 1.75
; extrusion_multiplier = 1
; perimeters extrusion width = 0.40mm
; infill extrusion width = 1.28mm
; solid infill extrusion width = 0.68mm
; top infill extrusion width = 0.68mm
; first layer extrusion width = 0.70mm

G21 ; set units to millimeters
M107
M104 S210 ; set temperature
G28 ; home all axes
G1 X0 Y0 Z40 F5000; Centers Nozzle
M109 S210 ; wait for temperature to be reached
G90 ; use absolute coordinates
G92 E0
M82 ; use absolute distances for extrusion
G1 F1800.000 E-1.00000
G92 E0
G1 Z0.350 F7800.000
G1 X22.691 Y-78.229 F7800.000
G1 E1.00000 F1800.000
G1 X39.761 Y-71.239 E2.70606 F720.000
G1 X40.551 Y-70.859 E2.78714
G1 X41.271 Y-70.379 E2.86718
G1 X56.841 Y-58.519 E4.67746
G1 X57.491 Y-57.949 E4.75742
G1 X58.071 Y-57.299 E4.83800
G1 X70.051 Y-41.809 E6.64917
G1 X70.531 Y-41.089 E6.72920
G1 X70.921 Y-40.309 E6.80986
G1 X78.481 Y-22.249 E8.62070
G1 X78.761 Y-21.429 E8.70084
G1 X78.941 Y-20.579 E8.78120
G1 X81.571 Y-1.179 E10.59194
G1 X81.631 Y-0.319 E10.67167
G1 X81.571 Y0.551 E10.75233
G1 X79.091 Y19.971 E12.56309
G1 X78.931 Y20.821 E12.64309
G1 X78.651 Y21.641 E12.72323
G1 X71.231 Y39.761 E14.53424
G1 X70.851 Y40.551 E14.61532
G1 X70.371 Y41.271 E14.69535
G1 X58.511 Y56.841 E16.50564
G1 X57.941 Y57.491 E16.58560
G1 X57.291 Y58.071 E16.66617
G1 X41.801 Y70.051 E18.47734
G1 X41.081 Y70.531 E18.55738
G1 X40.301 Y70.921 E18.63804
G1 X22.241 Y78.481 E20.44887
G1 X21.421 Y78.761 E20.52901
G1 X20.571 Y78.941 E20.60937
G1 X1.171 Y81.571 E22.42011
G1 X0.311 Y81.631 E22.49985
G1 X-0.559 Y81.571 E22.58050
G1 X-19.979 Y79.091 E24.39127
G1 X-20.829 Y78.931 E24.47126
G1 X-21.649 Y78.651 E24.55141
G1 X-39.769 Y71.231 E26.36241
G1 X-40.559 Y70.851 E26.44349
G1 X-41.279 Y70.371 E26.52353
G1 X-56.849 Y58.511 E28.33381
G1 X-57.499 Y57.941 E28.41377
G1 X-58.079 Y57.291 E28.49435
G1 X-70.059 Y41.801 E30.30552
G1 X-70.539 Y41.081 E30.38555
G1 X-70.929 Y40.311 E30.46539
G1 X-78.499 Y22.251 E32.27658
G1 X-78.779 Y21.421 E32.35759
G1 X-78.959 Y20.571 E32.43795
G1 X-81.579 Y1.171 E34.24857
G1 X-81.639 Y0.301 E34.32923
G1 X-81.579 Y-0.559 E34.40896
G1 X-79.099 Y-19.979 E36.21972
G1 X-78.939 Y-20.829 E36.29972
G1 X-78.659 Y-21.649 E36.37986
G1 X-71.239 Y-39.769 E38.19087
G1 X-70.859 Y-40.559 E38.27195
G1 X-70.379 Y-41.279 E38.35199
G1 X-58.519 Y-56.849 E40.16227
G1 X-57.949 Y-57.499 E40.24223
G1 X-57.299 Y-58.079 E40.32280
G1 X-41.809 Y-70.059 E42.13398
G1 X-41.089 Y-70.539 E42.21401
G1 X-40.319 Y-70.929 E42.29384
G1 X-22.259 Y-78.499 E44.10503
G1 X-21.419 Y-78.779 E44.18693
G1 X-20.559 Y-78.959 E44.26819
G1 X-1.179 Y-81.579 E46.07698
G1 X-0.309 Y-81.639 E46.15763
G1 X0.551 Y-81.579 E46.23737
G1 X19.971 Y-79.099 E48.04813
G1 X20.821 Y-78.939 E48.12813
G1 X21.641 Y-78.659 E48.20827
G1 X22.602 Y-78.266 E48.30440
G1 F1800.000 E47.30440
G92 E0
G1 X20.793 Y-73.556 F7800.000
G1 E1.00000 F1800.000
G1 X37.949 Y-66.526 E2.71487 F720.000
G1 X38.130 Y-66.423 E2.73414
G1 X53.875 Y-54.437 E4.56428
G1 X54.022 Y-54.291 E4.58354
G1 X66.128 Y-38.639 E6.41368
G1 X66.233 Y-38.459 E6.43295
G1 X73.875 Y-20.207 E8.26309
G1 X73.930 Y-20.006 E8.28236
G1 X76.588 Y-0.398 E10.11250
G1 X76.589 Y-0.190 E10.13176
G1 X74.081 Y19.438 E11.96190
G1 X74.028 Y19.640 E11.98117
G1 X66.526 Y37.949 E13.81131
G1 X66.423 Y38.130 E13.83057
G1 X54.437 Y53.875 E15.66072
G1 X54.291 Y54.022 E15.67998
G1 X38.639 Y66.128 E17.51012
G1 X38.459 Y66.233 E17.52939
G1 X20.207 Y73.875 E19.35953
G1 X20.006 Y73.930 E19.37879
G1 X0.398 Y76.588 E21.20893
G1 X0.190 Y76.589 E21.22820
G1 X-19.438 Y74.081 E23.05834
G1 X-19.640 Y74.028 E23.07761
G1 X-37.949 Y66.526 E24.90775
G1 X-38.130 Y66.423 E24.92701
G1 X-53.875 Y54.437 E26.75715
G1 X-54.022 Y54.291 E26.77642
G1 X-66.128 Y38.639 E28.60656
G1 X-66.233 Y38.459 E28.62582
G1 X-73.875 Y20.207 E30.45596
G1 X-73.930 Y20.006 E30.47523
G1 X-76.588 Y0.398 E32.30537
G1 X-76.589 Y0.190 E32.32464
G1 X-74.081 Y-19.438 E34.15478
G1 X-74.028 Y-19.640 E34.17404
G1 X-66.526 Y-37.949 E36.00418
G1 X-66.423 Y-38.130 E36.02345
G1 X-54.437 Y-53.875 E37.85359
G1 X-54.291 Y-54.022 E37.87286
G1 X-38.639 Y-66.128 E39.70300
G1 X-38.459 Y-66.233 E39.72226
G1 X-20.207 Y-73.875 E41.55240
G1 X-20.006 Y-73.930 E41.57167
G1 X-0.398 Y-76.588 E43.40181
G1 X-0.190 Y-76.589 E43.42107
G1 X19.438 Y-74.081 E45.25121
G1 X19.640 Y-74.028 E45.27048
G1 X20.705 Y-73.592 E45.37693
G1 X20.552 Y-72.968 F7800.000
G1 X37.670 Y-65.954 E47.08795 F720.000
G1 X37.778 Y-65.892 E47.09951
G1 X53.456 Y-53.957 E48.92194
G1 X53.545 Y-53.869 E48.93350
G1 X65.600 Y-38.283 E50.75593
G1 X65.663 Y-38.175 E50.76749
G1 X73.273 Y-20.000 E52.58993
G1 X73.306 Y-19.879 E52.60149
G1 X75.953 Y-0.354 E54.42392
G1 X75.953 Y-0.229 E54.43548
G1 X73.456 Y19.316 E56.25791
G1 X73.424 Y19.437 E56.26947
G1 X65.954 Y37.670 E58.09191
G1 X65.892 Y37.778 E58.10347
G1 X53.957 Y53.456 E59.92590
G1 X53.869 Y53.545 E59.93746
G1 X38.283 Y65.600 E61.75989
G1 X38.175 Y65.663 E61.77145
G1 X20.000 Y73.273 E63.59389
G1 X19.879 Y73.306 E63.60545
G1 X0.354 Y75.953 E65.42788
G1 X0.229 Y75.953 E65.43944
G1 X-19.316 Y73.456 E67.26187
G1 X-19.437 Y73.424 E67.27343
G1 X-37.670 Y65.954 E69.09587
G1 X-37.778 Y65.892 E69.10742
G1 X-53.456 Y53.957 E70.92986
G1 X-53.545 Y53.869 E70.94142
G1 X-65.600 Y38.283 E72.76385
G1 X-65.663 Y38.175 E72.77541
G1 X-73.273 Y20.000 E74.59785
G1 X-73.306 Y19.879 E74.60941
G1 X-75.953 Y0.354 E76.43184
G1 X-75.953 Y0.229 E76.44340
G1 X-73.456 Y-19.316 E78.26583
G1 X-73.424 Y-19.437 E78.27739
G1 X-65.954 Y-37.670 E80.09983
G1 X-65.892 Y-37.778 E80.11138
G1 X-53.957 Y-53.456 E81.93382
G1 X-53.869 Y-53.545 E81.94538
G1 X-38.283 Y-65.600 E83.76781
G1 X-38.175 Y-65.663 E83.77937
G1 X-20.000 Y-73.273 E85.60180
G1 X-19.879 Y-73.306 E85.61336
G1 X-0.354 Y-75.953 E87.43580
G1 X-0.229 Y-75.953 E87.44736
G1 X19.316 Y-73.456 E89.26979
G1 X19.437 Y-73.424 E89.28135
G1 X20.464 Y-73.004 E89.38395
G1 X20.311 Y-72.379 F7800.000
G1 X37.427 Y-65.361 E91.09493 F720.000
G1 X53.038 Y-53.476 E92.90966
G1 X65.093 Y-37.891 E94.73203
G1 X72.682 Y-19.752 E96.55058
G1 X75.317 Y-0.310 E98.36530
G1 X72.820 Y19.235 E100.18767
G1 X65.381 Y37.390 E102.00240
G1 X53.476 Y53.038 E103.82094
G1 X37.891 Y65.093 E105.64331
G1 X19.752 Y72.682 E107.46186
G1 X0.310 Y75.317 E109.27659
G1 X-19.235 Y72.820 E111.09895
G1 X-37.390 Y65.381 E112.91368
G1 X-53.038 Y53.476 E114.73223
G1 X-65.093 Y37.891 E116.55459
G1 X-72.682 Y19.752 E118.37314
G1 X-75.317 Y0.310 E120.18787
G1 X-72.820 Y-19.235 E122.01024
G1 X-65.381 Y-37.390 E123.82496
G1 X-53.476 Y-53.038 E125.64351
G1 X-37.891 Y-65.093 E127.46588
G1 X-19.752 Y-72.682 E129.28443
G1 X-0.310 Y-75.317 E131.09915
G1 X19.194 Y-72.831 E132.91770
G1 X20.223 Y-72.416 E133.02026
G1 X20.058 Y-71.761 F7800.000
G1 X37.075 Y-64.789 E134.72124 F504.000
G1 X52.581 Y-52.985 E136.52359
G1 X64.503 Y-37.571 E138.32594
G1 X72.029 Y-19.596 E140.12829
G1 X74.499 Y-1.372 E141.82927
G1 X74.646 Y-0.286 E141.93064
G1 X72.177 Y19.043 E143.73299
G1 X64.789 Y37.075 E145.53534
G1 X52.985 Y52.581 E147.33769
G1 X37.571 Y64.503 E149.14004
G1 X19.596 Y72.029 E150.94239
G1 X0.286 Y74.646 E152.74474
G1 X-19.043 Y72.177 E154.54709
G1 X-37.075 Y64.789 E156.34944
G1 X-52.581 Y52.985 E158.15179
G1 X-64.503 Y37.571 E159.95414
G1 X-72.029 Y19.596 E161.75649
G1 X-74.499 Y1.372 E163.45747
G1 X-74.646 Y0.286 E163.55884
G1 X-72.177 Y-19.043 E165.36119
G1 X-64.789 Y-37.075 E167.16354
G1 X-53.649 Y-51.708 E168.86452
G1 X-52.985 Y-52.581 E168.96589
G1 X-37.571 Y-64.503 E170.76824
G1 X-19.596 Y-72.029 E172.57059
G1 X-0.286 Y-74.646 E174.37294
G1 X19.043 Y-72.177 E176.17529
G1 X19.969 Y-71.798 E176.26785
G1 F1800.000 E175.26785
G92 E0
G1 X0.000 Y4.085 F7800.000
G1 E1.00000 F1800.000
G1 X25.299 Y65.164 E7.11464 F504.000
G1 X12.152 Y69.296 E8.38926
G1 X-6.197 Y70.080 E10.08793
G1 X-24.124 Y66.088 E11.78661
G1 X-25.405 Y65.419 E11.92032
G1 X-0.036 Y4.173 E18.05171
G1 X2.889 Y2.889 F7800.000
G1 X63.967 Y28.188 E24.16634 F504.000
G1 X57.592 Y40.406 E25.44097
G1 X45.172 Y53.936 E27.13964
G1 X29.673 Y63.789 E28.83832
G1 X28.294 Y64.223 E28.97203
G1 X2.925 Y2.977 E35.10342
G1 X-2.889 Y2.889 F7800.000
G1 X-28.188 Y63.967 E41.21805 F504.000
G1 X-40.406 Y57.592 E42.49268
G1 X-53.936 Y45.172 E44.19135
G1 X-63.789 Y29.673 E45.89003
G1 X-64.223 Y28.294 E46.02374
G1 X-2.977 Y2.925 E52.15513
G1 X4.085 Y-0.000 F7800.000
G1 X65.164 Y-25.299 E58.26976 F504.000
G1 X69.296 Y-12.152 E59.54439
G1 X70.080 Y6.197 E61.24306
G1 X66.088 Y24.124 E62.94173
G1 X65.419 Y25.405 E63.07545
G1 X4.173 Y0.036 E69.20684
G1 X-4.085 Y0.000 F7800.000
G1 X-65.164 Y25.299 E75.32147 F504.000
G1 X-69.296 Y12.152 E76.59610
G1 X-70.080 Y-6.197 E78.29477
G1 X-66.088 Y-24.124 E79.99344
G1 X-65.419 Y-25.405 E80.12716
G1 X-4.173 Y-0.036 E86.25855
G1 X-2.889 Y-2.889 F7800.000
G1 X-63.967 Y-28.188 E92.37318 F504.000
G1 X-57.592 Y-40.406 E93.64781
G1 X-45.172 Y-53.936 E95.34648
G1 X-29.673 Y-63.789 E97.04515
G1 X-28.294 Y-64.223 E97.17887
G1 X-2.925 Y-2.977 E103.31025
G1 X2.889 Y-2.889 F7800.000
G1 X28.188 Y-63.967 E109.42489 F504.000
G1 X40.406 Y-57.592 E110.69951
G1 X53.936 Y-45.172 E112.39819
G1 X63.789 Y-29.673 E114.09686
G1 X64.223 Y-28.294 E114.23057
G1 X2.977 Y-2.925 E120.36196
G1 X0.000 Y-4.085 F7800.000
G1 X-25.299 Y-65.164 E126.47660 F504.000
G1 X-12.152 Y-69.296 E127.75122
G1 X6.197 Y-70.080 E129.44989
G1 X24.124 Y-66.088 E131.14857
G1 X25.405 Y-65.419 E131.28228
G1 X0.036 Y-4.173 E137.41367
G1 X-0.769 Y-4.822 F7800.000
G1 X-4.962 Y-9.014 E137.96302 F1080.000
G1 X-5.598 Y-10.551 F7800.000
G1 X-1.406 Y-6.359 E138.51237 F1080.000
G1 X-2.043 Y-7.896 F7800.000
G1 X-6.235 Y-12.088 E139.06172 F1080.000
G1 X-6.872 Y-13.626 F7800.000
G1 X-2.680 Y-9.433 E139.61107 F1080.000
G1 X-3.316 Y-10.971 F7800.000
G1 X-7.509 Y-15.163 E140.16042 F1080.000
G1 X-8.145 Y-16.700 F7800.000
G1 X-3.953 Y-12.508 E140.70977 F1080.000
G1 X-4.590 Y-14.045 F7800.000
G1 X-8.782 Y-18.238 E141.25912 F1080.000
G1 X-9.419 Y-19.775 F7800.000
G1 X-5.227 Y-15.582 E141.80847 F1080.000
G1 X-5.863 Y-17.120 F7800.000
G1 X-10.056 Y-21.312 E142.35782 F1080.000
G1 X-10.692 Y-22.849 F7800.000
G1 X-6.500 Y-18.657 E142.90717 F1080.000
G1 X-7.137 Y-20.194 F7800.000
G1 X-11.329 Y-24.387 E143.45652 F1080.000
G1 X-11.966 Y-25.924 F7800.000
G1 X-7.774 Y-21.731 E144.00587 F1080.000
G1 X-8.410 Y-23.269 F7800.000
G1 X-12.603 Y-27.461 E144.55522 F1080.000
G1 X-13.239 Y-28.998 F7800.000
G1 X-9.047 Y-24.806 E145.10457 F1080.000
G1 X-9.684 Y-26.343 F7800.000
G1 X-13.876 Y-30.536 E145.65392 F1080.000
G1 X-14.513 Y-32.073 F7800.000
G1 X-10.321 Y-27.880 E146.20327 F1080.000
G1 X-10.957 Y-29.418 F7800.000
G1 X-15.150 Y-33.610 E146.75262 F1080.000
G1 X-15.786 Y-35.147 F7800.000
G1 X-11.594 Y-30.955 E147.30197 F1080.000
G1 X-12.231 Y-32.492 F7800.000
G1 X-16.423 Y-36.685 E147.85132 F1080.000
G1 X-17.060 Y-38.222 F7800.000
G1 X-12.868 Y-34.029 E148.40067 F1080.000
G1 X-13.504 Y-35.567 F7800.000
G1 X-17.697 Y-39.759 E148.95002 F1080.000
G1 X-18.333 Y-41.296 F7800.000
G1 X-14.141 Y-37.104 E149.49937 F1080.000
G1 X-14.778 Y-38.641 F7800.000
G1 X-18.970 Y-42.834 E150.04872 F1080.000
G1 X-19.607 Y-44.371 F7800.000
G1 X-15.415 Y-40.179 E150.59807 F1080.000
G1 X-16.051 Y-41.716 F7800.000
G1 X-20.244 Y-45.908 E151.14742 F1080.000
G1 X-20.880 Y-47.445 F7800.000
G1 X-16.688 Y-43.253 E151.69677 F1080.000
G1 X-17.325 Y-44.790 F7800.000
G1 X-21.517 Y-48.983 E152.24612 F1080.000
G1 X-22.154 Y-50.520 F7800.000
G1 X-17.962 Y-46.328 E152.79547 F1080.000
G1 X-18.598 Y-47.865 F7800.000
G1 X-22.791 Y-52.057 E153.34482 F1080.000
G1 X-23.427 Y-53.594 F7800.000
G1 X-19.235 Y-49.402 E153.89417 F1080.000
G1 X-19.872 Y-50.939 F7800.000
G1 X-24.064 Y-55.132 E154.44352 F1080.000
G1 X-24.701 Y-56.669 F7800.000
G1 X-20.509 Y-52.477 E154.99286 F1080.000
G1 X-21.145 Y-54.014 F7800.000
G1 X-25.338 Y-58.206 E155.54221 F1080.000
G1 X-25.974 Y-59.743 F7800.000
G1 X-21.782 Y-55.551 E156.09156 F1080.000
G1 X-22.419 Y-57.088 F7800.000
G1 X-26.611 Y-61.281 E156.64091 F1080.000
G1 X-27.248 Y-62.818 F7800.000
G1 X-23.056 Y-58.626 E157.19026 F1080.000
G1 X-23.692 Y-60.163 F7800.000
G1 X-30.520 Y-66.990 E158.08487 F1080.000
G1 X-29.885 Y-67.256 E158.14863
G1 X-24.329 Y-61.700 E158.87663
G1 X-24.966 Y-63.237 F7800.000
G1 X-29.250 Y-67.522 E159.43802 F1080.000
G1 X-28.615 Y-67.787 E159.50178
G1 X-25.603 Y-64.775 E159.89655
G1 X-25.483 Y-65.556 E159.96976
G1 X-27.981 Y-68.053 E160.29703
G1 X-27.346 Y-68.319 E160.36079
G1 X-24.798 Y-65.771 E160.69467
G1 X-24.113 Y-65.986 E160.76121
G1 X-26.711 Y-68.585 E161.10170
G1 X-26.076 Y-68.850 E161.16546
G1 X-23.428 Y-66.202 E161.51256
G1 X-22.742 Y-66.417 E161.57911
G1 X-25.442 Y-69.116 E161.93281
G1 X-24.807 Y-69.382 E161.99657
G1 X-22.057 Y-66.632 E162.35689
G1 X-21.372 Y-66.848 E162.42343
G1 X-24.172 Y-69.648 E162.79036
G1 X-23.538 Y-69.914 E162.85412
G1 X-20.687 Y-67.063 E163.22765
G1 X-20.002 Y-67.278 E163.29420
G1 X-22.903 Y-70.179 E163.67434
G1 X-22.268 Y-70.445 E163.73810
G1 X-19.317 Y-67.494 E164.12485
G1 X-18.631 Y-67.709 E164.19140
G1 X-21.633 Y-70.711 E164.58476
G1 X-20.999 Y-70.977 E164.64852
G1 X-17.946 Y-67.924 E165.04849
G1 X-17.261 Y-68.140 E165.11504
G1 X-20.364 Y-71.242 E165.52161
G1 X-19.729 Y-71.508 E165.58537
G1 X-16.576 Y-68.355 E165.99856
G1 X-15.891 Y-68.570 E166.06511
G1 X-18.998 Y-71.677 E166.47221
G1 X-18.205 Y-71.785 E166.54636
G1 X-15.206 Y-68.786 E166.93934
G1 X-14.520 Y-69.001 E167.00588
G1 X-17.412 Y-71.892 E167.38473
G1 X-16.619 Y-72.000 E167.45888
G1 X-13.835 Y-69.216 E167.82359
G1 X-13.150 Y-69.432 E167.89014
G1 X-15.826 Y-72.107 E168.24072
G1 X-15.032 Y-72.215 E168.31487
G1 X-12.465 Y-69.647 E168.65132
G1 X-11.663 Y-69.746 E168.72616
G1 X-14.239 Y-72.322 E169.06375
G1 X-13.446 Y-72.430 E169.13790
G1 X-10.800 Y-69.783 E169.48474
G1 X-9.936 Y-69.820 E169.56483
G1 X-12.653 Y-72.537 E169.92092
G1 X-11.860 Y-72.645 E169.99507
G1 X-9.072 Y-69.856 E170.36041
G1 X-8.209 Y-69.893 E170.44050
G1 X-11.067 Y-72.752 E170.81509
G1 X-10.274 Y-72.860 E170.88924
G1 X-7.345 Y-69.930 E171.27308
G1 X-6.482 Y-69.967 E171.35317
G1 X-9.481 Y-72.967 E171.74626
G1 X-8.688 Y-73.075 E171.82041
G1 X-5.618 Y-70.004 E172.22275
G1 X-4.754 Y-70.041 E172.30284
G1 X-7.895 Y-73.182 E172.71444
G1 X-7.102 Y-73.290 E172.78859
G1 X-3.891 Y-70.078 E173.20943
G1 X-3.027 Y-70.115 E173.28952
G1 X-6.309 Y-73.397 E173.71961
G1 X-5.516 Y-73.505 E173.79376
G1 X-2.164 Y-70.152 E174.23310
G1 X-1.300 Y-70.189 E174.31320
G1 X-4.723 Y-73.612 E174.76179
G1 X-3.930 Y-73.720 E174.83594
G1 X-0.436 Y-70.226 E175.29378
G1 X0.427 Y-70.262 E175.37387
G1 X-3.137 Y-73.827 E175.84097
G1 X-2.344 Y-73.935 E175.91512
G1 X1.291 Y-70.299 E176.39146
G1 X2.154 Y-70.336 E176.47155
G1 X-1.551 Y-74.042 E176.95715
G1 X-0.758 Y-74.150 E177.03130
G1 X3.018 Y-70.373 E177.52614
G1 X3.882 Y-70.410 E177.60623
G1 X0.131 Y-74.161 E178.09770
G1 X1.163 Y-74.029 E178.19414
G1 X4.745 Y-70.447 E178.66349
G1 X5.609 Y-70.484 E178.74358
G1 X2.196 Y-73.897 E179.19081
G1 X3.228 Y-73.765 E179.28724
G1 X6.554 Y-70.440 E179.72299
G1 X7.712 Y-70.182 E179.83296
G1 X4.261 Y-73.633 E180.28522
G1 X5.293 Y-73.501 E180.38166
G1 X8.871 Y-69.924 E180.85044
G1 X10.029 Y-69.666 E180.96040
G1 X6.325 Y-73.369 E181.44570
G1 X7.358 Y-73.237 E181.54214
G1 X11.187 Y-69.408 E182.04396
G1 X12.346 Y-69.150 E182.15392
G1 X8.390 Y-73.106 E182.67226
G1 X9.423 Y-72.974 E182.76870
G1 X13.504 Y-68.892 E183.30355
G1 X14.663 Y-68.634 E183.41352
G1 X10.455 Y-72.842 E183.96489
G1 X11.487 Y-72.710 E184.06133
G1 X15.821 Y-68.376 E184.62922
G1 X16.980 Y-68.118 E184.73919
G1 X12.520 Y-72.578 E185.32360
G1 X13.552 Y-72.446 E185.42003
G1 X18.138 Y-67.860 E186.02096
G1 X19.297 Y-67.602 E186.13093
G1 X14.585 Y-72.314 E186.74837
G1 X15.617 Y-72.182 E186.84481
G1 X20.455 Y-67.344 E187.47877
G1 X21.614 Y-67.086 E187.58874
G1 X16.649 Y-72.050 E188.23923
G1 X17.682 Y-71.919 E188.33566
G1 X22.772 Y-66.828 E189.00266
G1 X23.930 Y-66.570 E189.11263
G1 X18.714 Y-71.787 E189.79615
