; generated by Slic3r 1.0.0RC2 on 2014-08-31 at 09:04:07

; layer_height = 0.1
; perimeters = 3
; top_solid_layers = 3
; bottom_solid_layers = 3
; fill_density = 0.2
; perimeter_speed = 40
; infill_speed = 80
; travel_speed = 130
; nozzle_diameter = 0.4
; filament_diameter = 1.75
; extrusion_multiplier = 1
; perimeters extrusion width = 0.40mm
; infill extrusion width = 1.28mm
; solid infill extrusion width = 0.68mm
; top infill extrusion width = 0.68mm
; first layer extrusion width = 0.80mm

G21 ; set units to millimeters
M107
M104 S210 ; set temperature
G28 ; home all axes
G1 X0 Y0 Z40 F5000; Centers Nozzle
M109 S210 ; wait for temperature to be reached
G90 ; use absolute coordinates
G92 E0
M82 ; use absolute distances for extrusion
G1 F1800.000 E-5.00000
G92 E0
G1 Z0.400 F7800.000
G1 X15.210 Y10.660 F7800.000
G1 E5.00000 F1800.000
G1 X15.060 Y12.100 E5.17195 F720.000
G1 X14.600 Y13.470 E5.34358
G1 X13.860 Y14.710 E5.51508
G1 X12.870 Y15.760 E5.68647
G1 X11.680 Y16.580 E5.85811
G1 X10.340 Y17.120 E6.02969
G1 X4.750 Y18.710 E6.71992
G1 X3.690 Y18.920 E6.84826
G1 X2.620 Y18.960 E6.97543
G1 X-8.790 Y18.460 E8.33184
G1 X-10.060 Y18.280 E8.48418
G1 X-11.270 Y17.870 E8.63591
G1 X-12.380 Y17.230 E8.78808
G1 X-13.350 Y16.390 E8.94048
G1 X-14.140 Y15.390 E9.09183
G1 X-14.730 Y14.250 E9.24428
G1 X-15.090 Y13.020 E9.39649
G1 X-15.210 Y11.750 E9.54799
G1 X-15.210 Y-11.750 E12.33898
G1 X-15.060 Y-13.160 E12.50738
G1 X-14.620 Y-14.510 E12.67601
G1 X-13.910 Y-15.730 E12.84366
G1 X-12.950 Y-16.780 E13.01263
G1 X-11.800 Y-17.600 E13.18037
G1 X-10.500 Y-18.160 E13.34848
G1 X-9.110 Y-18.440 E13.51688
G1 X2.620 Y-18.960 E14.91136
G1 X3.690 Y-18.920 E15.03853
G1 X4.740 Y-18.710 E15.16571
G1 X10.330 Y-17.130 E15.85561
G1 X11.670 Y-16.590 E16.02719
G1 X12.860 Y-15.770 E16.19883
G1 X13.850 Y-14.720 E16.37022
G1 X14.600 Y-13.480 E16.54233
G1 X15.060 Y-12.110 E16.71397
G1 X15.210 Y-10.670 E16.88592
G1 X15.210 Y10.553 E19.40645
G1 F1800.000 E14.40645
G92 E0
G1 X3.271 Y11.328 F7800.000
G1 E5.00000 F1800.000
G1 X2.756 Y11.843 E5.08649 F540.000
G1 X-8.100 Y11.367 E6.37702
G1 X-8.100 Y9.937 E6.54692
G1 X-7.610 Y9.525 E6.62296
G1 X-6.906 Y9.438 E6.70709
G1 X-6.269 Y9.748 E6.79123
G1 X-5.726 Y10.650 E6.91625
G1 X2.185 Y10.650 E7.85584
G1 X3.180 Y11.271 E7.99509
G1 X2.597 Y11.564 F7800.000
G1 X4.328 Y8.836 F7800.000
G1 X4.328 Y-8.836 E10.09388 F540.000
G1 X6.672 Y-8.836 E10.37219
G1 X6.672 Y8.836 E12.47099
G1 X4.435 Y8.836 E12.73657
G1 X3.614 Y9.550 F7800.000
G1 X3.614 Y-9.550 E15.00500 F720.000
G1 X7.386 Y-9.550 E15.45294
G1 X7.386 Y9.550 E17.72137
G1 X3.721 Y9.550 E18.15659
G1 X2.900 Y9.935 F7800.000
G1 X2.900 Y-9.935 E20.51655 F504.000
G1 X3.578 Y-11.021 E20.66852
G1 X4.334 Y-10.264 E20.79559
G1 X8.100 Y-10.264 E21.24283
G1 X8.100 Y10.264 E23.68089
G1 X4.334 Y10.264 E24.12812
G1 X3.578 Y11.021 E24.25519
G1 X2.957 Y10.026 E24.39444
G1 X3.442 Y9.470 F7800.000
G1 F1800.000 E19.39444
G92 E0
G1 X2.185 Y-10.650 F7800.000
G1 E5.00000 F1800.000
G1 X-5.726 Y-10.650 E5.93959 F540.000
G1 X-6.269 Y-9.748 E6.06461
G1 X-6.906 Y-9.438 E6.14874
G1 X-7.610 Y-9.525 E6.23288
G1 X-8.100 Y-9.937 E6.30891
G1 X-8.100 Y-11.367 E6.47882
G1 X2.756 Y-11.843 E7.76935
G1 X3.271 Y-11.328 E7.85584
G1 X2.276 Y-10.707 E7.99509
G1 X1.720 Y-11.192 F7800.000
G1 X3.687 Y-10.063 F7800.000
G1 X7.500 Y-3.642 F7800.000
G1 X6.191 Y-8.281 F7800.000
G1 X6.117 Y-8.355 E8.00819 F1080.000
G1 X5.061 Y-8.355 E8.13921
G1 X6.191 Y-7.225 E8.33759
G1 X6.191 Y-6.170 E8.46861
G1 X4.809 Y-7.552 E8.71129
G1 X4.809 Y-6.497 E8.84231
G1 X6.191 Y-5.114 E9.08499
G1 X6.191 Y-4.059 E9.21601
G1 X4.809 Y-5.441 E9.45869
G1 X4.809 Y-4.386 E9.58971
G1 X6.191 Y-3.003 E9.83239
G1 X6.191 Y-1.948 E9.96341
G1 X4.809 Y-3.330 E10.20609
G1 X4.809 Y-2.275 E10.33710
G1 X6.191 Y-0.892 E10.57979
G1 X6.191 Y0.163 E10.71080
G1 X4.809 Y-1.219 E10.95348
G1 X4.809 Y-0.163 E11.08450
G1 X6.191 Y1.219 E11.32718
G1 X6.191 Y2.275 E11.45820
G1 X4.809 Y0.892 E11.70088
G1 X4.809 Y1.948 E11.83190
G1 X6.191 Y3.330 E12.07458
G1 X6.191 Y4.386 E12.20560
G1 X4.809 Y3.003 E12.44828
G1 X4.809 Y4.059 E12.57930
G1 X6.191 Y5.441 E12.82198
G1 X6.191 Y6.497 E12.95300
G1 X4.809 Y5.114 E13.19568
G1 X4.809 Y6.170 E13.32669
G1 X6.191 Y7.552 E13.56938
G1 X5.939 Y8.355 E13.67388
G1 X4.809 Y7.225 E13.87227
G1 X4.809 Y8.281 E14.00328
G1 X4.883 Y8.355 E14.01638
G1 X2.200 Y11.248 F7800.000
G1 X2.255 Y11.303 E14.02091 F360.000
G1 X2.200 Y11.248 F7800.000
G1 X1.756 Y11.299 E14.04696 F360.000
G1 X1.606 Y11.150 E14.05924 F360.000
G1 X1.238 Y11.276 E14.08193 F360.000
G1 X1.111 Y11.150 E14.09235 F360.000
G1 X0.720 Y11.253 E14.11592 F360.000
G1 X0.616 Y11.150 E14.12447 F360.000
G1 X0.202 Y11.231 E14.14903 F360.000
G1 X0.121 Y11.150 E14.15572 F360.000
G1 X-0.316 Y11.208 E14.18136 F360.000
G1 X-0.374 Y11.150 E14.18618 F360.000
G1 X-0.852 Y11.167 E14.21401 F360.000
G1 X-0.833 Y11.185 E14.21551 F360.000
G1 X-7.306 Y10.680 F7800.000
G1 X-7.379 Y10.607 E14.22779 F360.000
G1 F1800.000 E9.22779
G92 E0
G1 X-7.009 Y10.056 F7800.000
G1 X-9.985 Y8.385 F7800.000
G1 X-1.668 Y-8.250 F7800.000
G1 X-6.309 Y-10.845 F7800.000
G1 X-7.257 Y-10.204 F7800.000
G1 E5.00000 F1800.000
G1 X-7.383 Y-10.330 E5.02368 F360.000
G1 X-6.633 Y-10.714 E5.13601 F360.000
G1 X-6.565 Y-10.646 E5.14876 F360.000
G1 X-0.852 Y-11.167 F7800.000
G1 X-0.352 Y-11.208 E5.18062 F360.000
G1 X-0.292 Y-11.148 E5.18602 F360.000
G1 X0.166 Y-11.231 E5.21558 F360.000
G1 X0.248 Y-11.148 E5.22302 F360.000
G1 X0.683 Y-11.253 E5.25147 F360.000
G1 X0.789 Y-11.148 E5.26095 F360.000
G1 X1.201 Y-11.276 E5.28840 F360.000
G1 X1.329 Y-11.148 E5.29992 F360.000
G1 X1.719 Y-11.299 E5.32647 F360.000
G1 X1.870 Y-11.148 E5.34003 F360.000
G1 X2.237 Y-11.321 E5.36583 F360.000
G1 X2.255 Y-11.303 E5.36748 F360.000
G1 X-0.833 Y-11.148 F7800.000
G1 X-0.852 Y-11.167 E5.36919 F360.000
M106 S255
G1 F1800.000 E0.36919
G92 E0
G1 Z0.500 F7800.000
G1 X-6.309 Y-10.845 F7800.000
G1 X-1.668 Y-8.250 F7800.000
G1 X-9.985 Y8.385 F7800.000
G1 X-7.009 Y10.056 F7800.000
G1 X-7.009 Y10.056 F7800.000
G1 E5.00000 F1800.000
G1 X-6.692 Y10.210 E5.00588 F638.109
G1 X-6.309 Y10.845 E5.01820
G1 X-7.500 Y10.793 E5.03803
G1 X-7.500 Y10.216 E5.04761
G1 X-7.360 Y10.099 E5.05065
G1 X-7.069 Y10.063 E5.05553
G1 X-6.941 Y9.644 F7800.000
G1 X-6.410 Y9.902 E5.06534 F638.109
G1 X-5.839 Y10.850 E5.08374
G1 X2.128 Y10.850 E5.21624
G1 X2.952 Y11.364 E5.23238
G1 X2.677 Y11.639 E5.23884
G1 X-7.900 Y11.176 E5.41490
G1 X-7.900 Y10.030 E5.43396
G1 X-7.526 Y9.716 E5.44207
G1 X-7.000 Y9.652 E5.45088
G1 F1800.000 E0.45088
G92 E0
G1 X-7.009 Y10.056 F7800.000
G1 X-9.985 Y8.385 F7800.000
G1 X0.500 Y-0.418 F7800.000
G1 X3.500 Y-2.599 F7800.000
G1 X3.500 Y9.763 F7800.000
G1 E5.00000 F1800.000
G1 X3.500 Y-9.763 E5.32473 F850.812
G1 X3.687 Y-10.063 E5.33061
G1 X4.086 Y-9.664 E5.33998
G1 X7.500 Y-9.664 E5.39676
G1 X7.500 Y9.664 E5.71820
G1 X4.086 Y9.664 E5.77497
G1 X3.687 Y10.063 E5.78435
G1 X3.532 Y9.814 E5.78923
G1 X3.100 Y9.878 F7800.000
G1 X3.100 Y-9.878 E6.11777 F850.812
G1 X3.614 Y-10.702 E6.13392
G1 X4.251 Y-10.064 E6.14890
G1 X7.900 Y-10.064 E6.20958
G1 X7.900 Y10.064 E6.54432
G1 X4.251 Y10.064 E6.60499
G1 X3.614 Y10.702 E6.61998
G1 X3.132 Y9.929 E6.63513
G1 F1800.000 E1.63513
G92 E0
G1 X3.687 Y-10.063 F7800.000
G1 X3.706 Y-14.287 F7800.000
G1 X-5.190 Y-13.897 F7800.000
G1 X-6.309 Y-10.845 F7800.000
G1 X-6.692 Y-10.210 F7800.000
G1 E5.00000 F1800.000
G1 X-7.009 Y-10.056 E5.00588 F638.109
G1 X-7.360 Y-10.099 E5.01175
G1 X-7.500 Y-10.216 E5.01479
G1 X-7.500 Y-10.793 E5.02438
G1 X-6.309 Y-10.845 E5.04420
G1 X-6.661 Y-10.262 E5.05553
G1 X-6.410 Y-9.902 F7800.000
G1 X-6.941 Y-9.644 E5.06534 F638.109
G1 X-7.526 Y-9.716 E5.07516
G1 X-7.900 Y-10.030 E5.08327
G1 X-7.900 Y-11.176 E5.10232
G1 X2.677 Y-11.639 E5.27838
G1 X2.952 Y-11.364 E5.28485
G1 X2.128 Y-10.850 E5.30099
G1 X-5.839 Y-10.850 E5.43348
G1 X-6.379 Y-9.954 E5.45088
G1 X-6.129 Y-9.595 F7800.000
G1 X-6.872 Y-9.233 E5.46463 F600.000
G1 X-7.693 Y-9.334 E5.47838
G1 X-8.300 Y-9.843 E5.49157
G1 X-8.300 Y-11.559 E5.52009
G1 X2.835 Y-12.046 E5.70544
G1 X4.417 Y-10.464 E5.74265
G1 X8.300 Y-10.464 E5.80723
G1 X8.300 Y10.464 E6.15527
G1 X4.417 Y10.464 E6.21984
G1 X2.835 Y12.046 E6.25705
G1 X-8.300 Y11.559 E6.44240
G1 X-8.300 Y9.843 E6.47093
G1 X-7.693 Y9.334 E6.48411
G1 X-6.872 Y9.233 E6.49786
G1 X-6.129 Y9.595 E6.51161
G1 X-5.613 Y10.450 E6.52822
G1 X2.243 Y10.450 E6.65886
G1 X2.779 Y10.785 E6.66938
G1 X3.035 Y10.529 E6.67540
G1 X2.700 Y9.993 E6.68592
G1 X2.700 Y-9.993 E7.01828
G1 X3.035 Y-10.529 E7.02880
G1 X2.779 Y-10.785 E7.03482
G1 X2.243 Y-10.450 E7.04534
G1 X-5.613 Y-10.450 E7.17598
G1 X-6.098 Y-9.646 E7.19159
G1 X-6.497 Y-9.751 F7800.000
G1 F1800.000 E2.19159
G92 E0
G1 X-6.309 Y-10.845 F7800.000
G1 X-5.190 Y-13.897 F7800.000
G1 X3.706 Y-14.287 F7800.000
G1 X3.687 Y-10.063 F7800.000
G1 X3.882 Y-9.350 F7800.000
G1 E5.00000 F1800.000
G1 X3.814 Y-9.282 E5.00267 F1276.219
G1 X3.814 Y-8.329 E5.02941
G1 X4.836 Y-9.350 E5.06990
G1 X5.789 Y-9.350 E5.09664
G1 X3.814 Y-7.375 E5.17495
G1 X3.814 Y-6.421 E5.20169
G1 X6.743 Y-9.350 E5.31782
G1 X7.186 Y-8.839 E5.33677
G1 X3.814 Y-5.467 E5.47044
G1 X3.814 Y-4.514 E5.49718
G1 X7.186 Y-7.885 E5.63086
G1 X7.186 Y-6.931 E5.65760
G1 X3.814 Y-3.560 E5.79127
G1 X3.814 Y-2.606 E5.81801
G1 X7.186 Y-5.977 E5.95168
G1 X7.186 Y-5.024 E5.97842
G1 X3.814 Y-1.653 E6.11209
G1 X3.814 Y-0.699 E6.13883
G1 X7.186 Y-4.070 E6.27250
G1 X7.186 Y-3.116 E6.29924
G1 X3.814 Y0.255 E6.43291
G1 X3.814 Y1.209 E6.45965
G1 X7.186 Y-2.162 E6.59332
G1 X7.186 Y-1.209 E6.62007
G1 X3.814 Y2.162 E6.75374
G1 X3.814 Y3.116 E6.78048
G1 X7.186 Y-0.255 E6.91415
G1 X7.186 Y0.699 E6.94089
G1 X3.814 Y4.070 E7.07456
G1 X3.814 Y5.024 E7.10130
G1 X7.186 Y1.652 E7.23497
G1 X7.186 Y2.606 E7.26171
G1 X3.814 Y5.977 E7.39538
G1 X3.814 Y6.931 E7.42212
G1 X7.186 Y3.560 E7.55579
G1 X7.186 Y4.514 E7.58253
G1 X3.814 Y7.885 E7.71621
G1 X3.814 Y8.839 E7.74295
G1 X7.186 Y5.467 E7.87662
G1 X7.186 Y6.421 E7.90336
G1 X4.257 Y9.350 E8.01948
G1 X5.211 Y9.350 E8.04622
G1 X7.186 Y7.375 E8.12453
G1 X7.186 Y8.329 E8.15127
G1 X6.164 Y9.350 E8.19176
G1 X7.118 Y9.350 E8.21850
G1 X7.186 Y9.282 E8.22118
G1 X3.338 Y10.977 F7800.000
G1 X3.227 Y11.088 E8.22379 F600.000
G1 X2.394 Y11.346 F7800.000
G1 X2.384 Y11.357 E8.22392 F600.000
G1 X2.215 Y11.222 E8.22584 F600.000
G1 X2.093 Y11.344 E8.22738 F600.000
G1 X2.015 Y11.119 E8.22950 F600.000
G1 X1.803 Y11.331 E8.23218 F600.000
G1 X1.712 Y11.119 E8.23423 F600.000
G1 X1.512 Y11.318 E8.23675 F600.000
G1 X1.408 Y11.119 E8.23875 F600.000
G1 X1.222 Y11.306 E8.24110 F600.000
G1 X1.105 Y11.119 E8.24306 F600.000
G1 X0.931 Y11.293 E8.24525 F600.000
G1 X0.802 Y11.119 E8.24719 F600.000
G1 X0.641 Y11.280 E8.24922 F600.000
G1 X0.498 Y11.119 E8.25113 F600.000
G1 X0.350 Y11.268 E8.25300 F600.000
G1 X0.195 Y11.119 E8.25492 F600.000
G1 X0.060 Y11.255 E8.25663 F600.000
G1 X-0.108 Y11.119 E8.25855 F600.000
G1 X-0.231 Y11.242 E8.26010 F600.000
G1 X-0.412 Y11.119 E8.26204 F600.000
G1 X-0.522 Y11.229 E8.26343 F600.000
G1 X-0.715 Y11.119 E8.26541 F600.000
G1 X-0.812 Y11.217 E8.26664 F600.000
G1 X-1.018 Y11.119 E8.26867 F600.000
G1 X-1.103 Y11.204 E8.26974 F600.000
G1 X-1.321 Y11.119 E8.27183 F600.000
G1 X-1.393 Y11.191 E8.27274 F600.000
G1 X-1.625 Y11.119 E8.27490 F600.000
G1 X-1.684 Y11.178 E8.27565 F600.000
G1 X-1.928 Y11.119 E8.27789 F600.000
G1 X-1.974 Y11.166 E8.27847 F600.000
G1 X-2.231 Y11.119 E8.28080 F600.000
G1 X-2.265 Y11.153 E8.28122 F600.000
G1 X-2.535 Y11.119 E8.28365 F600.000
G1 X-2.545 Y11.130 E8.28378 F600.000
G1 X-6.803 Y10.527 F7800.000
G1 X-6.838 Y10.562 E8.28462 F600.000
G1 X-7.196 Y10.340 E8.29181 F600.000
G1 X-7.241 Y10.384 E8.29287 F600.000
G1 F1800.000 E3.29287
G92 E0
G1 X-7.009 Y10.056 F7800.000
G1 X-9.985 Y8.385 F7800.000
G1 X-1.668 Y-8.250 F7800.000
G1 X-6.309 Y-10.845 F7800.000
G1 X-6.922 Y-10.393 F7800.000
G1 E5.00000 F1800.000
G1 X-7.204 Y-10.541 E5.00403 F600.000
G1 X-7.235 Y-10.510 E5.00459 F600.000
G1 X-6.922 Y-10.393 F7800.000
G1 X-6.844 Y-10.471 E5.00598 F600.000
G1 X-2.545 Y-11.130 F7800.000
G1 X-2.534 Y-11.142 E5.00614 F600.000
G1 X-2.242 Y-11.119 E5.00885 F600.000
G1 X-2.204 Y-11.156 E5.00933 F600.000
G1 X-1.927 Y-11.119 E5.01193 F600.000
G1 X-1.875 Y-11.171 E5.01260 F600.000
G1 X-1.612 Y-11.119 E5.01509 F600.000
G1 X-1.546 Y-11.185 E5.01595 F600.000
G1 X-1.297 Y-11.119 E5.01834 F600.000
G1 X-1.217 Y-11.199 E5.01939 F600.000
G1 X-0.982 Y-11.119 E5.02168 F600.000
G1 X-0.887 Y-11.214 E5.02293 F600.000
G1 X-0.667 Y-11.119 E5.02514 F600.000
G1 X-0.558 Y-11.228 E5.02658 F600.000
G1 X-0.352 Y-11.119 E5.02873 F600.000
G1 X-0.229 Y-11.243 E5.03035 F600.000
G1 X-0.037 Y-11.119 E5.03246 F600.000
G1 X0.101 Y-11.257 E5.03427 F600.000
G1 X0.277 Y-11.119 E5.03635 F600.000
G1 X0.430 Y-11.271 E5.03834 F600.000
G1 X0.592 Y-11.119 E5.04041 F600.000
G1 X0.759 Y-11.286 E5.04259 F600.000
G1 X0.907 Y-11.119 E5.04466 F600.000
G1 X1.089 Y-11.300 E5.04703 F600.000
G1 X1.222 Y-11.119 E5.04912 F600.000
G1 X1.418 Y-11.315 E5.05168 F600.000
G1 X1.537 Y-11.119 E5.05381 F600.000
G1 X1.747 Y-11.329 E5.05656 F600.000
G1 X1.852 Y-11.119 E5.05873 F600.000
G1 X2.077 Y-11.344 E5.06168 F600.000
G1 X2.359 Y-11.311 E5.06431 F600.000
G1 X2.394 Y-11.346 E5.06477 F600.000
G1 X3.253 Y-10.878 F7800.000
G1 X3.315 Y-10.940 E5.06624 F600.000
G1 F1800.000 E0.06624
G92 E0
G1 Z0.600 F7800.000
G1 X3.500 Y-2.599 F7800.000
G1 X0.500 Y-0.418 F7800.000
G1 X-9.985 Y8.385 F7800.000
G1 X-7.009 Y10.056 F7800.000
G1 X-7.009 Y10.056 F7800.000
G1 E5.00000 F1800.000
G1 X-6.692 Y10.210 E5.00588 F638.520
G1 X-6.309 Y10.845 E5.01820
G1 X-7.500 Y10.793 E5.03803
G1 X-7.500 Y10.216 E5.04761
G1 X-7.360 Y10.099 E5.05065
G1 X-7.069 Y10.063 E5.05553
G1 X-6.941 Y9.644 F7800.000
G1 X-6.410 Y9.902 E5.06534 F638.520
G1 X-5.839 Y10.850 E5.08374
G1 X2.128 Y10.850 E5.21624
G1 X2.952 Y11.364 E5.23238
G1 X2.677 Y11.639 E5.23884
G1 X-7.900 Y11.176 E5.41490
G1 X-7.900 Y10.030 E5.43396
G1 X-7.526 Y9.716 E5.44207
G1 X-7.000 Y9.652 E5.45088
G1 F1800.000 E0.45088
G92 E0
G1 X-7.009 Y10.056 F7800.000
G1 X-9.985 Y8.385 F7800.000
G1 X0.500 Y-0.418 F7800.000
G1 X3.500 Y-2.599 F7800.000
G1 X3.500 Y9.763 F7800.000
G1 E5.00000 F1800.000
G1 X3.500 Y-9.763 E5.32473 F851.360
G1 X3.687 Y-10.063 E5.33061
G1 X4.086 Y-9.664 E5.33998
G1 X7.500 Y-9.664 E5.39676
G1 X7.500 Y9.664 E5.71820
G1 X4.086 Y9.664 E5.77497
G1 X3.687 Y10.063 E5.78435
G1 X3.532 Y9.814 E5.78923
G1 X3.100 Y9.878 F7800.000
G1 X3.100 Y-9.878 E6.11777 F851.360
G1 X3.614 Y-10.702 E6.13392
G1 X4.251 Y-10.064 E6.14890
G1 X7.900 Y-10.064 E6.20958
G1 X7.900 Y10.064 E6.54432
G1 X4.251 Y10.064 E6.60499
G1 X3.614 Y10.702 E6.61998
G1 X3.132 Y9.929 E6.63513
G1 F1800.000 E1.63513
G92 E0
G1 X3.687 Y-10.063 F7800.000
G1 X3.706 Y-14.287 F7800.000
G1 X-5.190 Y-13.897 F7800.000
G1 X-6.309 Y-10.845 F7800.000
G1 X-6.692 Y-10.210 F7800.000
G1 E5.00000 F1800.000
G1 X-7.009 Y-10.056 E5.00588 F638.520
G1 X-7.360 Y-10.099 E5.01175
G1 X-7.500 Y-10.216 E5.01479
G1 X-7.500 Y-10.793 E5.02438
G1 X-6.309 Y-10.845 E5.04420
G1 X-6.661 Y-10.262 E5.05553
G1 X-6.410 Y-9.902 F7800.000
G1 X-6.941 Y-9.644 E5.06534 F638.520
G1 X-7.526 Y-9.716 E5.07516
G1 X-7.900 Y-10.030 E5.08327
G1 X-7.900 Y-11.176 E5.10232
G1 X2.677 Y-11.639 E5.27838
G1 X2.952 Y-11.364 E5.28485
G1 X2.128 Y-10.850 E5.30099
G1 X-5.839 Y-10.850 E5.43348
G1 X-6.379 Y-9.954 E5.45088
G1 X-6.129 Y-9.595 F7800.000
G1 X-6.872 Y-9.233 E5.46463 F600.000
G1 X-7.693 Y-9.334 E5.47838
G1 X-8.300 Y-9.843 E5.49157
G1 X-8.300 Y-11.559 E5.52009
G1 X2.835 Y-12.046 E5.70544
G1 X4.417 Y-10.464 E5.74265
G1 X8.300 Y-10.464 E5.80723
G1 X8.300 Y10.464 E6.15527
G1 X4.417 Y10.464 E6.21984
G1 X2.835 Y12.046 E6.25705
G1 X-8.300 Y11.559 E6.44240
G1 X-8.300 Y9.843 E6.47093
G1 X-7.693 Y9.334 E6.48411
G1 X-6.872 Y9.233 E6.49786
G1 X-6.129 Y9.595 E6.51161
G1 X-5.613 Y10.450 E6.52822
G1 X2.243 Y10.450 E6.65886
G1 X2.779 Y10.785 E6.66938
G1 X3.035 Y10.529 E6.67540
G1 X2.700 Y9.993 E6.68592
G1 X2.700 Y-9.993 E7.01828
G1 X3.035 Y-10.529 E7.02880
G1 X2.779 Y-10.785 E7.03482
G1 X2.243 Y-10.450 E7.04534
G1 X-5.613 Y-10.450 E7.17598
G1 X-6.098 Y-9.646 E7.19159
G1 X-6.497 Y-9.751 F7800.000
G1 F1800.000 E2.19159
G92 E0
G1 X-6.309 Y-10.845 F7800.000
