; generated by Slic3r 1.0.0RC2 on 2014-08-26 at 18:03:44

; layer_height = 0.1
; perimeters = 3
; top_solid_layers = 3
; bottom_solid_layers = 3
; fill_density = 0.2
; perimeter_speed = 40
; infill_speed = 80
; travel_speed = 130
; nozzle_diameter = 0.4
; filament_diameter = 1.75
; extrusion_multiplier = 1
; perimeters extrusion width = 0.40mm
; infill extrusion width = 1.28mm
; solid infill extrusion width = 0.68mm
; top infill extrusion width = 0.68mm
; first layer extrusion width = 0.80mm

G21 ; set units to millimeters
M107
M104 S215 ; set temperature
G28 ; home all axes
G1 X0 Y0 Z40 F5000; Centers Nozzle
M109 S215 ; wait for temperature to be reached
G90 ; use absolute coordinates
G92 E0
M82 ; use absolute distances for extrusion
G1 F1800.000 E-5.00000
G92 E0
G1 Z0.400 F7800.000
G1 X-19.279 Y-79.199 F7800.000
G1 E5.00000 F1800.000
G1 X-1.189 Y-81.649 E7.16808 F720.000
G1 X-0.319 Y-81.709 E7.27165
G1 X0.561 Y-81.659 E7.37633
G1 X19.981 Y-79.179 E9.70148
G1 X20.841 Y-79.009 E9.80559
G1 X21.671 Y-78.729 E9.90963
G1 X39.791 Y-71.309 E12.23509
G1 X40.591 Y-70.929 E12.34028
G1 X41.321 Y-70.439 E12.44470
G1 X56.891 Y-58.579 E14.76923
G1 X57.551 Y-58.009 E14.87281
G1 X58.131 Y-57.349 E14.97716
G1 X70.111 Y-41.859 E17.30283
G1 X70.601 Y-41.129 E17.40725
G1 X70.991 Y-40.339 E17.51189
G1 X78.551 Y-22.279 E19.83713
G1 X78.841 Y-21.449 E19.94155
G1 X79.011 Y-20.589 E20.04566
G1 X81.641 Y-1.189 E22.37078
G1 X81.701 Y-0.319 E22.47435
G1 X81.651 Y0.561 E22.57904
G1 X79.171 Y19.981 E24.90419
G1 X79.001 Y20.841 E25.00830
G1 X78.721 Y21.671 E25.11233
G1 X71.301 Y39.791 E27.43780
G1 X70.921 Y40.591 E27.54299
G1 X70.431 Y41.321 E27.64740
G1 X58.571 Y56.891 E29.97194
G1 X58.001 Y57.551 E30.07551
G1 X57.341 Y58.131 E30.17986
G1 X41.851 Y70.111 E32.50554
G1 X41.121 Y70.601 E32.60996
G1 X40.331 Y70.991 E32.71459
G1 X22.271 Y78.551 E35.03984
G1 X21.441 Y78.841 E35.14426
G1 X20.581 Y79.011 E35.24837
G1 X1.181 Y81.641 E37.57349
G1 X0.311 Y81.701 E37.67706
G1 X-0.569 Y81.651 E37.78174
G1 X-19.989 Y79.171 E40.10689
G1 X-20.849 Y79.001 E40.21101
G1 X-21.679 Y78.721 E40.31504
G1 X-39.799 Y71.301 E42.64051
G1 X-40.599 Y70.921 E42.74569
G1 X-41.329 Y70.431 E42.85011
G1 X-56.899 Y58.571 E45.17465
G1 X-57.559 Y58.001 E45.27822
G1 X-58.139 Y57.341 E45.38257
G1 X-70.119 Y41.851 E47.70825
G1 X-70.609 Y41.121 E47.81267
G1 X-70.999 Y40.341 E47.91624
G1 X-78.569 Y22.281 E50.24194
G1 X-78.859 Y21.441 E50.34748
G1 X-79.029 Y20.581 E50.45159
G1 X-81.649 Y1.181 E52.77655
G1 X-81.709 Y0.301 E52.88131
G1 X-81.659 Y-0.569 E52.98481
G1 X-79.179 Y-19.989 E55.30996
G1 X-79.009 Y-20.849 E55.41407
G1 X-78.729 Y-21.679 E55.51810
G1 X-71.309 Y-39.799 E57.84357
G1 X-70.929 Y-40.599 E57.94876
G1 X-70.439 Y-41.329 E58.05318
G1 X-58.579 Y-56.899 E60.37771
G1 X-58.009 Y-57.559 E60.48128
G1 X-57.349 Y-58.139 E60.58563
G1 X-41.859 Y-70.119 E62.91131
G1 X-41.129 Y-70.609 E63.01573
G1 X-40.349 Y-70.999 E63.11930
G1 X-22.289 Y-78.569 E65.44500
G1 X-21.439 Y-78.859 E65.55167
G1 X-20.569 Y-79.039 E65.65718
G1 X-19.376 Y-79.197 E65.80018
G1 F1800.000 E60.80018
G92 E0
G1 X-13.489 Y-70.425 F7800.000
G1 E5.00000 F1800.000
G1 X-12.410 Y-70.764 E5.13431 F720.000
G1 X6.328 Y-71.565 E7.36176
G1 X24.635 Y-67.489 E9.58921
G1 X41.263 Y-58.813 E11.81666
G1 X55.079 Y-46.129 E14.04411
G1 X65.141 Y-30.302 E16.27156
G1 X70.764 Y-12.410 E18.49901
G1 X71.565 Y6.328 E20.72646
G1 X67.489 Y24.635 E22.95391
G1 X58.813 Y41.263 E25.18135
G1 X46.129 Y55.079 E27.40880
G1 X30.302 Y65.141 E29.63626
G1 X12.410 Y70.764 E31.86370
G1 X-6.328 Y71.565 E34.09115
G1 X-24.635 Y67.489 E36.31860
G1 X-41.263 Y58.813 E38.54605
G1 X-55.079 Y46.129 E40.77350
G1 X-55.861 Y44.898 E40.94677
G1 X-65.141 Y30.302 E43.00095
G1 X-70.764 Y12.410 E45.22840
G1 X-71.565 Y-6.328 E47.45585
G1 X-71.248 Y-7.752 E47.62912
G1 X-67.489 Y-24.635 E49.68330
G1 X-58.813 Y-41.263 E51.91075
G1 X-46.129 Y-55.079 E54.13820
G1 X-30.302 Y-65.141 E56.36565
G1 X-13.591 Y-70.393 E58.44606
G1 F1800.000 E53.44606
G92 E0
G1 X-8.560 Y-2.681 F7800.000
G1 E5.00000 F1800.000
G1 X-2.089 Y0.000 E5.83190 F720.000
G1 X-65.642 Y26.325 E14.00178
G1 X-70.055 Y12.285 E15.74958
G1 X-70.847 Y-6.265 E17.95469
G1 X-66.812 Y-24.388 E20.15981
G1 X-65.773 Y-26.379 E20.42654
G1 X-8.659 Y-2.722 E27.76858
G1 X-8.833 Y-2.021 F7800.000
G1 X-3.955 Y0.000 E28.39571 F504.000
G1 X-65.195 Y25.367 E36.26818
G1 X-69.345 Y12.161 E37.91216
G1 X-70.130 Y-6.201 E40.09494
G1 X-66.135 Y-24.141 E42.27773
G1 X-65.442 Y-25.469 E42.45564
G1 X-8.932 Y-2.062 E49.72004
G1 X-8.267 Y-2.455 F7800.000
G1 X-1.477 Y-1.477 F7800.000
G1 X-65.031 Y-27.802 E57.88991 F720.000
G1 X-58.223 Y-40.849 E59.63771
G1 X-45.667 Y-54.526 E61.84283
G1 X-29.998 Y-64.488 E64.04794
G1 X-27.856 Y-65.161 E64.31467
G1 X-1.518 Y-1.576 E72.48862
G1 X-2.796 Y-2.796 F7800.000
G1 X-64.037 Y-28.163 E80.36108 F504.000
G1 X-57.634 Y-40.435 E82.00506
G1 X-45.204 Y-53.974 E84.18784
G1 X-29.695 Y-63.835 E86.37063
G1 X-28.265 Y-64.284 E86.54854
G1 X-2.837 Y-2.895 E94.44007
G1 X-2.890 Y-2.088 F7800.000
G1 X0.000 Y-2.089 F7800.000
G1 X-26.325 Y-65.642 E102.60995 F720.000
G1 X-12.285 Y-70.055 E104.35774
G1 X6.265 Y-70.847 E106.56286
G1 X24.388 Y-66.812 E108.76798
G1 X26.379 Y-65.773 E109.03471
G1 X0.041 Y-2.188 E117.20865
G1 X0.000 Y-3.955 F7800.000
G1 X-25.367 Y-65.195 E125.08111 F504.000
G1 X-12.161 Y-69.345 E126.72510
G1 X6.201 Y-70.130 E128.90788
G1 X24.141 Y-66.135 E131.09066
G1 X25.469 Y-65.442 E131.26858
G1 X0.041 Y-4.054 E139.16011
G1 X-0.567 Y-3.520 F7800.000
G1 X1.477 Y-1.477 F7800.000
G1 X27.802 Y-65.031 E147.32998 F720.000
G1 X40.849 Y-58.223 E149.07778
G1 X54.526 Y-45.667 E151.28290
G1 X64.488 Y-29.998 E153.48802
G1 X65.161 Y-27.856 E153.75475
G1 X1.576 Y-1.518 E161.92869
G1 X2.796 Y-2.796 F7800.000
G1 X28.163 Y-64.037 E169.80115 F504.000
G1 X40.435 Y-57.634 E171.44513
G1 X53.974 Y-45.204 E173.62791
G1 X63.835 Y-29.695 E175.81070
G1 X64.284 Y-28.265 E175.98861
G1 X2.895 Y-2.837 E183.88014
G1 X2.088 Y-2.890 F7800.000
G1 X2.089 Y-0.000 F7800.000
G1 X65.642 Y-26.325 E192.05002 F720.000
G1 X70.055 Y-12.285 E193.79781
G1 X70.847 Y6.265 E196.00293
G1 X66.812 Y24.388 E198.20805
G1 X65.773 Y26.379 E198.47478
G1 X2.188 Y0.041 E206.64872
G1 X3.955 Y-0.000 F7800.000
G1 X65.195 Y-25.367 E214.52118 F504.000
G1 X69.345 Y-12.161 E216.16517
G1 X70.130 Y6.201 E218.34795
G1 X66.135 Y24.141 E220.53073
G1 X65.442 Y25.469 E220.70865
G1 X4.054 Y0.041 E228.60018
G1 X3.520 Y-0.567 F7800.000
G1 X1.477 Y1.477 F7800.000
G1 X65.031 Y27.802 E236.77005 F720.000
G1 X58.223 Y40.849 E238.51785
G1 X45.667 Y54.526 E240.72297
G1 X29.998 Y64.488 E242.92809
G1 X27.856 Y65.161 E243.19481
G1 X1.518 Y1.576 E251.36876
G1 X2.796 Y2.796 F7800.000
G1 X64.037 Y28.163 E259.24122 F504.000
G1 X57.634 Y40.435 E260.88520
G1 X45.204 Y53.974 E263.06799
G1 X29.695 Y63.835 E265.25077
G1 X28.265 Y64.284 E265.42869
G1 X2.837 Y2.895 E273.32021
G1 X2.890 Y2.088 F7800.000
G1 X-1.477 Y1.477 F7800.000
G1 X-27.802 Y65.031 E281.49009 F720.000
G1 X-40.849 Y58.223 E283.23789
G1 X-54.526 Y45.667 E285.44300
G1 X-64.488 Y29.998 E287.64812
G1 X-65.161 Y27.856 E287.91485
G1 X-1.576 Y1.518 E296.08879
G1 X-2.796 Y2.796 F7800.000
G1 X-28.163 Y64.037 E303.96125 F504.000
G1 X-40.435 Y57.634 E305.60524
G1 X-53.974 Y45.204 E307.78802
G1 X-63.835 Y29.695 E309.97080
G1 X-64.284 Y28.265 E310.14872
G1 X-2.895 Y2.837 E318.04025
G1 X-2.088 Y2.890 F7800.000
G1 X0.000 Y2.089 F7800.000
G1 X26.325 Y65.642 E326.21012 F720.000
G1 X12.285 Y70.055 E327.95792
G1 X-6.265 Y70.847 E330.16304
G1 X-24.388 Y66.812 E332.36816
G1 X-26.379 Y65.773 E332.63489
G1 X-0.041 Y2.188 E340.80883
G1 X0.000 Y3.955 F7800.000
G1 X25.367 Y65.195 E348.68129 F504.000
G1 X12.161 Y69.345 E350.32527
G1 X-6.201 Y70.130 E352.50806
G1 X-24.141 Y66.135 E354.69084
G1 X-25.469 Y65.442 E354.86876
G1 X-0.041 Y4.054 E362.76028
G1 X0.567 Y3.520 F7800.000
G1 X0.000 Y2.387 F7800.000
G1 X-17.270 Y39.306 F7800.000
G1 X-27.109 Y68.170 F7800.000
G1 X-17.782 Y71.683 F7800.000
G1 X18.516 Y70.683 F7800.000
G1 X0.281 Y73.155 E364.94580 F720.000
G1 X-18.663 Y70.735 E367.21392
G1 X-36.335 Y63.495 E369.48204
G1 X-51.530 Y51.927 E371.75016
G1 X-63.214 Y36.821 E374.01828
G1 X-70.590 Y19.205 E376.28640
G1 X-73.155 Y0.281 E378.55452
G1 X-70.735 Y-18.663 E380.82264
G1 X-63.495 Y-36.335 E383.09077
G1 X-51.927 Y-51.530 E385.35889
G1 X-36.821 Y-63.214 E387.62701
G1 X-19.205 Y-70.590 E389.89513
G1 X-0.281 Y-73.155 E392.16325
G1 X18.663 Y-70.735 E394.43137
G1 X36.335 Y-63.495 E396.69949
G1 X51.530 Y-51.927 E398.96761
G1 X62.563 Y-37.663 E401.10930
G1 X63.214 Y-36.821 E401.23573
G1 X70.590 Y-19.205 E403.50385
G1 X73.155 Y-0.281 E405.77197
G1 X70.735 Y18.663 E408.04009
G1 X63.495 Y36.335 E410.30821
G1 X51.927 Y51.530 E412.57633
G1 X36.821 Y63.214 E414.84445
G1 X19.205 Y70.590 E417.11257
G1 X18.622 Y70.669 E417.18245
G1 X18.303 Y71.433 F7800.000
G1 X0.283 Y73.876 E419.34209 F720.000
G1 X-18.847 Y71.432 E421.63254
G1 X-36.692 Y64.120 E423.92300
G1 X-52.038 Y52.438 E426.21345
G1 X-63.837 Y37.183 E428.50390
G1 X-71.285 Y19.394 E430.79436
G1 X-73.876 Y0.283 E433.08481
G1 X-71.432 Y-18.847 E435.37526
G1 X-64.120 Y-36.692 E437.66572
G1 X-52.438 Y-52.038 E439.95617
G1 X-51.522 Y-52.746 E440.09377
G1 X-37.183 Y-63.837 E442.24663
G1 X-19.394 Y-71.285 E444.53708
G1 X-0.283 Y-73.876 E446.82753
G1 X18.847 Y-71.432 E449.11799
G1 X36.692 Y-64.120 E451.40844
G1 X52.038 Y-52.438 E453.69889
G1 X63.128 Y-38.100 E455.85175
G1 X63.837 Y-37.183 E455.98935
G1 X71.285 Y-19.394 E458.27980
G1 X73.876 Y-0.283 E460.57025
G1 X71.432 Y18.847 E462.86071
G1 X64.120 Y36.692 E465.15116
G1 X52.438 Y52.038 E467.44161
G1 X37.183 Y63.837 E469.73207
G1 X19.394 Y71.285 E472.02252
G1 X18.409 Y71.419 E472.14061
G1 X18.399 Y72.141 F7800.000
G1 X0.286 Y74.596 E474.31142 F504.000
G1 X-19.031 Y72.128 E476.62420
G1 X-37.050 Y64.745 E478.93699
G1 X-52.545 Y52.950 E481.24978
G1 X-64.459 Y37.546 E483.56256
G1 X-71.980 Y19.583 E485.87535
G1 X-74.596 Y0.286 E488.18813
G1 X-72.128 Y-19.031 E490.50092
G1 X-64.745 Y-37.050 E492.81371
G1 X-52.950 Y-52.545 E495.12649
G1 X-51.959 Y-53.311 E495.27526
G1 X-37.546 Y-64.459 E497.43928
G1 X-19.583 Y-71.980 E499.75206
G1 X-0.286 Y-74.596 E502.06485
G1 X19.031 Y-72.128 E504.37764
G1 X37.050 Y-64.745 E506.69042
G1 X52.545 Y-52.950 E509.00321
G1 X63.693 Y-38.537 E511.16723
G1 X64.459 Y-37.546 E511.31600
G1 X71.980 Y-19.583 E513.62878
G1 X74.596 Y-0.286 E515.94157
G1 X72.128 Y19.031 E518.25435
G1 X64.745 Y37.050 E520.56714
G1 X52.950 Y52.545 E522.87993
G1 X37.546 Y64.459 E525.19271
G1 X19.583 Y71.980 E527.50550
G1 X18.505 Y72.126 E527.63476
G1 X17.962 Y71.576 F7800.000
G1 X17.901 Y70.040 F7800.000
G1 X18.511 Y69.601 E527.72732 F360.000
G1 X18.825 Y69.915 E527.78198 F360.000
G1 X19.309 Y69.351 E527.87361 F360.000
G1 X19.601 Y69.644 E527.92463 F360.000
G1 X20.106 Y69.100 E528.01606 F360.000
G1 X20.340 Y69.334 E528.05685 F360.000
G1 X20.904 Y68.850 E528.14847 F360.000
G1 X21.079 Y69.025 E528.17902 F360.000
G1 X21.701 Y68.599 E528.27197 F360.000
G1 X21.818 Y68.715 E528.29229 F360.000
G1 X22.499 Y68.348 E528.38766 F360.000
G1 X22.528 Y68.378 E528.39281 F360.000
G1 X23.802 Y68.062 F7800.000
G1 X23.921 Y67.670 E528.41736 F360.000
G1 X24.206 Y67.955 E528.44157 F360.000
G1 X24.566 Y67.804 E528.46495 F360.000
G1 X24.309 Y67.548 E528.48673 F360.000
G1 X24.697 Y67.426 E528.51114 F360.000
G1 X24.925 Y67.654 E528.53050 F360.000
G1 X25.085 Y67.304 E528.55359 F360.000
G1 X25.285 Y67.503 E528.57052 F360.000
G1 X25.473 Y67.182 E528.59288 F360.000
G1 X25.644 Y67.353 E528.60740 F360.000
G1 X25.861 Y67.060 E528.62927 F360.000
G1 X26.004 Y67.202 E528.64136 F360.000
G1 X26.249 Y66.938 E528.66301 F360.000
G1 X26.363 Y67.052 E528.67267 F360.000
G1 X26.638 Y66.816 E528.69437 F360.000
G1 X26.723 Y66.901 E528.70161 F360.000
G1 X27.026 Y66.694 E528.72362 F360.000
G1 X27.082 Y66.751 E528.72844 F360.000
G1 X27.414 Y66.572 E528.75102 F360.000
G1 X27.428 Y66.586 E528.75224 F360.000
G1 X26.940 Y64.835 F7800.000
G1 X26.652 Y64.547 E528.80063 F360.000
G1 X26.225 Y63.110 E528.97877 F360.000
G1 X25.937 Y62.822 E529.02716 F360.000
G1 X25.511 Y61.384 E529.20530 F360.000
G1 X25.223 Y61.097 E529.25369 F360.000
G1 X24.796 Y59.659 E529.43183 F360.000
G1 X24.508 Y59.371 E529.48022 F360.000
G1 X24.081 Y57.934 E529.65837 F360.000
G1 X23.794 Y57.646 E529.70675 F360.000
G1 X23.367 Y56.209 E529.88490 F360.000
G1 X23.079 Y55.921 E529.93328 F360.000
G1 X22.652 Y54.484 E530.11143 F360.000
G1 X22.364 Y54.196 E530.15981 F360.000
G1 X21.938 Y52.759 E530.33796 F360.000
G1 X21.650 Y52.471 E530.38634 F360.000
G1 X21.223 Y51.034 E530.56449 F360.000
G1 X20.935 Y50.746 E530.61287 F360.000
G1 X20.509 Y49.309 E530.79102 F360.000
G1 X20.221 Y49.021 E530.83940 F360.000
G1 X19.794 Y47.584 E531.01755 F360.000
G1 X19.506 Y47.296 E531.06593 F360.000
G1 X19.080 Y45.859 E531.24408 F360.000
G1 X18.792 Y45.571 E531.29246 F360.000
G1 X18.365 Y44.134 E531.47061 F360.000
G1 X18.077 Y43.846 E531.51899 F360.000
G1 X17.651 Y42.408 E531.69714 F360.000
G1 X17.363 Y42.121 E531.74553 F360.000
G1 X16.936 Y40.683 E531.92367 F360.000
G1 X16.648 Y40.395 E531.97206 F360.000
G1 X16.221 Y38.958 E532.15020 F360.000
G1 X15.933 Y38.670 E532.19859 F360.000
G1 X15.507 Y37.233 E532.37673 F360.000
G1 X15.219 Y36.945 E532.42512 F360.000
G1 X14.792 Y35.508 E532.60326 F360.000
G1 X14.504 Y35.220 E532.65165 F360.000
G1 X14.078 Y33.783 E532.82979 F360.000
G1 X13.790 Y33.495 E532.87818 F360.000
G1 X13.363 Y32.058 E533.05633 F360.000
G1 X13.075 Y31.770 E533.10471 F360.000
G1 X12.649 Y30.333 E533.28286 F360.000
G1 X12.361 Y30.045 E533.33124 F360.000
G1 X11.934 Y28.608 E533.50939 F360.000
G1 X11.646 Y28.320 E533.55777 F360.000
G1 X11.220 Y26.883 E533.73592 F360.000
G1 X10.932 Y26.595 E533.78430 F360.000
G1 X10.505 Y25.158 E533.96245 F360.000
G1 X10.217 Y24.870 E534.01083 F360.000
G1 X9.790 Y23.433 E534.18898 F360.000
G1 X9.503 Y23.145 E534.23736 F360.000
G1 X9.076 Y21.707 E534.41551 F360.000
G1 X8.788 Y21.420 E534.46389 F360.000
G1 X8.361 Y19.982 E534.64204 F360.000
G1 X8.073 Y19.694 E534.69043 F360.000
G1 X7.647 Y18.257 E534.86857 F360.000
G1 X7.359 Y17.969 E534.91696 F360.000
G1 X6.932 Y16.532 E535.09510 F360.000
G1 X6.644 Y16.244 E535.14349 F360.000
G1 X6.218 Y14.807 E535.32163 F360.000
G1 X5.930 Y14.519 E535.37002 F360.000
G1 X5.503 Y13.082 E535.54816 F360.000
G1 X5.215 Y12.794 E535.59655 F360.000
G1 X4.789 Y11.357 E535.77469 F360.000
G1 X4.501 Y11.069 E535.82308 F360.000
G1 X4.074 Y9.632 E536.00123 F360.000
G1 X3.786 Y9.344 E536.04961 F360.000
G1 X3.359 Y7.907 E536.22776 F360.000
G1 X3.072 Y7.619 E536.27614 F360.000
G1 X2.645 Y6.182 E536.45429 F360.000
G1 X2.357 Y5.894 E536.50267 F360.000
G1 X1.930 Y4.457 E536.68082 F360.000
G1 X1.642 Y4.169 E536.72920 F360.000
G1 X1.216 Y2.732 E536.90735 F360.000
G1 X0.928 Y2.444 E536.95573 F360.000
G1 X0.501 Y1.006 F7800.000
G1 X0.213 Y0.719 E537.00412 F360.000
G1 X-0.088 Y0.417 E537.05481 F360.000
G1 X-0.208 Y0.298 E537.07485 F360.000
G1 X-0.298 Y0.208 E537.08998 F360.000
G1 X-0.417 Y0.088 E537.11002 F360.000
G1 X-0.719 Y-0.213 E537.16072 F360.000
G1 X-1.006 Y-0.501 E537.20910 F360.000
G1 X-2.444 Y-0.928 E537.38725 F360.000
G1 X-2.732 Y-1.216 E537.43564 F360.000
G1 X-4.169 Y-1.642 E537.61378 F360.000
G1 X-4.457 Y-1.930 E537.66217 F360.000
G1 X-5.894 Y-2.357 E537.84031 F360.000
G1 X-6.182 Y-2.645 E537.88870 F360.000
G1 X-7.619 Y-3.072 E538.06684 F360.000
G1 X-7.907 Y-3.359 E538.11523 F360.000
G1 X-9.344 Y-3.786 E538.29337 F360.000
G1 X-9.632 Y-4.074 E538.34176 F360.000
G1 X-11.069 Y-4.501 E538.51990 F360.000
G1 X-11.357 Y-4.789 E538.56829 F360.000
G1 X-12.794 Y-5.215 E538.74644 F360.000
G1 X-13.082 Y-5.503 E538.79482 F360.000
G1 X-14.519 Y-5.930 E538.97297 F360.000
G1 X-14.807 Y-6.218 E539.02135 F360.000
G1 X-16.244 Y-6.644 E539.19950 F360.000
G1 X-16.532 Y-6.932 E539.24788 F360.000
G1 X-17.969 Y-7.359 E539.42603 F360.000
G1 X-18.257 Y-7.647 E539.47441 F360.000
G1 X-19.694 Y-8.073 E539.65256 F360.000
G1 X-19.982 Y-8.361 E539.70094 F360.000
G1 X-21.420 Y-8.788 E539.87909 F360.000
G1 X-21.707 Y-9.076 E539.92747 F360.000
G1 X-23.145 Y-9.503 E540.10562 F360.000
G1 X-23.433 Y-9.790 E540.15400 F360.000
G1 X-24.870 Y-10.217 E540.33215 F360.000
